N703(LONG TOOL RETURN PROGRAM)
T031.64 M6
G91 G90
G54 G64
G0 Y0.0000
G18 M202 (TURN MODE)
G10.9 X1 (DIAMETER MODE)
G0 X-8.0 Z-3.88889
G98 G1 B30. X-8. Z1.200 F100.
G91 G28 Z0 (1 - HOME Z)
G91 G28 X0 (2 - HOME X)
G91 G28 Y0 (3 - HOME Y)
G90
M00

M00 (CONTINUE PROGRAM BELOW FOR MANUAL TOOL UNLOAD)
M108 (UNCLAMP B AXIS)
G0 B90.
M107 (CLAMP B AXIS)
G0 G91 Y-41.5
Z-8.00
M19
M00 (MANUAL TOOL UNLOAD)
M00 (CONTINUE N5)

(GE OIL&GAS - DRILLING&PRODUCTION)
(MACHINE:MAZAK INTEGREX E-1060V/8 II)
(CNC CONTROL :MAZATROL MATRIX)
(PROGRAM:304079)

(MANUAL TOOL LOADING PROGRAM)

(EQUIPMENT ID:MZK)
(APLICATION CODE:0)
(DESCRIPTION:TUBING HEAD CWCTA-EBS 9-5/8)
(PART NUMBER:A315089)
(PART NUMBER REVIEW:002)
(PART INFO:A315089-1H203)
(PART INFO REVIEW:003)
(OPERATION:MACHINING F1)
(SET UP:1)
(PROGRAMMER:LUCIANO CARDIM)
(****************************************)
(*************** SET JAWS ***************)
(****************************************)
(******* MAIN CHUCK: XXXXXXXXXXXX *******)
(****************************************)
G20 G23 G40 G64 G80
M140 M200 M210
(****************************************)

(**** PARAMETER WORK-OFFSET IN XYZBC ****)
(****************************************)
#900=-52.5591         (****-52.5591)  (*** X [INCH]    ***)
#901=-20.8661         (****-20.8661)  (*** Y [INCH]    ***)
#902=-26.911  (-26.907)         (*** Z [INCH]    ***)
#903=0.0000         (*** B [ANGLE] ***)
#904=353.540 (** C [ANGLE] ***)
(***************************)

(**** DEFINE G54 TO G59 ****)
(***************************)
G90 G10 L2 P0 X0. Y0. Z0. B0.0 C0.
G90 G10 L2 P1 X#900 Y#901 Z#902 B#903 C#904 (P1 - G54)
G90 G10 L2 P2 X#900 Y#901 Z#902 B#903 C#904 (P2 - G55)
G90 G10 L2 P3 X#900 Y#901 Z#902 B#903 C#904 (P3 - G56)
G90 G10 L2 P4 X#900 Y#901 Z#902 B#903 C#904 (P4 - G57)
G90 G10 L2 P5 X#900 Y#901 Z#902 B#903 C#904 (P5 - G58)
G90 G10 L2 P6 X#900 Y#901 Z#902 B#903 C#904 (P6 - G59)
(****************************************************)
(* ATENTION !!!! - MACHINE WILL BE TO HOME POSITION *)
(****** HOLD ON XYZ - CONFIRM WITH CYCLE START ******)
(****************************************************)


G91 G28 Z0 (1 - HOME Z)
G91 G28 X0 (2 - HOME X)
G91 G28 Y0 (3 - HOME Y)
G90
M00

M00 (MANUAL TOOL LOADING)
G91 G28 Z0 (1 - HOME Z)
G91 G28 X0 (2 - HOME X)
G91 G28 Y0 (3 - HOME Y)
G90
M108 (UNCLAMP B AXIS)
G0 B90.
M107 (CLAMP B AXIS)
G0 G91 Y-41.5
Z-27.
M19
M00 (MANUAL TOOL UNLOAD)
M00 (MANUAL NEXT TOOL LOADING & CHANGE TOOL SP.NO)
(NEXT TOOL T04)

N1
(OPERATION: ROUGH TOP FACE)
(COMMENTS: MILLING - ROUGH TOP FACE INTERRUPTED CUT 0.015" STOCK)
(B AXIS ANGLE : 0.0 DEGREES)
(TOOL ID: TD10010 - TOOL DIAMETER: 125.0MM)
(TOOL COMMENT: FACE MILL D125MM/D4.921" 90GR R1.2MM)
T004.61 M6
(T009.61) (TOOL ON HOLD)
G91 G28 Z0 (Z TO SAFETY)
G90
G55 G64
(**************************)
(* G55 WORK-OFFSET ACTIVE *)
(**************************)
G17 M200 M212 (MILLING MODE)
G10.9 X0 (RADIUS MODE)
G97 S380 M3
G0 B0.0000 C0.0000
G0 Y0.0000
G0 X13.2500 Y0.0000
G0 Z6.0000
G0 Z0.1331 M51
M8
G95
G1 Z0.075 F0.070
G1 X10.7106
G3 X10.7106 Y0.0000 I-10.7106 J0.0000
G1 X13.2500

G1 Z0.0150 F0.070
G1 X10.7106
G3 X10.7106 Y0.0000 I-10.7106 J0.0000
G1 X13.2500
G1 Z0.1331
G0 Z1.0000
G49 G69
M9
M5
G91 G28 Z0 (1 - HOME Z)
G91 G28 X0 (2 - HOME X)
G91 G28 Y0 (3 - HOME Y)
G90
M0
M00

N2
(OPERATION: ROUGH OUTLETS FACE)
(COMMENTS: MILLING - ROUGH OUTLETS FACE DIM. 15.00" 0.030" STOCK)
(B AXIS ANGLE: 90.0 DEGREES)
(TOOL ID: TD10010 - TOOL DIAMETER: 125.0 MM)
(TOOL COMMENT: FACE MILL D125MM/D4.921" 90GR R1.2MM)
T04.61 M6
G91 G28 Z0 (Z TO SAFETY)
G90
G55 G64
(**************************)
(* G55 WORK-OFFSET ACTIVE *)
(**************************)
G17 M200 M212 (MILLING MODE)
G10.9 X0 (RADIUS MODE)
G97 S380 M3
M108 (UNCLAMP B AXIS)
G0 B90.0000
M107 (CLAMP B AXIS)
M212 (UNCLAMP C AXIS)
G0 C0.0000
M210 (CLAMP C AXIS)
G68 X0. Y0. Z0. I0. J1. K0. R90.
G0 Y0.0000
G0 X7.6200 Y-8.00 Z15.0000
G0 Z12.1481 M51
M8
G95
G1 Z7.6944 F0.300
G1 Z7.590 F0.070
G1 Y8.00
G0 X10.9547
G1 Y-8.00
G0 X14.280 
G1 Y8.00
G0 Z12.1481
G0 X7.6200 Y-8.00
G1 Z7.6944 F0.3
G1 Z7.5300 F0.070
G1 Y8.000
G0 X10.9547
G1 Y-8.000
G0 X14.280 
G1 Y8.000
G1 Z7.6944 F0.3
G0 Z25.0000


(** ROUGH OUTLETS C180 **)

G0 C180.
G0 X7.6200 Y-8.250
G0 Z12.1481
G1 Z7.6944 F0.300
G1 Z7.590 F0.070
G1 Y8.250
G0 X10.9547
G1 Y-8.250
G0 X14.280 
G1 Y8.250
G1 Z7.6944 F0.300
G0 Z12.1481
G0 X7.6200 Y-8.250
G1 Z7.6944
G1 Z7.5300 F0.070
G1 Y8.250
G0 X10.9547
G1 Y-8.250
G0 X14.280 
G1 Y8.250
G1 Z7.6944 F0.300
G0 Z25.0000 
G49 G69
M9
M5
G91 G28 Z0 (1 - HOME Z)
G91 G28 X0 (2 - HOME X)
G91 G28 Y0 (3 - HOME Y)
G90
M0
M00


N3
(OPERATION: ROUGH TOP FACE)
(COMMENTS: TURNING - ROUGH TOP FACE 0.030" STOCK)
(B AXIS ANGLE: 0.0 DEGREES)
(TOOL ID: TD20023 - INSERT RADIUS: 1.6 MM)
(TOOL COMMENT: C8-DCLNL-55080-19 / CNMM 19 06 16 - MP9015)
T09.61 M6
(T002.61) (TOOL ON HOLD)
G91 G28 Z0 (Z TO SAFETY)
G90
G54 G64
(**************************)
(* G54 WORK-OFFSET ACTIVE *)
(**************************)
M108 (UNCLAMP B AXIS)
G0 B0.
M107 (CLAMP B AXIS)
G0 Y0.0000
G18 M202 (TURN MODE)
G10.9 X1 (DIAMETER MODE)
G92 S200
G96 S350 M203
G0 X24.0000 Z1.9685
G0 X16.7000
G0 Z0.1780
M8 M51
G95
G1 G41 Z0.0150 F0.018
G1 X10.2000
G1 G40 Z0.1780
G0 Z1.9685
G0 X24.0000
G49
M9
M205
G91 G28 Z0 (1 - HOME Z)
G91 G28 X0 (2 - HOME X)
G91 G28 Y0 (3 - HOME Y)
G90
M0

N4
(OPERATION: ROUGH ID PROFILE VGS2.7.111)
(COMMENTS: TURNING - ROUGH ID PROFILE D0.060" STOCK)
(DIA 10.83)

(B AXIS ANGLE: 0.0 DEGREES)
(TOOL ID: TD20023 - INSERT RADIUS: 1.6 MM)
(TOOL COMMENT: C8-DCLNL-55080-19 / CNMM 19 06 16 - MP9015)
T09.61 M6
G91 G28 Z0 (Z TO SAFETY)
G90
G54 G64
(**************************)
(* G54 WORK-OFFSET ACTIVE *)
(**************************)
M108 (UNCLAMP B AXIS)
G0 B0.
M107 (CLAMP B AXIS)
G0 Y0.0000
G18 M202 (TURN MODE)
G10.9 X1 (DIAMETER MODE)
G92 S200
G96 S350 M204
G0 X-9.0000 Z1.9685
G0 Z-7.7825
G0 X-9.6108
M8
G95 M51
G1 X-10.1069 F0.016
G1 Z-8.1591
G0 X-9.8470
G0 Z0.1703
G1 X-10.3398
G1 Z-8.0426
G1 X-10.1069 Z-8.1591
G0 X-9.8470
G0 Z0.1780
G1 X-10.5726
G1 Z-6.6935
G1 X-10.5027 Z-7.1132
G3 X-10.5020 Z-7.1209 I-0.0927 K-0.0077
G1 Z-7.9615
G1 X-10.3398 Z-8.0426
G0 X-10.0799
G0 Z0.1780
G1 X-10.8055
G1 Z-0.0080
G3 X-10.7040 Z-0.1600 I-0.2022 K-0.1520
G1 Z-0.4624
G1 X-10.6890 Z-2.7479
G1 Z-5.9952
G1 X-10.5726 Z-6.6935
G0 X-10.3128
G0 Z0.1780
G1 X-11.0383
G1 Z0.0780
G3 X-10.8055 Z-0.0080 I-0.0858 K-0.2380
G0 X-9.0000
G0 Z1.9685
G49
M9
M205
G91 G28 Z0 (1 - HOME Z)
G91 G28 X0 (2 - HOME X)
G91 G28 Y0 (3 - HOME Y)
G90
M0
M00

M00 (PLEASE RUN LONG TOOL ID 10.00 FIRST)

N5
(OPERATION: ROUGH ID BORE DIAM. G=D11.062" VGS2.7.111)
(COMMENTS: TURNING - ROUGH ID BORE DIAM G=D11.062" D0.060" STOCK)
(B AXIS ANGLE: 0.0 DEGREES)
(TOOL ID: TD20024 - INSERT RADIUS: 1.2 MM)
(TOOL COMMENT: C8-DDUNL-55080-15 / DNMM 150612-PR 4225)

T002.61 M6
(T017.01) (TOOL ON HOLD)
G91 G28 Z0 (Z TO SAFETY)
G90
G54 G64
(**************************)
(* G54 WORK-OFFSET ACTIVE *)
(**************************)
M108 (UNCLAMP B AXIS)
G0 B0.
M107 (CLAMP B AXIS)
G0 Y0.0000
G18 M202 (TURN MODE)
G10.9 X1 (DIAMETER MODE)
G92 S200
G96 S350 M204
G0 X-9.0000 Z1.9685
G0 Z-0.5270
G0 X-10.4831
M8 M51
G95
G1 X-10.7351 F0.018
G1 X-10.7879 Z-0.5693
G1 X-10.8143 Z-0.6056
G1 Z-2.5844
G1 X-10.7605 Z-2.6583
G0 X-10.6285
G0 Z-0.6056
G1 X-10.8143
G1 X-10.8743 Z-0.6880
G1 Z-0.7480
G1 X-10.7423
G0 Z-0.6880
G1 X-10.8743
G1 X-10.9075 Z-0.7336
G1 Z-2.4564
G1 X-10.8143 Z-2.5844
G0 X-9.0000
G0 Z1.9685
G49
M9
M205
G91 G28 Z0 (1 - HOME Z)
G91 G28 X0 (2 - HOME X)
G91 G28 Y0 (3 - HOME Y)
G90
M0

N6
(OPERATION: ROUGH ID BORE DIAM. H=D10.980" VGS2.7.111)
(COMMENTS: TURNING - ROUGH ID BORE DIAM. H=D10.980" D0.060" STOCK)
(B AXIS ANGLE: 0.0 DEGREES)
(TOOL ID: TD20024 - INSERT RADIUS: 1.2 MM)
(TOOL COMMENT: C8-DDUNL-55080-15 / DNMM 150612-PR 4225)

T002.61 M6
G91 G28 Z0 (Z TO SAFETY)
G90
G54 G64
(**************************)
(* G54 WORK-OFFSET ACTIVE *)
(**************************)
M108 (UNCLAMP B AXIS)
G0 B0.
M107 (CLAMP B AXIS)
G0 Y0.0000
G18 M202 (TURN MODE)
G10.9 X1 (DIAMETER MODE)
G92 S200
G96 S350 M204
G0 X-9.0000 Z1.9685
G0 Z-4.0435
G0 X-10.4685 M51
M8
G95
G1 X-10.7205 F0.018
G1 X-10.7655 Z-4.0796
G1 Z-4.1396
G1 X-10.6335
G0 Z-4.0796
G1 X-10.7655
G1 X-10.8255 Z-4.1276
G1 Z-4.4221
G1 X-10.7606 Z-4.5114
G0 X-10.6285
G0 X-10.4685 Z-4.0435
G1 X-10.7205
G1 X-10.7655 Z-4.0796
G1 Z-4.1396
G1 X-10.6335
G0 Z-4.0796
G1 X-10.7655
G1 X-10.8255 Z-4.1276
G1 Z-4.4221
G1 X-10.7606 Z-4.5114
G0 X-9.0000
G0 Z1.9685
G49
M9
M205
G91 G28 Z0 (1 - HOME Z)
G91 G28 X0 (2 - HOME X)
G91 G28 Y0 (3 - HOME Y)
G90
M0
M00

N7
(OPERATION: ROUGH RING GROOVE R-53 VGS2.8.6)
(COMMENTS: TURNING - ROUGH R-53 RING GROVE 0.030" STOCK)
(B AXIS ANGLE: 0.0 DEGREES)
(TOOL ID: TD20025 - INSERT RADIUS: .8 MM)
(TOOL COMMENT: DVVNN3232 P16 / VNMG 160408-MS MP9015)
T017.01 M6
(T010.61) (TOOL ON HOLD)
G91 G28 Z0 (Z TO SAFETY)
G90
G54 G64
(**************************)
(* G54 WORK-OFFSET ACTIVE *)
(**************************)
M108 (UNCLAMP B AXIS)
G0 B0.
M107 (CLAMP B AXIS)
G0 Y0.0000
G18 M202 (TURN MODE)
G10.9 X1 (DIAMETER MODE)
G92 S200
G96 S350 M203
G0 X24.0000 Z1.9685
G0 X13.1021
G0 Z0.1725
M8
G95 M51
G1 Z0.0465 F0.006
G1 X13.0890 Z0.0257
G1 X12.9690
G1 Z0.0917
G0 X13.0890
G1 Z0.0257
G1 X13.0701 Z-0.0043
G1 X12.4192
G1 X12.3872 Z0.0465
G0 Z0.1125
G0 X13.0701
G1 Z-0.0043
G1 X13.0511 Z-0.0343
G1 X12.9311
G1 Z0.0317
G0 X13.0511
G1 Z-0.0343
G1 X13.0380 Z-0.0552
G1 X12.4614
G1 X12.4220 Z-0.0087
G1 X12.4192 Z-0.0043
G0 Z0.0617
G0 X13.0380
G1 Z-0.0552
G1 X13.0131 Z-0.0852
G1 X12.8931
G1 Z-0.0192
G0 X13.0131
G1 Z-0.0852
G1 X12.9954 Z-0.1060
G1 X12.5046
G1 X12.4614 Z-0.0552
G0 Z0.0108
G0 X12.9954
G1 Z-0.1060
G1 X12.9699 Z-0.1360
G1 X12.8499
G1 Z-0.0700
G0 X12.9699
G1 Z-0.1360
G1 X12.9522 Z-0.1569
G1 X12.5478
G1 X12.5046 Z-0.1060
G0 Z-0.0400
G0 X12.9522
G1 Z-0.1569
G1 X12.9268 Z-0.1869
G1 X12.8068
G1 Z-0.1208
G0 X12.9268
G1 Z-0.1869
G1 X12.9091 Z-0.2077
G1 X12.5909
G1 X12.5478 Z-0.1569
G0 Z-0.0908
G0 X12.9091
G1 Z-0.2077
G1 X12.8836 Z-0.2377
G1 X12.7636
G1 Z-0.1717
G0 X12.8836
G1 Z-0.2377
G1 X12.8659 Z-0.2585
G1 X12.6341
G1 X12.5909 Z-0.2077
G0 Z1.9685
G0 X24.0000
G49
M9
M205
G91 G28 Z0 (1 - HOME Z)
G91 G28 X0 (2 - HOME X)
G91 G28 Y0 (3 - HOME Y)
G90
M0
M00

N8
(OPERATION: FINISH OUTLETS FACE DIM. 15.00")
(COMMENTS: MILLING - FINISH OUTLETS FACE DIM. 15.00")
(B AXIS ANGLE: 0.0 DEGREES)
(TOOL ID: TD10010 - TOOL DIAMETER: 125.0 MM)
(TOOL COMMENT: FRESA D125 90GR R3.2 X 16 UTIL [160 TOTAL ])
T010.61 M6
(T006.61) (TOOL ON HOLD)
G91 G28 Z0 (Z TO SAFETY)
G90
G55 G64
(**************************)
(* G55 WORK-OFFSET ACTIVE *)
(**************************)
G17 M200 M212 (MILLING MODE)
G10.9 X0 (RADIUS MODE)
G97 S382 M3
M108 (UNCLAMP B AXIS)
G0 B90.0000
M107 (CLAMP B AXIS)
M212 (UNCLAMP C AXIS)
G0 C0.0000
M210 (CLAMP C AXIS)
G68 X0. Y0. Z0. I0. J1. K0. R90.
G0 Y0.0000
G0 X7.6200 Y-8.000 Z15.0000
G0 Z12.1181
M8
G95 M51
G1 Z7.6181 F0.300
G1 Z7.510 F0.030
G1 Y8.000
G0 X10.9547
G1 Y-8.000
G0 X14.280 (X14.2894) 
G1 Y8.000
G1 Z7.6181 F0.300
G0 Z25.0000




(** FINISH OUTLETS C180 **)

G0 C180.
G0 X7.6200 Y-8.250 
G0 Z12.1181
G1 Z7.6181 F0.3
G1 Z7.510 F0.030
G1 Y8.250
G0 X10.9547
G1 Y-8.250
G0 X14.280 (X14.2894)
G1 Y8.250
G1 Z7.6181 F0.3
G0 Z25.0000
G49 G69
M9
M5
G91 G28 Z0 (1 - HOME Z)
G91 G28 X0 (2 - HOME X)
G91 G28 Y0 (3 - HOME Y)
G90
M0
M00


N9
(OPERATION: TRY OUT TOP FACE)
(COMMENTS: TURNING - TRY OUT TOP FACE 0.015" STOCK)
(B AXIS ANGLE: 0.0 DEGREES)
(TOOL ID: TD20026 - INSERT RADIUS: .8 MM)
(TOOL COMMENT: C8-DDUNL-55080-15 / DNMM 15 06 08-PM 4225)
T006.61 M6
(T017.01) (TOOL ON HOLD)
G91 G28 Z0 (Z TO SAFETY)
G90
G54 G64
(**************************)
(* G54 WORK-OFFSET ACTIVE *)
(**************************)
M108 (UNCLAMP B AXIS)
G0 B0.
M107 (CLAMP B AXIS)
G0 Y0.0000
G18 M202 (TURN MODE)
G10.9 X1 (DIAMETER MODE)
G92 S200
G96 S400 M203
G0 X24.0000 Z1.9685
G0 X21.3200
G0 Z0.1465
M8
G95 M51
G1 G41 Z0.0150 F0.010
G1 X20.1200
G1 G40 Z0.1465
G0 Z1.9685
G0 X24.0000
G49
M9
M205
G91 G28 Z0 (1 - HOME Z)
G91 G28 X0 (2 - HOME X)
G91 G28 Y0 (3 - HOME Y)
G90
M0




N10
(OPERATION: FINISH TOP FACE)
(COMMENTS: TURNING - FINISH TOP FACE)
(B AXIS ANGLE: 0.0 DEGREES)
(TOOL ID: TD20026 - INSERT RADIUS: .8 MM)
(TOOL COMMENT: C8-DDUNL-55080-15 / DNMM 15 06 08-PM 4225)

T006.61 M6
G91 G28 Z0 (Z TO SAFETY)
G90
G54 G64
(**************************)
(* G54 WORK-OFFSET ACTIVE *)
(**************************)
M108 (UNCLAMP B AXIS)
G0 B0.
M107 (CLAMP B AXIS)
G0 Y0.0000
G18 M202 (TURN MODE)
G10.9 X1 (DIAMETER MODE)
G92 S200
G96 S300 M203
G0 X24.0000 Z1.9685
G0 X21.3039
G0 Z0.1065
M8
G95 M51
G1 G41 X21.2139 Z-0.0171 F0.03
G1 X21.1250 Z-0.0009
G2 X21.1147 Z0.0000 I-0.0051 K-0.0141
G1 X16.900 F0.0055
G92 S200
G96 S350 M203
G1 X10.8900 F0.006
G1 G40 Z0.1315 F0.03
G0 Z1.9685
G0 X24.0000
G49
M9
M205
G91 G28 Z0 (1 - HOME Z)
G91 G28 X0 (2 - HOME X)
G91 G28 Y0 (3 - HOME Y)
G90
M0

N11
(OPERATION: SEMI - FINISH  ID BORE DIA. 10.890" +/-0.005")
(COMMENTS: SEMI - FINISH  ID BORE DIA. 10.890" +/-0.005")
(B AXIS ANGLE: 0.0 DEGREES)
(TOOL ID: TD20026 - INSERT RADIUS: .8 MM)
(TOOL COMMENT: C8-DDUNL-55080-15 / DNMM 15 06 08-PM 4225)
T006.61 M6
G91 G28 Z0 (Z TO SAFETY)
G90
G54 G64
(**************************)
(* G54 WORK-OFFSET ACTIVE *)
(**************************)
M108 (UNCLAMP B AXIS)
G0 B0.
M107 (CLAMP B AXIS)
G0 Y0.0000
G18 M202 (TURN MODE)
G10.9 X1 (DIAMETER MODE)
G92 S160
G96 S420 M204
G0 X-9. Z1.9685
G0 Z0.1072
G0 X-11.3514
M8
G95 M51
G1 G42 X-11.21 Z0.005 F0.005
G3 X-10.88 Z-0.16 I0. K-0.165
G1 Z-0.4626
G3 X-10.895 Z-0.5053 I-0.125 K0.
G1 X-11.052 Z-0.7209
G1 Z-2.4691
G1 X-10.7836 Z-2.8378
G1 G40 X-10.5364 Z-2.7928
G0 X-9.
G0 Z1.9685
G49
M9
M205
G91 G28 Z0 (1 - HOME Z)
G91 G28 X0 (2 - HOME X)
G91 G28 Y0 (3 - HOME Y)
G90
M0

N12
(OPERATION: FINISH  ID BORE DIA. 10.890" +/-0.005")
(COMMENTS: FINISH  ID BORE DIA. 10.890" +/-0.005")
(B AXIS ANGLE: 0.0 DEGREES)
(TOOL ID: TD20026 - INSERT RADIUS: .8 MM)
(TOOL COMMENT: C8-DDUNL-55080-15 / DNMM 15 06 08-PM 4225)
T006.61 M6
G91 G28 Z0 (Z TO SAFETY)
G90
G54 G64
(**************************)
(* G54 WORK-OFFSET ACTIVE *)
(**************************)
M108 (UNCLAMP B AXIS)
G0 B0.
M107 (CLAMP B AXIS)
G0 Y0.0000
G18 M202 (TURN MODE)
G10.9 X1 (DIAMETER MODE)
G92 S170
G96 S400 M204
G0 X-9. Z1.9685
G0 Z0.1022
G0 X-11.3514
M8
G95 M51
G1 G42 X-11.21 Z0. F0.0045
G3 X-10.89 Z-0.16 I0. K-0.16
G1 Z-0.4626
G3 X-10.9044 Z-0.5036 I-0.12 K0.
G1 X-11.062 Z-0.72
G1 Z-2.47
G1 X-10.793 Z-2.8395
G1 G40 X-10.5458 Z-2.7945
G0 X-9.
G0 Z1.9685
G49
M9
M205
G91 G28 Z0 (1 - HOME Z)
G91 G28 X0 (2 - HOME X)
G91 G28 Y0 (3 - HOME Y)
G90
M0
M00

N13
(OPERATION: SEMI - FINISH ID BORE DIA. 10.875" +/-0.0015")
(COMMENTS: SEMI - FINISH ID BORE DIA. 10.875" +/-0.0015")
(B AXIS ANGLE: 0.0 DEGREES)
(TOOL ID: TD20026 - INSERT RADIUS: .8 MM)
(TOOL COMMENT: C8-DDUNL-55080-15 / DNMM 15 06 08-PM 4225)
T006.61 M6
G91 G28 Z0 (Z TO SAFETY)
G90
G54 G64
(**************************)
(* G54 WORK-OFFSET ACTIVE *)
(**************************)
M108 (UNCLAMP B AXIS)
G0 B0.
M107 (CLAMP B AXIS)
G0 Y0.0000
G18 M202 (TURN MODE)
G10.9 X1 (DIAMETER MODE)
G92 S170
G96 S420 M204
G0 X-9. Z1.9685
G0 Z-2.6023
G0 X-10.7376
M8
G95 M51
G1 G42 X-10.8812 Z-2.7037 F0.0045
G1 X-10.88 Z-2.7053
G3 X-10.865 Z-2.748 I-0.1175 K-0.0427
G1 Z-3.9759
G3 X-10.8904 Z-4.0234 I-0.095 K0.
G1 X-10.97 Z-4.0923
G1 Z-4.4349
G1 X-10.8764 Z-4.5634
G3 X-10.865 Z-4.5959 I-0.0893 K-0.0325
G1 Z-5.9988
G1 X-10.6782 Z-7.1199
G3 X-10.678 Z-7.1216 I-0.0199 K-0.0017
G1 Z-7.9979
G1 (X-9.9986 Z-8.3376) X-9.7986 Z-8.4376
G3 (X-9.9882 Z-8.3466) X-9.7882 Z-8.4466 I-0.0141 K-0.0142
G1 (X-9.9644 Z-8.391) X-9.7644 Z-8.491
G1 G40 (X-9.7104 Z-8.357) X-9.5104 Z-8.457
G0 X-9.
G0 Z1.9685
G49
M9
M205
G91 G28 Z0 (1 - HOME Z)
G91 G28 X0 (2 - HOME X)
G91 G28 Y0 (3 - HOME Y)
G90
M0


N14
(OPERATION: FINISH ID BORE DIA. 10.875" +/-0.0015")
(COMMENTS: FINISH ID BORE DIA. 10.875" +/-0.0015")
(B AXIS ANGLE: 0.0 DEGREES)
(TOOL ID: TD20026 - INSERT RADIUS: .8 MM)
(TOOL COMMENT: C8-DDUNL-55080-15 / DNMM 15 06 08-PM 4225)
T006.61 M6
G91 G28 Z0 (Z TO SAFETY)
G90
G54 G64
(**************************)
(* G54 WORK-OFFSET ACTIVE *)
(**************************)
M108 (UNCLAMP B AXIS)
G0 B0.
M107 (CLAMP B AXIS)
G0 Y0.0000
G18 M202 (TURN MODE)
G10.9 X1 (DIAMETER MODE)
G92 S170
G96 S400 M204
G0 X-9. Z1.9685
G0 Z-2.604
G0 X-10.747 
M8
G95 M51
G1 G42 X-10.8906 Z-2.7054 F0.0045
G1 X-10.8894 Z-2.707
G3 X-10.875 Z-2.748 I-0.1128 K-0.041
G1 Z-3.9759
G3 X-10.8992 Z-4.0209 I-0.09 K0.
G1 X-10.98 Z-4.0909
G1 Z-4.4358
G1 X-10.8858 Z-4.5651
G3 X-10.875 Z-4.5959 I-0.0846 K-0.0308
G1 Z-5.999
G1 X-10.6882 Z-7.1203
G3 X-10.688 Z-7.1216 I-0.0149 K-0.0013
G1 Z-8.
G1 X-9.8056 Z-8.4412
G3 X-9.798 Z-8.4479 I-0.0106 K-0.0106
G1 (X-9.9742 Z-8.3923) X-9.7742 Z-8.4923
G1 G40 (X-9.72 Z-8.3583) X-9.52 Z-8.4583
G0 X-9.
G0 Z1.9685
G49
M9
M205
G91 G28 Z0 (1 - HOME Z)
G91 G28 X0 (2 - HOME X)
G91 G28 Y0 (3 - HOME Y)
G90
M0
M00


(----------------------------------------)
(SAMI FINISH OD R-53 RING GROOVE)
(----------------------------------------)
N15
(OPERATION: SAMI FINISH OD R-53 RING GROVE VGS2.8.6)
(COMMENTS: TURNING - PRE FINISH OD R-53 RING GROVE)
(B AXIS ANGLE: 0.0 DEGREES)
(TOOL ID: TD20025 - INSERT RADIUS: .8 MM)
(TOOL COMMENT: DVVNN3232 P16 / VNMG 160408-MS MP9015)
T017.01 M6
(T007.01) (TOOL ON HOLD)
G91 G28 Z0 (Z TO SAFETY)
G90
G54 G64
(**************************)
(* G54 WORK-OFFSET ACTIVE *)
(**************************)
M108 (UNCLAMP B AXIS)
G0 B0.
M107 (CLAMP B AXIS)
G0 Y0.0000
G18 M202 (TURN MODE)
G10.9 X1 (DIAMETER MODE)
G92 S200
G96 S350 M203
G0 X24.0000 Z1.9685
G0 X13.2590
G0 Z0.1465
M8
G95
G1 G41 Z0.0150 F0.004
G1 X13.2322
G2 X13.1862 Z-0.0002 I0.0000 K-0.0250
G1 X12.9275 Z-0.3050
G1 X12.7267
G1 G40 Z-0.1735
G0 Z1.9685
G0 X24.0000
G49
M9
M205
G91 G28 Z0 (1 - HOME Z)
G91 G28 X0 (2 - HOME X)
G91 G28 Y0 (3 - HOME Y)
G90
M01

(--------------------------------------)
(SAMI FINISH ID R-53 RING GROOVE)
(--------------------------------------)


N16
(OPERATION: SAMI FINISH ID R-53 RING GROVE VGS2.8.6)
(COMMENTS: TURNING - PRE FINISH ID R-53 RING GROVE)
(B AXIS ANGLE: 0.0 DEGREES)
(TOOL ID: TD20025 - INSERT RADIUS: .8 MM)
(TOOL COMMENT: DVVNN3232 P16 / VNMG 160408-MS MP9015)
T017.02 M6
G91 G28 Z0 (Z TO SAFETY)
G90
G54 G64
(**************************)
(* G54 WORK-OFFSET ACTIVE *)
(**************************)
M108 (UNCLAMP B AXIS)
G0 B0.
M107 (CLAMP B AXIS)
G0 Y0.0000
G18 M202 (TURN MODE)
G10.9 X1 (DIAMETER MODE)
G92 S200
G96 S350 M203
G0 X24.0000 Z1.9685
G0 X12.2410
G0 Z0.1465
M8
G95
G1 G42 Z0.0150 F0.004
G1 X12.2678
G3 X12.3138 Z-0.0002 I0.0000 K-0.0250
G1 X12.5725 Z-0.3050
G1 X12.7733
G1 G40 Z-0.1735
G0 Z1.9685
G0 X24.0000
G49
M9
M205
G91 G28 Z0 (1 - HOME Z)
G91 G28 X0 (2 - HOME X)
G91 G28 Y0 (3 - HOME Y)
G90
M0

(*** MEASURE DEEP 0.305 ***)
(*** MEASURE OD -0.XXXX ***)
(*** MEASURE ID +0.XXXX ***)


(------------------------------------)
(FINISH OD R-53 RING GROOVE)
(------------------------------------)

N17
(OPERATION: FINISH OD R-53 RING GROVE VGS2.8.6)
(COMMENTS: TURNING - FINISH OD R-53 RING GROVE)
(B AXIS ANGLE: 0.0 DEGREES)
(TOOL ID: TD20025 - INSERT RADIUS: .8 MM)
(TOOL COMMENT: DVVNN3232 P16 / VNMG 160408-MS MP9015)
T017.01 M6
G91 G28 Z0 (Z TO SAFETY)
G90
G54 G64
(**************************)
(* G54 WORK-OFFSET ACTIVE *)
(**************************)
M108 (UNCLAMP B AXIS)
G0 B0.
M107 (CLAMP B AXIS)
G0 Y0.0000
G18 M202 (TURN MODE)
G10.9 X1 (DIAMETER MODE)
G92 S200
G96 S320 M203
G0 X24.0000 Z1.9685
G0 (X13.2590) X13.2382
G0 Z0.1315
M8
G95
G1 G41 X13.2322 Z0.0000 F0.003
G1 X13.2322
G2 X13.2139 Z-0.0061 I0.0000 K-0.0100
G1 X12.9473 Z-0.3200
G1 X12.7207
G1 G40 Z-0.1885
G0 Z1.9685
G0 X24.0000
G49
M9
M205
G91 G28 Z0 (1 - HOME Z)
G91 G28 X0 (2 - HOME X)
G91 G28 Y0 (3 - HOME Y)
G90
M01

(-------------------------------------)
(FINISH ID R-53 RING GROOVE)
(-------------------------------------)

N18
(OPERATION: FINISH ID R-53 RING GROOVE VGS2.8.6)
(COMMENTS: TURNING - FINISH ID R-53 RING GROOVE)
(B AXIS ANGLE: 0.0 DEGREES)
(TOOL ID: TD20025 - INSERT RADIUS: .8 MM)
(TOOL COMMENT: DVVNN3232 P16 / VNMG 160408-MS MP9015)
T017.02 M6
G91 G28 Z0 (Z TO SAFETY)
G90
G54 G64
(**************************)
(* G54 WORK-OFFSET ACTIVE *)
(**************************)
M108 (UNCLAMP B AXIS)
G0 B0.
M107 (CLAMP B AXIS)
G0 Y0.0000
G18 M202 (TURN MODE)
G10.9 X1 (DIAMETER MODE)
G92 S200
G96 S320 M203
G0 X24.0000 Z1.9685
G0 (X12.2410) X12.2618
G0 Z0.1315
M8
G95
G1 G42 X12.2678 Z0.0000 F0.003
G1 X12.2678
G3 X12.2861 Z-0.0061 I0.0000 K-0.0100
G1 X12.5527 Z-0.3200
G1 X12.7793
G1 G40 Z-0.1885
G0 Z1.9685
G0 X24.0000
G49
M9
M205
G91 G28 Z0 (1 - HOME Z)
G91 G28 X0 (2 - HOME X)
G91 G28 Y0 (3 - HOME Y)
G90
M0
M00

(......................................................)
(......................................................)

(START MILL)

(******* CENTER DRILLING *******)

N19
(OPERATION: MARK POINT D0.416" SECTION Y-Y)
(COMMENTS: CENTER DRILLING - MARK POINT ON D0.416" SECTION Y-Y)
(B AXIS ANGLE: 90.0 DEGREES)
(TOOL ID: T11012 - TOOL DIAMETER: 3.0 MM)
(TOOL COMMENT: CENTER DRILLING D3MM)
T007.01 M6
(T026.01) (TOOL ON HOLD)
G91 G28 Z0 (Z TO SAFETY)
G91 G28 X0 (2 - HOME X)
G91 G28 Y0 (3 - HOME Y)
G90
G55 G64
(**************************)
(* G55 WORK-OFFSET ACTIVE *)
(**************************)
G17 M200 M212 (MILLING MODE)
G10.9 X0 (RADIUS MODE)
G97 S1500 M3
M108 (UNCLAMP B AXIS)
G0 B90.0000
M107 (CLAMP B AXIS)
M212 (UNCLAMP C AXIS)
G0 C0.0000
M210 (CLAMP C AXIS)
G68 X0. Y0. Z0. I0. J1. K0. R90.
G0 Y0.0000
G0 X2.3800 Y0.0000 Z13.5000
G95 M08
G99 G82 X2.3800 Y0.0000 Z10.7441 R10.8681 F0.005
G80
G0 Z13.5000 M9
G49 G69
M5
G91 G28 Z0 (1 - HOME Z)
G91 G28 X0 (2 - HOME X)
G91 G28 Y0 (3 - HOME Y)
G90
M01


N20
(OPERATION: MARK POINT D1.335 SECTION W-W)
(COMMENTS: CENTER DRILLING - MARK POINT ON D1.335" SECTION W-W)
(B AXIS ANGLE: 90.0 DEGREES)
(TOOL ID: T11012 - TOOL DIAMETER: 8.0 MM)
(TOOL COMMENT: CENTER DRILLING D3MM)
T007.01 M6
G91 G28 Z0 (Z TO SAFETY)
G91 G28 X0 (2 - HOME X)
G91 G28 Y0 (3 - HOME Y)
G90
G55 G64
(**************************)
(* G55 WORK-OFFSET ACTIVE *)
(**************************)
G17 M200 M212 (MILLING MODE)
G10.9 X0 (RADIUS MODE)
G97 S1500 M3
M108 (UNCLAMP B AXIS)
G0 B90.0000
M107 (CLAMP B AXIS)
M212 (UNCLAMP C AXIS)
G0 C22.5
M210 (CLAMP C AXIS)
G68 X0. Y0. Z0. I0. J1. K0. R90.
G0 Y0.0000
G0 X1.6250 Y0.0000 Z12.0000
G95 M08
G98 G82 X1.6250 Y0.0000 Z10.7441 R10.8681 F0.005
X1.6250 Y0.0000 C67.5
X1.6250 Y0.0000 C112.5
X1.6250 Y0.0000 C157.5
X1.6250 Y0.0000 C202.5
X1.6250 Y0.0000 C247.5
X1.6250 Y0.0000 C292.5
X1.6250 Y0.0000 C337.5
G80
G0 Z12.0000 M9
G49 G69
M5
G91 G28 Z0 (1 - HOME Z)
G91 G28 X0 (2 - HOME X)
G91 G28 Y0 (3 - HOME Y)
G90
M01


N21
(OPERATION: MARK POINT D0.766" VIEW U-U)
(COMMENTS: CENTER DRILLING - MARK POINT ON D0.766" VIEW U-U)
(B AXIS ANGLE: 90.0 DEGREES)
(TOOL ID: T11012 - TOOL DIAMETER: 8.0 MM)
(TOOL COMMENT: CENTER DRILLING D3MM)
T007.01 M6
G91 G28 Z0 (Z TO SAFETY)
G91 G28 X0 (2 - HOME X)
G91 G28 Y0 (3 - HOME Y)
G90
G55 G64
(**************************)
(* G55 WORK-OFFSET ACTIVE *)
(**************************)
G17 M200 M212 (MILLING MODE)
G10.9 X0 (RADIUS MODE)
G97 S1500 M3
M108 (UNCLAMP B AXIS)
G0 B90.0000
M107 (CLAMP B AXIS)
M212 (UNCLAMP C AXIS)
G0 C0.0000
M210 (CLAMP C AXIS)
G68 X0. Y0. Z0. I0. J1. K0. R90.
G0 Y0.0000
G0 X10.2563 Y-3.0026 Z12.0000
G95 M08
G98 G82 X10.2563 Y-3.0026 Z7.4941 R7.6181 F0.005
X12.7437
X14.5026 Y-1.2437
Y1.2437
X12.7437 Y3.0026
X10.2563
X8.4974 Y1.2437
Y-1.2437
(* MARK POINT D1.662" SECTION Y-Y *)
X11.5000 Y0.0000
G80
G0 Z25.0000

(** C180 **)

G0 C180.
G0 X10.2563 Y-3.0026 
G0 Z12.0000
G95
G98 G82 X10.2563 Y-3.0026 Z7.4941 R7.6181 F0.005
X12.7437
X14.5026 Y-1.2437
Y1.2437
X12.7437 Y3.0026
X10.2563
X8.4974 Y1.2437
Y-1.2437
(* MARK POINT D1.662" SECTION Y-Y *)
X11.5000 Y0.0000
G80
G0 Z25.0000 M9
G49 G69
M5
G91 G28 Z0 (1 - HOME Z)
G91 G28 X0 (2 - HOME X)
G91 G28 Y0 (3 - HOME Y)
G90
M0
M00

N22
(OPERATION: STUDDED 7/8"9UNC 2B VGS2.7.48)
(COMMENTS: DRILLING - FLANGE OUTLET 2-1/16" 5M 6B D7/8"-9UNC-2B X 1.37")
(B AXIS ANGLE: 0.0 DEGREES)
(TOOL ID: TD10046 - TOOL DIAMETER: 19.5 MM)
(TOOL COMMENT: U DRILL D19.5MM 3XD)
T026.01 M6
(T011.03) (TOOL ON HOLD)
G91 G28 Z0 (Z TO SAFETY)
G91 G28 X0 (2 - HOME X)
G91 G28 Y0 (3 - HOME Y)
G90
G55 G64
(**************************)
(* G55 WORK-OFFSET ACTIVE *)
(**************************)
G17 M200 M212 (MILLING MODE)
G10.9 X0 (RADIUS MODE)
G97 S1960 M3
M108 (UNCLAMP B AXIS)
G0 B90.0000
M107 (CLAMP B AXIS)
M212 (UNCLAMP C AXIS)
G0 C0.0000
M210 (CLAMP C AXIS)
G68 X0. Y0. Z0. I0. J1. K0. R90.
G0 Y0.0000
G0 X10.2563 Y-3.0026 Z13.5000
G95
G0 Z7.6181 M51
G98 G83 X10.2563 Y-3.0026 Z6.1300 R7.6181 D0.200 Q0.200 F0.0032(F0.006)
X12.7437
X14.5026 Y-1.2437
Y1.2437
X12.7437 Y3.0026
X10.2563
X8.4974 Y1.2437
Y-1.2437
G80
G0 Z13.5000
G49 G69
M9
M5
G91 G28 Z0 (1 - HOME Z)
G91 G28 X0 (2 - HOME X)
G91 G28 Y0 (3 - HOME Y)
G90
M01



N23

(OPERATION: STUDDED 7/8"9UNC 2B VGS2.7.48)


(COMMENTS: DRILLING - FLANGE OUTLET 2-1/16" 5M 6B D7/8"-9UNC-2B X 1.37")
(B AXIS ANGLE: 0.0 DEGREES)
(TOOL ID: TD10046 - TOOL DIAMETER: 19.5 MM)
(TOOL COMMENT: U DRILL D19.5MM 3XD)
T026.01 M6
(T011.03) (TOOL ON HOLD)
G91 G28 Z0 (Z TO SAFETY)
G91 G28 X0 (2 - HOME X)
G91 G28 Y0 (3 - HOME Y)
G90
G55 G64
(**************************)
(* G55 WORK-OFFSET ACTIVE *)
(**************************)
G17 M200 M212 (MILLING MODE)
G10.9 X0 (RADIUS MODE)
G97 S1960 M3
M108 (UNCLAMP B AXIS)
G0 B90.0000
M107 (CLAMP B AXIS)
M212 (UNCLAMP C AXIS)
G0 C180.000
M210 (CLAMP C AXIS)
G68 X0. Y0. Z0. I0. J1. K0. R90.
G0 Y0.0000 Z15.0
G0 X10.2563 Y-3.0026 Z13.5000
G95
G0 Z7.6181 M51
G98 G83 X10.2563 Y-3.0026 Z6.1300 R7.6181 D0.200 Q0.200 F0.0032(F0.006)
X12.7437
X14.5026 Y-1.2437
Y1.2437
X12.7437 Y3.0026
X10.2563
X8.4974 Y1.2437
Y-1.2437
G80
G0 Z13.5000
G49 G69
M9
M5
G91 G28 Z0 (1 - HOME Z)
G91 G28 X0 (2 - HOME X)
G91 G28 Y0 (3 - HOME Y)
G90
M0
M00


N24
(OPERATION: BEVEL HOLES TOP FLANGE FACE)
(COMMENT: BEVELING - HOLES TOP FLANGE FACE D1.520")
(B AXIS ANGLE: 0.0 DEGREES)
(TOOL ID: TD10011 - TOOL DIAMETER: 48.5 MM)
(TOOL COMMENT: CHANFER MILL D1.917 X D1.260" X 45 DEGREES)
T011.03 M6
(T020.01) (TOOL ON HOLD)
G91 G28 Z0 (Z TO SAFETY)
G91 G28 X0 (2 - HOME X)
G91 G28 Y0 (3 - HOME Y)
G90
G55 G64
(**************************)
(* G55 WORK-OFFSET ACTIVE *)
(**************************)
G17 M200 M212 (MILLING MODE)
G10.9 X0 (RADIUS MODE)
G97 S500 M3
G0 B0. C0.
G0 Y0.0000
G0 X7.6911 Y5.1390
G0 Z1.500
G95
M8
G99 G82 X7.6911 Y5.1390 Z-0.148 R0.1181 F0.010 M210
X5.1390 Y7.6911
X1.8046 Y9.0723
X-1.8046
X-5.1390 Y7.6911
X-7.6911 Y5.1390
X-9.0723 Y1.8046
Y-1.8046
X-7.6911 Y-5.1390
X-5.1390 Y-7.6911
X-1.8046 Y-9.0723
X1.8046
X5.1390 Y-7.6911
X7.6911 Y-5.1390
X9.0723 Y-1.8046
Y1.8046
G80
G0 Z1.500 M9
G49
M5
G91 G28 Z0 (1 - HOME Z)
G91 G28 X0 (2 - HOME X)
G91 G28 Y0 (3 - HOME Y)
G90
G90 G10 L2 P0 X0. Y0. Z0. B0. C0.
M0 
M00

N25
(OPERATION: BEVEL - 2-1/16" 5M STUDDED FLANGES HOLES)
(COMMENT: BEVELING - STUDDED FLANGES HOLES D7/8"-9UNC-2B)
(B AXIS ANGLE: 90.0 DEGREES)
(TOOL ID: TD10019 - TOOL DIAMETER: 33.0 MM)
(TOOL COMMENT: D33X45G CHAMFER TOOL)
T020.01 M6
(T032.01) (TOOL ON HOLD)
G91 G28 Z0 (Z TO SAFETY)
G91 G28 X0 (2 - HOME X)
G91 G28 Y0 (3 - HOME Y)
G90
G55 G64
(**************************)
(* G55 WORK-OFFSET ACTIVE *)
(**************************)
G17 M200 M212 (MILLING MODE)
G10.9 X0 (RADIUS MODE)
G97 S500 M3
M108 (UNCLAMP B AXIS)
G0 B90.
M107 (CLAMP B AXIS)
M212 (UNCLAMP C AXIS)
G0 C0.
M210 (CLAMP C AXIS)
G68 X0. Y0. Z0. I0. J1. K0. R90.
G0 Y0.0000
G0 X10.2563 Y-3.0026 Z13.5000
G95 M8
G99 G82 X10.2563 Y-3.0026 (Y-3.1125) Z7.306 (Z7.4320) R7.6181 F0.0035
X12.7437
X14.5026 Y-1.2437
Y1.2437
X12.7437 Y3.0026
X10.2563
X8.4974 Y1.2437
Y-1.2437
G80
G0 Z15.0000
G49 G69
M9
M5
G91 G28 Z0 (1 - HOME Z)
G91 G28 X0 (2 - HOME X)
G91 G28 Y0 (3 - HOME Y)
G90
M01

N26
(OPERATION: BEVEL - 2-1/16" 5M STUDDED FLANGES HOLES)
(COMMENT: BEVELING - STUDDED FLANGES HOLES D7/8"-9UNC-2B)
(B AXIS ANGLE: 90.0 DEGREES)
(TOOL ID: TD10019 - TOOL DIAMETER: 33.0 MM)
(TOOL COMMENT: D33X45G CHAMFER TOOL)
T020.01 M6
(T027.01) (TOOL ON HOLD)
G91 G28 Z0 (Z TO SAFETY)
G91 G28 X0 (2 - HOME X)
G91 G28 Y0 (3 - HOME Y)
G90
G55 G64
(**************************)
(* G55 WORK-OFFSET ACTIVE *)
(**************************)
G17 M200 M212 (MILLING MODE)
G10.9 X0 (RADIUS MODE)
G97 S500 M3
M108 (UNCLAMP B AXIS)
G0 B90.
M107 (CLAMP B AXIS)
M212 (UNCLAMP C AXIS)
G0 C180.
M210 (CLAMP C AXIS)
G68 X0. Y0. Z0. I0. J1. K0. R90.
G0 Y0.0000
G0 X10.2563 Y-3.0026 Z13.5000
G95 M08
G99 G82 X10.2563 Y-3.0026 (Y-3.1125) Z7.306 (Z7.4320) R7.6181 F0.0035
X12.7437
X14.5026 Y-1.2437
Y1.2437
X12.7437 Y3.0026
X10.2563
X8.4974 Y1.2437
Y-1.2437
G80
G0 Z15.0000
G49 G69
M9
M5
G91 G28 Z0 (1 - HOME Z)
G91 G28 X0 (2 - HOME X)
G91 G28 Y0 (3 - HOME Y)
G90
M0
M0

N27
(OPERATION: ROUGH - THREAD D7/8"-9UNC-2B)
(COMMENT: THREADING - ROUGH THREAD D7/8"-9UNC-2B VGS2.7.48)
(B AXIS ANGLE: 90.0 DEGREES)
(TOOL ID: TD10067 - TOOL DIAMETER: 16MM)
(TOOL COMMENT: THREAD MILL D16MM/D0.6299" TO 7/8"-9UNC-2B)
T032.01 M6
(T021.01) (TOOL ON HOLD)
G91 G28 Z0 (Z TO SAFETY)
G91 G28 X0 (2 - HOME X)
G91 G28 Y0 (3 - HOME Y)
G90
G55 G64
(**************************)
(* G55 WORK-OFFSET ACTIVE *)
(**************************)
G17 M200 M212 (MILLING MODE)
G10.9 X0 (RADIUS MODE)
G97 S1145 M3
M108 (UNCLAMP B AXIS)
G0 B90.
M107 (CLAMP B AXIS)
M212 (UNCLAMP C AXIS)
G0 C0.
M210 (CLAMP C AXIS)
G68 X0. Y0. Z0. I0. J1. K0. R90.
G0 Y0.0000
G0 X10.2563 Y-3.0026 Z15.0000
G0 Z12.0000
G95
M51
(********** THREAD 1 ********)
(* ROUGH 1 D20.5MM/D0.8071" *)
G0 G90 X10.2563 Y-3.0026
G0 G90 Z7.6000
G1 G90 Z7.5000 F0.300
G1 G91 G42 X0.4035 Y0.0000 F0.010
G1 G91 G2 X0.0000 Y0.0000 Z-0.1111 I-0.4035 J0.0000 
G1 G91 G2 X0.0000 Y0.0000 Z-0.1111 I-0.4035 J0.0000 
G1 G91 G2 X0.0000 Y0.0000 Z-0.1111 I-0.4035 J0.0000 
G1 G91 G2 X0.0000 Y0.0000 Z-0.1111 I-0.4035 J0.0000 
G1 G91 G2 X0.0000 Y0.0000 Z-0.1111 I-0.4035 J0.0000 
G1 G91 G2 X0.0000 Y0.0000 Z-0.1111 I-0.4035 J0.0000 
G1 G91 G2 X0.0000 Y0.0000 Z-0.1111 I-0.4035 J0.0000 
G1 G91 G2 X0.0000 Y0.0000 Z-0.1111 I-0.4035 J0.0000 
G1 G91 G2 X0.0000 Y0.0000 Z-0.1111 I-0.4035 J0.0000  
G1 G91 G40 X-0.4035 Y0.0000
G1 G90 Z6.6000 F0.300
G0 G90 Z8.0000
M01
(********** THREAD 1 ********)
(* ROUGH 2 D21.4MM/D0.8425" *)
G0 G90 X10.2563 Y-3.0026
G0 G90 Z7.6000
G1 G90 Z7.5000 F0.300 
G1 G91 G42 X0.4212 Y0.0000 F0.010
G1 G91 G2 X0.0000 Y0.0000 Z-0.1111 I-0.4212 J0.0000 
G1 G91 G2 X0.0000 Y0.0000 Z-0.1111 I-0.4212 J0.0000 
G1 G91 G2 X0.0000 Y0.0000 Z-0.1111 I-0.4212 J0.0000 
G1 G91 G2 X0.0000 Y0.0000 Z-0.1111 I-0.4212 J0.0000 
G1 G91 G2 X0.0000 Y0.0000 Z-0.1111 I-0.4212 J0.0000 
G1 G91 G2 X0.0000 Y0.0000 Z-0.1111 I-0.4212 J0.0000
G1 G91 G2 X0.0000 Y0.0000 Z-0.1111 I-0.4212 J0.0000 
G1 G91 G2 X0.0000 Y0.0000 Z-0.1111 I-0.4212 J0.0000 
G1 G91 G2 X0.0000 Y0.0000 Z-0.1111 I-0.4212 J0.0000   
G1 G91 G40 X-0.4212 Y0.0000
G1 G90 Z6.6000 F0.300
G0 G90 Z8.0000
M01
(********** THREAD 1 ********)
(* ROUGH 3 D22MM/D0.8661" *)
G0 G90 X10.2563 Y-3.0026
G0 G90 Z7.6000
G1 G90 Z7.5000 F0.300
G1 G91 G42 X0.4331 Y0.0000 F0.010
G1 G91 G2 X0.0000 Y0.0000 Z-0.1111 I-0.4331 J0.0000 
G1 G91 G2 X0.0000 Y0.0000 Z-0.1111 I-0.4331 J0.0000 
G1 G91 G2 X0.0000 Y0.0000 Z-0.1111 I-0.4331 J0.0000 
G1 G91 G2 X0.0000 Y0.0000 Z-0.1111 I-0.4331 J0.0000 
G1 G91 G2 X0.0000 Y0.0000 Z-0.1111 I-0.4331 J0.0000 
G1 G91 G2 X0.0000 Y0.0000 Z-0.1111 I-0.4331 J0.0000 
G1 G91 G2 X0.0000 Y0.0000 Z-0.1111 I-0.4331 J0.0000 
G1 G91 G2 X0.0000 Y0.0000 Z-0.1111 I-0.4331 J0.0000 
G1 G91 G2 X0.0000 Y0.0000 Z-0.1111 I-0.4331 J0.0000 
G1 G91 G40 X-0.4331 Y0.0000
G1 G90 Z6.6000 F0.300
G0 G90 Z8.0000
M01
(********** THREAD 1 ********)
(* ROUGH 4 D22.225MM/D0.875" *)
G0 G90 X10.2563 Y-3.0026
G0 G90 Z7.6000
G1 G90 Z7.5000 F0.300
G1 G91 G42 X0.4375 Y0.0000 F0.010
G1 G91 G2 X0.0000 Y0.0000 Z-0.1111 I-0.4375 J0.0000 
G1 G91 G2 X0.0000 Y0.0000 Z-0.1111 I-0.4375 J0.0000 
G1 G91 G2 X0.0000 Y0.0000 Z-0.1111 I-0.4375 J0.0000 
G1 G91 G2 X0.0000 Y0.0000 Z-0.1111 I-0.4375 J0.0000 
G1 G91 G2 X0.0000 Y0.0000 Z-0.1111 I-0.4375 J0.0000 
G1 G91 G2 X0.0000 Y0.0000 Z-0.1111 I-0.4375 J0.0000 
G1 G91 G2 X0.0000 Y0.0000 Z-0.1111 I-0.4375 J0.0000 
G1 G91 G2 X0.0000 Y0.0000 Z-0.1111 I-0.4375 J0.0000 
G1 G91 G2 X0.0000 Y0.0000 Z-0.1111 I-0.4375 J0.0000   
G1 G91 G40 X-0.4375 Y0.0000
G1 G90 Z6.6000 F0.300
G0 G90 Z8.0000

M00

(*************************************************)

(********** THREAD 2 ********)
(* ROUGH 1 D20.5MM/D0.8071" *)
G0 G90 X12.7437 Y-3.0026
M00
G0 G90 Z7.6000
G1 G90 Z7.5000 F0.300
G1 G91 G42 X0.4035 Y0.0000 F0.010
G1 G91 G2 X0.0000 Y0.0000 Z-0.1111 I-0.4035 J0.0000 
G1 G91 G2 X0.0000 Y0.0000 Z-0.1111 I-0.4035 J0.0000 
G1 G91 G2 X0.0000 Y0.0000 Z-0.1111 I-0.4035 J0.0000 
G1 G91 G2 X0.0000 Y0.0000 Z-0.1111 I-0.4035 J0.0000 
G1 G91 G2 X0.0000 Y0.0000 Z-0.1111 I-0.4035 J0.0000 
G1 G91 G2 X0.0000 Y0.0000 Z-0.1111 I-0.4035 J0.0000 
G1 G91 G2 X0.0000 Y0.0000 Z-0.1111 I-0.4035 J0.0000 
G1 G91 G2 X0.0000 Y0.0000 Z-0.1111 I-0.4035 J0.0000 
G1 G91 G2 X0.0000 Y0.0000 Z-0.1111 I-0.4035 J0.0000  
G1 G91 G40 X-0.4035 Y0.0000
G1 G90 Z6.6000 F0.300
G0 G90 Z8.0000

(********** THREAD 2 ********)
(* ROUGH 2 D21.4MM/D0.8425" *)
G0 G90 X12.7437 Y-3.0026
G0 G90 Z7.6000
G1 G90 Z7.5000 F0.300
G1 G91 G42 X0.4212 Y0.0000 F0.010
G1 G91 G2 X0.0000 Y0.0000 Z-0.1111 I-0.4212 J0.0000 
G1 G91 G2 X0.0000 Y0.0000 Z-0.1111 I-0.4212 J0.0000 
G1 G91 G2 X0.0000 Y0.0000 Z-0.1111 I-0.4212 J0.0000 
G1 G91 G2 X0.0000 Y0.0000 Z-0.1111 I-0.4212 J0.0000 
G1 G91 G2 X0.0000 Y0.0000 Z-0.1111 I-0.4212 J0.0000 
G1 G91 G2 X0.0000 Y0.0000 Z-0.1111 I-0.4212 J0.0000
G1 G91 G2 X0.0000 Y0.0000 Z-0.1111 I-0.4212 J0.0000 
G1 G91 G2 X0.0000 Y0.0000 Z-0.1111 I-0.4212 J0.0000 
G1 G91 G2 X0.0000 Y0.0000 Z-0.1111 I-0.4212 J0.0000   
G1 G91 G40 X-0.4212 Y0.0000
G1 G90 Z6.6000 F0.300
G0 G90 Z8.0000

(********** THREAD 2 ********)
(* ROUGH 3 D22MM/D0.8661" *)
G0 G90 X12.7437 Y-3.0026
G0 G90 Z7.6000
G1 G90 Z7.5000 F0.300
G1 G91 G42 X0.4331 Y0.0000 F0.010
G1 G91 G2 X0.0000 Y0.0000 Z-0.1111 I-0.4331 J0.0000 
G1 G91 G2 X0.0000 Y0.0000 Z-0.1111 I-0.4331 J0.0000 
G1 G91 G2 X0.0000 Y0.0000 Z-0.1111 I-0.4331 J0.0000 
G1 G91 G2 X0.0000 Y0.0000 Z-0.1111 I-0.4331 J0.0000 
G1 G91 G2 X0.0000 Y0.0000 Z-0.1111 I-0.4331 J0.0000 
G1 G91 G2 X0.0000 Y0.0000 Z-0.1111 I-0.4331 J0.0000 
G1 G91 G2 X0.0000 Y0.0000 Z-0.1111 I-0.4331 J0.0000 
G1 G91 G2 X0.0000 Y0.0000 Z-0.1111 I-0.4331 J0.0000 
G1 G91 G2 X0.0000 Y0.0000 Z-0.1111 I-0.4331 J0.0000 
G1 G91 G40 X-0.4331 Y0.0000
G1 G90 Z6.6000 F0.300
G0 G90 Z8.0000

(********** THREAD 2 ********)
(* ROUGH 4 D22.225MM/D0.875" *)
G0 G90 X12.7437 Y-3.0026
G0 G90 Z7.6000
G1 G90 Z7.5000 F0.300
G1 G91 G42 X0.4375 Y0.0000 F0.010
G1 G91 G2 X0.0000 Y0.0000 Z-0.1111 I-0.4375 J0.0000 
G1 G91 G2 X0.0000 Y0.0000 Z-0.1111 I-0.4375 J0.0000 
G1 G91 G2 X0.0000 Y0.0000 Z-0.1111 I-0.4375 J0.0000 
G1 G91 G2 X0.0000 Y0.0000 Z-0.1111 I-0.4375 J0.0000 
G1 G91 G2 X0.0000 Y0.0000 Z-0.1111 I-0.4375 J0.0000 
G1 G91 G2 X0.0000 Y0.0000 Z-0.1111 I-0.4375 J0.0000 
G1 G91 G2 X0.0000 Y0.0000 Z-0.1111 I-0.4375 J0.0000 
G1 G91 G2 X0.0000 Y0.0000 Z-0.1111 I-0.4375 J0.0000 
G1 G91 G2 X0.0000 Y0.0000 Z-0.1111 I-0.4375 J0.0000   
G1 G91 G40 X-0.4375 Y0.0000
G1 G90 Z6.6000 F0.300
G0 G90 Z8.0000

(*************************************************)

(********** THREAD 3 ********)
(* ROUGH 1 D20.5MM/D0.8071" *)
G1 Z8.0000 F0.300
G0 G90 X14.5026 Y-1.2437
G0 G90 Z7.6000
G1 G90 Z7.5000 F0.300
G1 G91 G42 X0.4035 Y0.0000 F0.010
G1 G91 G2 X0.0000 Y0.0000 Z-0.1111 I-0.4035 J0.0000 
G1 G91 G2 X0.0000 Y0.0000 Z-0.1111 I-0.4035 J0.0000 
G1 G91 G2 X0.0000 Y0.0000 Z-0.1111 I-0.4035 J0.0000 
G1 G91 G2 X0.0000 Y0.0000 Z-0.1111 I-0.4035 J0.0000 
G1 G91 G2 X0.0000 Y0.0000 Z-0.1111 I-0.4035 J0.0000 
G1 G91 G2 X0.0000 Y0.0000 Z-0.1111 I-0.4035 J0.0000 
G1 G91 G2 X0.0000 Y0.0000 Z-0.1111 I-0.4035 J0.0000 
G1 G91 G2 X0.0000 Y0.0000 Z-0.1111 I-0.4035 J0.0000 
G1 G91 G2 X0.0000 Y0.0000 Z-0.1111 I-0.4035 J0.0000  
G1 G91 G40 X-0.4035 Y0.0000
G1 G90 Z6.6000 F0.300
G0 G90 Z8.0000

(********** THREAD 3 ********)
(* ROUGH 2 D21.4MM/D0.8425" *)
G0 G90 X14.5026 Y-1.2437
G0 G90 Z7.6000
G1 G90 Z7.5000 F0.300
G1 G91 G42 X0.4212 Y0.0000 F0.010
G1 G91 G2 X0.0000 Y0.0000 Z-0.1111 I-0.4212 J0.0000 
G1 G91 G2 X0.0000 Y0.0000 Z-0.1111 I-0.4212 J0.0000 
G1 G91 G2 X0.0000 Y0.0000 Z-0.1111 I-0.4212 J0.0000 
G1 G91 G2 X0.0000 Y0.0000 Z-0.1111 I-0.4212 J0.0000 
G1 G91 G2 X0.0000 Y0.0000 Z-0.1111 I-0.4212 J0.0000 
G1 G91 G2 X0.0000 Y0.0000 Z-0.1111 I-0.4212 J0.0000
G1 G91 G2 X0.0000 Y0.0000 Z-0.1111 I-0.4212 J0.0000 
G1 G91 G2 X0.0000 Y0.0000 Z-0.1111 I-0.4212 J0.0000 
G1 G91 G2 X0.0000 Y0.0000 Z-0.1111 I-0.4212 J0.0000   
G1 G91 G40 X-0.4212 Y0.0000
G1 G90 Z6.6000 F0.300
G0 G90 Z8.0000

(********** THREAD 3 ********)
(* ROUGH 3 D22MM/D0.8661" *)
G0 G90 X14.5026 Y-1.2437
G0 G90 Z7.6000
G1 G90 Z7.5000 F0.300
G1 G91 G42 X0.4331 Y0.0000 F0.010
G1 G91 G2 X0.0000 Y0.0000 Z-0.1111 I-0.4331 J0.0000 
G1 G91 G2 X0.0000 Y0.0000 Z-0.1111 I-0.4331 J0.0000 
G1 G91 G2 X0.0000 Y0.0000 Z-0.1111 I-0.4331 J0.0000 
G1 G91 G2 X0.0000 Y0.0000 Z-0.1111 I-0.4331 J0.0000 
G1 G91 G2 X0.0000 Y0.0000 Z-0.1111 I-0.4331 J0.0000 
G1 G91 G2 X0.0000 Y0.0000 Z-0.1111 I-0.4331 J0.0000 
G1 G91 G2 X0.0000 Y0.0000 Z-0.1111 I-0.4331 J0.0000 
G1 G91 G2 X0.0000 Y0.0000 Z-0.1111 I-0.4331 J0.0000 
G1 G91 G2 X0.0000 Y0.0000 Z-0.1111 I-0.4331 J0.0000 
G1 G91 G40 X-0.4331 Y0.0000
G1 G90 Z6.6000 F0.300
G0 G90 Z8.0000

(********** THREAD 3 ********)
(* ROUGH 4 D22.225MM/D0.875" *)
G0 G90 X14.5026 Y-1.2437
G0 G90 Z7.6000
G1 G90 Z7.5000 F0.300
G1 G91 G42 X0.4375 Y0.0000 F0.010
G1 G91 G2 X0.0000 Y0.0000 Z-0.1111 I-0.4375 J0.0000 
G1 G91 G2 X0.0000 Y0.0000 Z-0.1111 I-0.4375 J0.0000 
G1 G91 G2 X0.0000 Y0.0000 Z-0.1111 I-0.4375 J0.0000 
G1 G91 G2 X0.0000 Y0.0000 Z-0.1111 I-0.4375 J0.0000 
G1 G91 G2 X0.0000 Y0.0000 Z-0.1111 I-0.4375 J0.0000 
G1 G91 G2 X0.0000 Y0.0000 Z-0.1111 I-0.4375 J0.0000 
G1 G91 G2 X0.0000 Y0.0000 Z-0.1111 I-0.4375 J0.0000 
G1 G91 G2 X0.0000 Y0.0000 Z-0.1111 I-0.4375 J0.0000 
G1 G91 G2 X0.0000 Y0.0000 Z-0.1111 I-0.4375 J0.0000   
G1 G91 G40 X-0.4375 Y0.0000
G1 G90 Z6.6000 F0.300
G0 G90 Z8.0000

(*************************************************)

(********** THREAD 4 ********)
(* ROUGH 1 D20.5MM/D0.8071" *)
G0 G90 X14.5026 Y1.2437
G0 G90 Z7.6000
G1 G90 Z7.5000 F0.300
G1 G91 G42 X0.4035 Y0.0000 F0.010
G1 G91 G2 X0.0000 Y0.0000 Z-0.1111 I-0.4035 J0.0000 
G1 G91 G2 X0.0000 Y0.0000 Z-0.1111 I-0.4035 J0.0000 
G1 G91 G2 X0.0000 Y0.0000 Z-0.1111 I-0.4035 J0.0000 
G1 G91 G2 X0.0000 Y0.0000 Z-0.1111 I-0.4035 J0.0000 
G1 G91 G2 X0.0000 Y0.0000 Z-0.1111 I-0.4035 J0.0000 
G1 G91 G2 X0.0000 Y0.0000 Z-0.1111 I-0.4035 J0.0000 
G1 G91 G2 X0.0000 Y0.0000 Z-0.1111 I-0.4035 J0.0000 
G1 G91 G2 X0.0000 Y0.0000 Z-0.1111 I-0.4035 J0.0000 
G1 G91 G2 X0.0000 Y0.0000 Z-0.1111 I-0.4035 J0.0000  
G1 G91 G40 X-0.4035 Y0.0000
G1 G90 Z6.6000 F0.300
G0 G90 Z8.0000

(********** THREAD 4 ********)
(* ROUGH 2 D21.4MM/D0.8425" *)
G0 G90 X14.5026 Y1.2437
G0 G90 Z7.6000
G1 G90 Z7.5000 F0.300
G1 G91 G42 X0.4212 Y0.0000 F0.010
G1 G91 G2 X0.0000 Y0.0000 Z-0.1111 I-0.4212 J0.0000 
G1 G91 G2 X0.0000 Y0.0000 Z-0.1111 I-0.4212 J0.0000 
G1 G91 G2 X0.0000 Y0.0000 Z-0.1111 I-0.4212 J0.0000 
G1 G91 G2 X0.0000 Y0.0000 Z-0.1111 I-0.4212 J0.0000 
G1 G91 G2 X0.0000 Y0.0000 Z-0.1111 I-0.4212 J0.0000 
G1 G91 G2 X0.0000 Y0.0000 Z-0.1111 I-0.4212 J0.0000
G1 G91 G2 X0.0000 Y0.0000 Z-0.1111 I-0.4212 J0.0000 
G1 G91 G2 X0.0000 Y0.0000 Z-0.1111 I-0.4212 J0.0000 
G1 G91 G2 X0.0000 Y0.0000 Z-0.1111 I-0.4212 J0.0000   
G1 G91 G40 X-0.4212 Y0.0000
G1 G90 Z6.6000 F0.300
G0 G90 Z8.0000

(********** THREAD 4 ********)
(* ROUGH 3 D22MM/D0.8661" *)
G0 G90 X14.5026 Y1.2437
G0 G90 Z7.6000
G1 G90 Z7.5000 F0.300
G1 G91 G42 X0.4331 Y0.0000 F0.010
G1 G91 G2 X0.0000 Y0.0000 Z-0.1111 I-0.4331 J0.0000 
G1 G91 G2 X0.0000 Y0.0000 Z-0.1111 I-0.4331 J0.0000 
G1 G91 G2 X0.0000 Y0.0000 Z-0.1111 I-0.4331 J0.0000 
G1 G91 G2 X0.0000 Y0.0000 Z-0.1111 I-0.4331 J0.0000 
G1 G91 G2 X0.0000 Y0.0000 Z-0.1111 I-0.4331 J0.0000 
G1 G91 G2 X0.0000 Y0.0000 Z-0.1111 I-0.4331 J0.0000 
G1 G91 G2 X0.0000 Y0.0000 Z-0.1111 I-0.4331 J0.0000 
G1 G91 G2 X0.0000 Y0.0000 Z-0.1111 I-0.4331 J0.0000 
G1 G91 G2 X0.0000 Y0.0000 Z-0.1111 I-0.4331 J0.0000 
G1 G91 G40 X-0.4331 Y0.0000
G1 G90 Z6.6000 F0.300
G0 G90 Z8.0000

(********** THREAD 4 ********)
(* ROUGH 4 D22.225MM/D0.875" *)
G0 G90 X14.5026 Y1.2437
G0 G90 Z7.6000
G1 G90 Z7.5000 F0.300
G1 G91 G42 X0.4375 Y0.0000 F0.010
G1 G91 G2 X0.0000 Y0.0000 Z-0.1111 I-0.4375 J0.0000 
G1 G91 G2 X0.0000 Y0.0000 Z-0.1111 I-0.4375 J0.0000 
G1 G91 G2 X0.0000 Y0.0000 Z-0.1111 I-0.4375 J0.0000 
G1 G91 G2 X0.0000 Y0.0000 Z-0.1111 I-0.4375 J0.0000 
G1 G91 G2 X0.0000 Y0.0000 Z-0.1111 I-0.4375 J0.0000 
G1 G91 G2 X0.0000 Y0.0000 Z-0.1111 I-0.4375 J0.0000 
G1 G91 G2 X0.0000 Y0.0000 Z-0.1111 I-0.4375 J0.0000 
G1 G91 G2 X0.0000 Y0.0000 Z-0.1111 I-0.4375 J0.0000 
G1 G91 G2 X0.0000 Y0.0000 Z-0.1111 I-0.4375 J0.0000   
G1 G91 G40 X-0.4375 Y0.0000
G1 G90 Z6.6000 F0.300
G0 G90 Z8.0000

(*************************************************)

(********** THREAD 5 ********)
(* ROUGH 1 D20.5MM/D0.8071" *)
G0 G90 X12.7437 Y3.0026
G0 G90 Z7.6000
G1 G90 Z7.5000 F0.300
G1 G91 G42 X0.4035 Y0.0000 F0.010
G1 G91 G2 X0.0000 Y0.0000 Z-0.1111 I-0.4035 J0.0000 
G1 G91 G2 X0.0000 Y0.0000 Z-0.1111 I-0.4035 J0.0000 
G1 G91 G2 X0.0000 Y0.0000 Z-0.1111 I-0.4035 J0.0000 
G1 G91 G2 X0.0000 Y0.0000 Z-0.1111 I-0.4035 J0.0000 
G1 G91 G2 X0.0000 Y0.0000 Z-0.1111 I-0.4035 J0.0000 
G1 G91 G2 X0.0000 Y0.0000 Z-0.1111 I-0.4035 J0.0000 
G1 G91 G2 X0.0000 Y0.0000 Z-0.1111 I-0.4035 J0.0000 
G1 G91 G2 X0.0000 Y0.0000 Z-0.1111 I-0.4035 J0.0000 
G1 G91 G2 X0.0000 Y0.0000 Z-0.1111 I-0.4035 J0.0000  
G1 G91 G40 X-0.4035 Y0.0000
G1 G90 Z6.6000 F0.300
G0 G90 Z8.0000

(********** THREAD 5 ********)
(* ROUGH 2 D21.4MM/D0.8425" *)
G0 G90 X12.7437 Y3.0026
G0 G90 Z7.6000
G1 G90 Z7.5000 F0.300
G1 G91 G42 X0.4212 Y0.0000 F0.010
G1 G91 G2 X0.0000 Y0.0000 Z-0.1111 I-0.4212 J0.0000 
G1 G91 G2 X0.0000 Y0.0000 Z-0.1111 I-0.4212 J0.0000 
G1 G91 G2 X0.0000 Y0.0000 Z-0.1111 I-0.4212 J0.0000 
G1 G91 G2 X0.0000 Y0.0000 Z-0.1111 I-0.4212 J0.0000 
G1 G91 G2 X0.0000 Y0.0000 Z-0.1111 I-0.4212 J0.0000 
G1 G91 G2 X0.0000 Y0.0000 Z-0.1111 I-0.4212 J0.0000
G1 G91 G2 X0.0000 Y0.0000 Z-0.1111 I-0.4212 J0.0000 
G1 G91 G2 X0.0000 Y0.0000 Z-0.1111 I-0.4212 J0.0000 
G1 G91 G2 X0.0000 Y0.0000 Z-0.1111 I-0.4212 J0.0000   
G1 G91 G40 X-0.4212 Y0.0000
G1 G90 Z6.6000 F0.300
G0 G90 Z8.0000

(********** THREAD 5 ********)
(* ROUGH 3 D22MM/D0.8661" *)
G0 G90 X12.7437 Y3.0026
G0 G90 Z7.6000
G1 G90 Z7.5000 F0.300
G1 G91 G42 X0.4331 Y0.0000 F0.010
G1 G91 G2 X0.0000 Y0.0000 Z-0.1111 I-0.4331 J0.0000 
G1 G91 G2 X0.0000 Y0.0000 Z-0.1111 I-0.4331 J0.0000 
G1 G91 G2 X0.0000 Y0.0000 Z-0.1111 I-0.4331 J0.0000 
G1 G91 G2 X0.0000 Y0.0000 Z-0.1111 I-0.4331 J0.0000 
G1 G91 G2 X0.0000 Y0.0000 Z-0.1111 I-0.4331 J0.0000 
G1 G91 G2 X0.0000 Y0.0000 Z-0.1111 I-0.4331 J0.0000 
G1 G91 G2 X0.0000 Y0.0000 Z-0.1111 I-0.4331 J0.0000 
G1 G91 G2 X0.0000 Y0.0000 Z-0.1111 I-0.4331 J0.0000 
G1 G91 G2 X0.0000 Y0.0000 Z-0.1111 I-0.4331 J0.0000 
G1 G91 G40 X-0.4331 Y0.0000
G1 G90 Z6.6000 F0.300
G0 G90 Z8.0000

(********* THREAD 5 **********)
(* ROUGH 4 D22.225MM/D0.875" *)
G0 G90 X12.7437 Y3.0026
G0 G90 Z7.6000
G1 G90 Z7.5000 F0.300
G1 G91 G42 X0.4375 Y0.0000 F0.010
G1 G91 G2 X0.0000 Y0.0000 Z-0.1111 I-0.4375 J0.0000 
G1 G91 G2 X0.0000 Y0.0000 Z-0.1111 I-0.4375 J0.0000 
G1 G91 G2 X0.0000 Y0.0000 Z-0.1111 I-0.4375 J0.0000 
G1 G91 G2 X0.0000 Y0.0000 Z-0.1111 I-0.4375 J0.0000 
G1 G91 G2 X0.0000 Y0.0000 Z-0.1111 I-0.4375 J0.0000 
G1 G91 G2 X0.0000 Y0.0000 Z-0.1111 I-0.4375 J0.0000 
G1 G91 G2 X0.0000 Y0.0000 Z-0.1111 I-0.4375 J0.0000 
G1 G91 G2 X0.0000 Y0.0000 Z-0.1111 I-0.4375 J0.0000 
G1 G91 G2 X0.0000 Y0.0000 Z-0.1111 I-0.4375 J0.0000   
G1 G91 G40 X-0.4375 Y0.0000
G1 G90 Z6.6000 F0.300
G0 G90 Z8.0000

(*************************************************)

(********* THREAD 6 *********)
(* ROUGH 1 D20.5MM/D0.8071" *)
G0 G90 X10.2563 Y3.0026
G0 G90 Z7.6000
G1 G90 Z7.5000 F0.300
G1 G91 G42 X0.4035 Y0.0000 F0.010
G1 G91 G2 X0.0000 Y0.0000 Z-0.1111 I-0.4035 J0.0000 
G1 G91 G2 X0.0000 Y0.0000 Z-0.1111 I-0.4035 J0.0000 
G1 G91 G2 X0.0000 Y0.0000 Z-0.1111 I-0.4035 J0.0000 
G1 G91 G2 X0.0000 Y0.0000 Z-0.1111 I-0.4035 J0.0000 
G1 G91 G2 X0.0000 Y0.0000 Z-0.1111 I-0.4035 J0.0000 
G1 G91 G2 X0.0000 Y0.0000 Z-0.1111 I-0.4035 J0.0000 
G1 G91 G2 X0.0000 Y0.0000 Z-0.1111 I-0.4035 J0.0000 
G1 G91 G2 X0.0000 Y0.0000 Z-0.1111 I-0.4035 J0.0000 
G1 G91 G2 X0.0000 Y0.0000 Z-0.1111 I-0.4035 J0.0000  
G1 G91 G40 X-0.4035 Y0.0000
G1 G90 Z6.6000 F0.300
G0 G90 Z8.0000

(********** THREAD 6 ********)
(* ROUGH 2 D21.4MM/D0.8425" *)
G0 G90 X10.2563 Y3.0026
G0 G90 Z7.6000
G1 G90 Z7.5000 F0.300
G1 G91 G42 X0.4212 Y0.0000 F0.010
G1 G91 G2 X0.0000 Y0.0000 Z-0.1111 I-0.4212 J0.0000 
G1 G91 G2 X0.0000 Y0.0000 Z-0.1111 I-0.4212 J0.0000 
G1 G91 G2 X0.0000 Y0.0000 Z-0.1111 I-0.4212 J0.0000 
G1 G91 G2 X0.0000 Y0.0000 Z-0.1111 I-0.4212 J0.0000 
G1 G91 G2 X0.0000 Y0.0000 Z-0.1111 I-0.4212 J0.0000 
G1 G91 G2 X0.0000 Y0.0000 Z-0.1111 I-0.4212 J0.0000
G1 G91 G2 X0.0000 Y0.0000 Z-0.1111 I-0.4212 J0.0000 
G1 G91 G2 X0.0000 Y0.0000 Z-0.1111 I-0.4212 J0.0000 
G1 G91 G2 X0.0000 Y0.0000 Z-0.1111 I-0.4212 J0.0000   
G1 G91 G40 X-0.4212 Y0.0000
G1 G90 Z6.6000 F0.300
G0 G90 Z8.0000

(******** THREAD 6 ********)
(* ROUGH 3 D22MM/D0.8661" *)
G0 G90 X10.2563 Y3.0026
G0 G90 Z7.6000
G1 G90 Z7.5000 F0.300
G1 G91 G42 X0.4331 Y0.0000 F0.010
G1 G91 G2 X0.0000 Y0.0000 Z-0.1111 I-0.4331 J0.0000 
G1 G91 G2 X0.0000 Y0.0000 Z-0.1111 I-0.4331 J0.0000 
G1 G91 G2 X0.0000 Y0.0000 Z-0.1111 I-0.4331 J0.0000 
G1 G91 G2 X0.0000 Y0.0000 Z-0.1111 I-0.4331 J0.0000 
G1 G91 G2 X0.0000 Y0.0000 Z-0.1111 I-0.4331 J0.0000 
G1 G91 G2 X0.0000 Y0.0000 Z-0.1111 I-0.4331 J0.0000 
G1 G91 G2 X0.0000 Y0.0000 Z-0.1111 I-0.4331 J0.0000 
G1 G91 G2 X0.0000 Y0.0000 Z-0.1111 I-0.4331 J0.0000 
G1 G91 G2 X0.0000 Y0.0000 Z-0.1111 I-0.4331 J0.0000 
G1 G91 G40 X-0.4331 Y0.0000
G1 G90 Z6.6000 F0.300
G0 G90 Z8.0000

(********** THREAD 6 ********)
(* ROUGH 4 D22.225MM/D0.875" *)
G0 G90 X10.2563 Y3.0026
G0 G90 Z7.6000
G1 G90 Z7.5000 F0.300
G1 G91 G42 X0.4375 Y0.0000 F0.010
G1 G91 G2 X0.0000 Y0.0000 Z-0.1111 I-0.4375 J0.0000 
G1 G91 G2 X0.0000 Y0.0000 Z-0.1111 I-0.4375 J0.0000 
G1 G91 G2 X0.0000 Y0.0000 Z-0.1111 I-0.4375 J0.0000 
G1 G91 G2 X0.0000 Y0.0000 Z-0.1111 I-0.4375 J0.0000 
G1 G91 G2 X0.0000 Y0.0000 Z-0.1111 I-0.4375 J0.0000 
G1 G91 G2 X0.0000 Y0.0000 Z-0.1111 I-0.4375 J0.0000 
G1 G91 G2 X0.0000 Y0.0000 Z-0.1111 I-0.4375 J0.0000 
G1 G91 G2 X0.0000 Y0.0000 Z-0.1111 I-0.4375 J0.0000 
G1 G91 G2 X0.0000 Y0.0000 Z-0.1111 I-0.4375 J0.0000   
G1 G91 G40 X-0.4375 Y0.0000
G1 G90 Z6.6000 F0.300
G0 G90 Z8.0000

(*************************************************)

(********** THREAD 7 ********)
(* ROUGH 1 D20.5MM/D0.8071" *)
G0 G90 X8.4974 Y1.2437
G0 G90 Z7.6000
G1 G90 Z7.5000 F0.300
G1 G91 G42 X0.4035 Y0.0000 F0.010
G1 G91 G2 X0.0000 Y0.0000 Z-0.1111 I-0.4035 J0.0000 
G1 G91 G2 X0.0000 Y0.0000 Z-0.1111 I-0.4035 J0.0000 
G1 G91 G2 X0.0000 Y0.0000 Z-0.1111 I-0.4035 J0.0000 
G1 G91 G2 X0.0000 Y0.0000 Z-0.1111 I-0.4035 J0.0000 
G1 G91 G2 X0.0000 Y0.0000 Z-0.1111 I-0.4035 J0.0000 
G1 G91 G2 X0.0000 Y0.0000 Z-0.1111 I-0.4035 J0.0000 
G1 G91 G2 X0.0000 Y0.0000 Z-0.1111 I-0.4035 J0.0000 
G1 G91 G2 X0.0000 Y0.0000 Z-0.1111 I-0.4035 J0.0000 
G1 G91 G2 X0.0000 Y0.0000 Z-0.1111 I-0.4035 J0.0000  
G1 G91 G40 X-0.4035 Y0.0000
G1 G90 Z6.6000 F0.300
G0 G90 Z8.0000

(********** THREAD 7 ********)
(* ROUGH 2 D21.4MM/D0.8425" *)
G0 G90 X8.4974 Y1.2437
G0 G90 Z7.6000
G1 G90 Z7.5000 F0.300
G1 G91 G42 X0.4212 Y0.0000 F0.010
G1 G91 G2 X0.0000 Y0.0000 Z-0.1111 I-0.4212 J0.0000 
G1 G91 G2 X0.0000 Y0.0000 Z-0.1111 I-0.4212 J0.0000 
G1 G91 G2 X0.0000 Y0.0000 Z-0.1111 I-0.4212 J0.0000 
G1 G91 G2 X0.0000 Y0.0000 Z-0.1111 I-0.4212 J0.0000 
G1 G91 G2 X0.0000 Y0.0000 Z-0.1111 I-0.4212 J0.0000 
G1 G91 G2 X0.0000 Y0.0000 Z-0.1111 I-0.4212 J0.0000
G1 G91 G2 X0.0000 Y0.0000 Z-0.1111 I-0.4212 J0.0000 
G1 G91 G2 X0.0000 Y0.0000 Z-0.1111 I-0.4212 J0.0000 
G1 G91 G2 X0.0000 Y0.0000 Z-0.1111 I-0.4212 J0.0000   
G1 G91 G40 X-0.4212 Y0.0000
G1 G90 Z6.6000 F0.300
G0 G90 Z8.0000

(******** THREAD 7 ********)
(* ROUGH 3 D22MM/D0.8661" *)
G0 G90 X8.4974 Y1.2437
G0 G90 Z7.6000
G1 G90 Z7.5000 F0.300
G1 G91 G42 X0.4331 Y0.0000 F0.010
G1 G91 G2 X0.0000 Y0.0000 Z-0.1111 I-0.4331 J0.0000 
G1 G91 G2 X0.0000 Y0.0000 Z-0.1111 I-0.4331 J0.0000 
G1 G91 G2 X0.0000 Y0.0000 Z-0.1111 I-0.4331 J0.0000 
G1 G91 G2 X0.0000 Y0.0000 Z-0.1111 I-0.4331 J0.0000 
G1 G91 G2 X0.0000 Y0.0000 Z-0.1111 I-0.4331 J0.0000 
G1 G91 G2 X0.0000 Y0.0000 Z-0.1111 I-0.4331 J0.0000 
G1 G91 G2 X0.0000 Y0.0000 Z-0.1111 I-0.4331 J0.0000 
G1 G91 G2 X0.0000 Y0.0000 Z-0.1111 I-0.4331 J0.0000 
G1 G91 G2 X0.0000 Y0.0000 Z-0.1111 I-0.4331 J0.0000 
G1 G91 G40 X-0.4331 Y0.0000
G1 G90 Z6.6000 F0.300
G0 G90 Z8.0000

(********** THREAD 7 *********)
(* ROUGH 4 D22.225MM/D0.875" *)
G0 G90 X8.4974 Y1.2437
G0 G90 Z7.6000
G1 G90 Z7.5000 F0.300
G1 G91 G42 X0.4375 Y0.0000 F0.010
G1 G91 G2 X0.0000 Y0.0000 Z-0.1111 I-0.4375 J0.0000 
G1 G91 G2 X0.0000 Y0.0000 Z-0.1111 I-0.4375 J0.0000 
G1 G91 G2 X0.0000 Y0.0000 Z-0.1111 I-0.4375 J0.0000 
G1 G91 G2 X0.0000 Y0.0000 Z-0.1111 I-0.4375 J0.0000 
G1 G91 G2 X0.0000 Y0.0000 Z-0.1111 I-0.4375 J0.0000 
G1 G91 G2 X0.0000 Y0.0000 Z-0.1111 I-0.4375 J0.0000 
G1 G91 G2 X0.0000 Y0.0000 Z-0.1111 I-0.4375 J0.0000 
G1 G91 G2 X0.0000 Y0.0000 Z-0.1111 I-0.4375 J0.0000 
G1 G91 G2 X0.0000 Y0.0000 Z-0.1111 I-0.4375 J0.0000   
G1 G91 G40 X-0.4375 Y0.0000
G1 G90 Z6.6000 F0.300
G0 G90 Z8.0000

(*************************************************)

(********** THREAD 8 ********)
(* ROUGH 1 D20.5MM/D0.8071" *)
G0 G90 X8.4974 Y-1.2437
G0 G90 Z7.6000
G1 G90 Z7.5000 F0.300
G1 G91 G42 X0.4035 Y0.0000 F0.010
G1 G91 G2 X0.0000 Y0.0000 Z-0.1111 I-0.4035 J0.0000 
G1 G91 G2 X0.0000 Y0.0000 Z-0.1111 I-0.4035 J0.0000 
G1 G91 G2 X0.0000 Y0.0000 Z-0.1111 I-0.4035 J0.0000 
G1 G91 G2 X0.0000 Y0.0000 Z-0.1111 I-0.4035 J0.0000 
G1 G91 G2 X0.0000 Y0.0000 Z-0.1111 I-0.4035 J0.0000 
G1 G91 G2 X0.0000 Y0.0000 Z-0.1111 I-0.4035 J0.0000 
G1 G91 G2 X0.0000 Y0.0000 Z-0.1111 I-0.4035 J0.0000 
G1 G91 G2 X0.0000 Y0.0000 Z-0.1111 I-0.4035 J0.0000 
G1 G91 G2 X0.0000 Y0.0000 Z-0.1111 I-0.4035 J0.0000  
G1 G91 G40 X-0.4035 Y0.0000
G1 G90 Z6.6000 F0.300
G0 G90 Z8.0000

(********** THREAD 8 ********)
(* ROUGH 2 D21.4MM/D0.8425" *)
G0 G90 X8.4974 Y-1.2437
G0 G90 Z7.6000
G1 G90 Z7.5000 F0.300
G1 G91 G42 X0.4212 Y0.0000 F0.010
G1 G91 G2 X0.0000 Y0.0000 Z-0.1111 I-0.4212 J0.0000 
G1 G91 G2 X0.0000 Y0.0000 Z-0.1111 I-0.4212 J0.0000 
G1 G91 G2 X0.0000 Y0.0000 Z-0.1111 I-0.4212 J0.0000 
G1 G91 G2 X0.0000 Y0.0000 Z-0.1111 I-0.4212 J0.0000 
G1 G91 G2 X0.0000 Y0.0000 Z-0.1111 I-0.4212 J0.0000 
G1 G91 G2 X0.0000 Y0.0000 Z-0.1111 I-0.4212 J0.0000
G1 G91 G2 X0.0000 Y0.0000 Z-0.1111 I-0.4212 J0.0000 
G1 G91 G2 X0.0000 Y0.0000 Z-0.1111 I-0.4212 J0.0000 
G1 G91 G2 X0.0000 Y0.0000 Z-0.1111 I-0.4212 J0.0000   
G1 G91 G40 X-0.4212 Y0.0000
G1 G90 Z6.6000 F0.300
G0 G90 Z8.0000

(******** THREAD 8 ********)
(* ROUGH 3 D22MM/D0.8661" *)
G0 G90 X8.4974 Y-1.2437
G0 G90 Z7.6000
G1 G90 Z7.5000 F0.300
G1 G91 G42 X0.4331 Y0.0000 F0.010
G1 G91 G2 X0.0000 Y0.0000 Z-0.1111 I-0.4331 J0.0000 
G1 G91 G2 X0.0000 Y0.0000 Z-0.1111 I-0.4331 J0.0000 
G1 G91 G2 X0.0000 Y0.0000 Z-0.1111 I-0.4331 J0.0000 
G1 G91 G2 X0.0000 Y0.0000 Z-0.1111 I-0.4331 J0.0000 
G1 G91 G2 X0.0000 Y0.0000 Z-0.1111 I-0.4331 J0.0000 
G1 G91 G2 X0.0000 Y0.0000 Z-0.1111 I-0.4331 J0.0000 
G1 G91 G2 X0.0000 Y0.0000 Z-0.1111 I-0.4331 J0.0000 
G1 G91 G2 X0.0000 Y0.0000 Z-0.1111 I-0.4331 J0.0000 
G1 G91 G2 X0.0000 Y0.0000 Z-0.1111 I-0.4331 J0.0000 
G1 G91 G40 X-0.4331 Y0.0000
G1 G90 Z6.6000 F0.300
G0 G90 Z8.0000

(********** THREAD 8 *********)
(* ROUGH 4 D22.225MM/D0.875" *)
G0 G90 X8.4974 Y-1.2437
G0 G90 Z7.6000
G1 G90 Z7.5000 F0.300
G1 G91 G42 X0.4375 Y0.0000 F0.010
G1 G91 G2 X0.0000 Y0.0000 Z-0.1111 I-0.4375 J0.0000 
G1 G91 G2 X0.0000 Y0.0000 Z-0.1111 I-0.4375 J0.0000 
G1 G91 G2 X0.0000 Y0.0000 Z-0.1111 I-0.4375 J0.0000 
G1 G91 G2 X0.0000 Y0.0000 Z-0.1111 I-0.4375 J0.0000 
G1 G91 G2 X0.0000 Y0.0000 Z-0.1111 I-0.4375 J0.0000 
G1 G91 G2 X0.0000 Y0.0000 Z-0.1111 I-0.4375 J0.0000 
G1 G91 G2 X0.0000 Y0.0000 Z-0.1111 I-0.4375 J0.0000 
G1 G91 G2 X0.0000 Y0.0000 Z-0.1111 I-0.4375 J0.0000 
G1 G91 G2 X0.0000 Y0.0000 Z-0.1111 I-0.4375 J0.0000   
G1 G91 G40 X-0.4375 Y0.0000
G1 G90 Z6.6000 F0.300
G0 G90 Z8.0000
G0 Z15.0000
G49 G69
M9
M5
G91 G28 Z0 (1 - HOME Z)
G91 G28 X0 (2 - HOME X)
G91 G28 Y0 (3 - HOME Y)
G90
M0
M00

N28
(OPERATION: ROUGH - STUDDED THREAD D7/8"-9UNC-2B)
(COMMENT: THREADING - ROUGH THREAD D7/8"-9UNC-2B VGS2.7.48)
(B AXIS ANGLE: 90.0 DEGREES)
(TOOL ID: TD10067 - TOOL DIAMETER: 16MM)
(TOOL COMMENT: THREAD MILL D16MM/D0.6299" TO 7/8"-9UNC-2B)
T032.01 M6
(T021.01) (TOOL ON HOLD)
G91 G28 Z0 (Z TO SAFETY)
G91 G28 X0 (2 - HOME X)
G91 G28 Y0 (3 - HOME Y)
G90
G55 G64
(**************************)
(* G55 WORK-OFFSET ACTIVE *)
(**************************)
G17 M200 M212 (MILLING MODE)
G10.9 X0 (RADIUS MODE)
G97 S1145 M3
M108 (UNCLAMP B AXIS)
G0 B90.
M107 (CLAMP B AXIS)
M212 (UNCLAMP C AXIS)
G0 C180.
M210 (CLAMP C AXIS)
G68 X0. Y0. Z0. I0. J1. K0. R90.
G0 Y0.0000 Z15.0
G0 X10.2563 Y-3.0026 Z15.0000
G0 Z12.0000
G95
M51  
(********** THREAD 1 ********)
(* ROUGH 1 D20.5MM/D0.8071" *)
G0 G90 X10.2563 Y-3.0026
G0 G90 Z7.6000
G1 G90 Z7.5000 F0.300
G1 G91 G42 X0.4035 Y0.0000 F0.010
G1 G91 G2 X0.0000 Y0.0000 Z-0.1111 I-0.4035 J0.0000 
G1 G91 G2 X0.0000 Y0.0000 Z-0.1111 I-0.4035 J0.0000 
G1 G91 G2 X0.0000 Y0.0000 Z-0.1111 I-0.4035 J0.0000 
G1 G91 G2 X0.0000 Y0.0000 Z-0.1111 I-0.4035 J0.0000 
G1 G91 G2 X0.0000 Y0.0000 Z-0.1111 I-0.4035 J0.0000 
G1 G91 G2 X0.0000 Y0.0000 Z-0.1111 I-0.4035 J0.0000 
G1 G91 G2 X0.0000 Y0.0000 Z-0.1111 I-0.4035 J0.0000 
G1 G91 G2 X0.0000 Y0.0000 Z-0.1111 I-0.4035 J0.0000 
G1 G91 G2 X0.0000 Y0.0000 Z-0.1111 I-0.4035 J0.0000  
G1 G91 G40 X-0.4035 Y0.0000
G1 G90 Z6.6000 F0.300
G0 G90 Z8.0000

(********** THREAD 1 ********)
(* ROUGH 2 D21.4MM/D0.8425" *)
G0 G90 X10.2563 Y-3.0026
G0 G90 Z7.6000
G1 G90 Z7.5000 F0.300 
G1 G91 G42 X0.4212 Y0.0000 F0.010
G1 G91 G2 X0.0000 Y0.0000 Z-0.1111 I-0.4212 J0.0000 
G1 G91 G2 X0.0000 Y0.0000 Z-0.1111 I-0.4212 J0.0000 
G1 G91 G2 X0.0000 Y0.0000 Z-0.1111 I-0.4212 J0.0000 
G1 G91 G2 X0.0000 Y0.0000 Z-0.1111 I-0.4212 J0.0000 
G1 G91 G2 X0.0000 Y0.0000 Z-0.1111 I-0.4212 J0.0000 
G1 G91 G2 X0.0000 Y0.0000 Z-0.1111 I-0.4212 J0.0000
G1 G91 G2 X0.0000 Y0.0000 Z-0.1111 I-0.4212 J0.0000 
G1 G91 G2 X0.0000 Y0.0000 Z-0.1111 I-0.4212 J0.0000 
G1 G91 G2 X0.0000 Y0.0000 Z-0.1111 I-0.4212 J0.0000   
G1 G91 G40 X-0.4212 Y0.0000
G1 G90 Z6.6000 F0.300
G0 G90 Z8.0000

(********** THREAD 1 ********)
(* ROUGH 3 D22MM/D0.8661" *)
G0 G90 X10.2563 Y-3.0026
G0 G90 Z7.6000
G1 G90 Z7.5000 F0.300
G1 G91 G42 X0.4331 Y0.0000 F0.010
G1 G91 G2 X0.0000 Y0.0000 Z-0.1111 I-0.4331 J0.0000 
G1 G91 G2 X0.0000 Y0.0000 Z-0.1111 I-0.4331 J0.0000 
G1 G91 G2 X0.0000 Y0.0000 Z-0.1111 I-0.4331 J0.0000 
G1 G91 G2 X0.0000 Y0.0000 Z-0.1111 I-0.4331 J0.0000 
G1 G91 G2 X0.0000 Y0.0000 Z-0.1111 I-0.4331 J0.0000 
G1 G91 G2 X0.0000 Y0.0000 Z-0.1111 I-0.4331 J0.0000 
G1 G91 G2 X0.0000 Y0.0000 Z-0.1111 I-0.4331 J0.0000 
G1 G91 G2 X0.0000 Y0.0000 Z-0.1111 I-0.4331 J0.0000 
G1 G91 G2 X0.0000 Y0.0000 Z-0.1111 I-0.4331 J0.0000 
G1 G91 G40 X-0.4331 Y0.0000
G1 G90 Z6.6000 F0.300
G0 G90 Z8.0000

(********** THREAD 1 ********)
(* ROUGH 4 D22.225MM/D0.875" *)
G0 G90 X10.2563 Y-3.0026
G0 G90 Z7.6000
G1 G90 Z7.5000 F0.300
G1 G91 G42 X0.4375 Y0.0000 F0.010
G1 G91 G2 X0.0000 Y0.0000 Z-0.1111 I-0.4375 J0.0000 
G1 G91 G2 X0.0000 Y0.0000 Z-0.1111 I-0.4375 J0.0000 
G1 G91 G2 X0.0000 Y0.0000 Z-0.1111 I-0.4375 J0.0000 
G1 G91 G2 X0.0000 Y0.0000 Z-0.1111 I-0.4375 J0.0000 
G1 G91 G2 X0.0000 Y0.0000 Z-0.1111 I-0.4375 J0.0000 
G1 G91 G2 X0.0000 Y0.0000 Z-0.1111 I-0.4375 J0.0000 
G1 G91 G2 X0.0000 Y0.0000 Z-0.1111 I-0.4375 J0.0000 
G1 G91 G2 X0.0000 Y0.0000 Z-0.1111 I-0.4375 J0.0000 
G1 G91 G2 X0.0000 Y0.0000 Z-0.1111 I-0.4375 J0.0000   
G1 G91 G40 X-0.4375 Y0.0000
G1 G90 Z6.6000 F0.300
G0 G90 Z8.0000

M00

(*************************************************)

(********** THREAD 2 ********)
(* ROUGH 1 D20.5MM/D0.8071" *)
G0 G90 X12.7437 Y-3.0026
M00
G0 G90 Z7.6000
G1 G90 Z7.5000 F0.300
G1 G91 G42 X0.4035 Y0.0000 F0.010
G1 G91 G2 X0.0000 Y0.0000 Z-0.1111 I-0.4035 J0.0000 
G1 G91 G2 X0.0000 Y0.0000 Z-0.1111 I-0.4035 J0.0000 
G1 G91 G2 X0.0000 Y0.0000 Z-0.1111 I-0.4035 J0.0000 
G1 G91 G2 X0.0000 Y0.0000 Z-0.1111 I-0.4035 J0.0000 
G1 G91 G2 X0.0000 Y0.0000 Z-0.1111 I-0.4035 J0.0000 
G1 G91 G2 X0.0000 Y0.0000 Z-0.1111 I-0.4035 J0.0000 
G1 G91 G2 X0.0000 Y0.0000 Z-0.1111 I-0.4035 J0.0000 
G1 G91 G2 X0.0000 Y0.0000 Z-0.1111 I-0.4035 J0.0000 
G1 G91 G2 X0.0000 Y0.0000 Z-0.1111 I-0.4035 J0.0000  
G1 G91 G40 X-0.4035 Y0.0000
G1 G90 Z6.6000 F0.300
G0 G90 Z8.0000

(********** THREAD 2 ********)
(* ROUGH 2 D21.4MM/D0.8425" *)
G0 G90 X12.7437 Y-3.0026
G0 G90 Z7.6000
G1 G90 Z7.5000 F0.300
G1 G91 G42 X0.4212 Y0.0000 F0.010
G1 G91 G2 X0.0000 Y0.0000 Z-0.1111 I-0.4212 J0.0000 
G1 G91 G2 X0.0000 Y0.0000 Z-0.1111 I-0.4212 J0.0000 
G1 G91 G2 X0.0000 Y0.0000 Z-0.1111 I-0.4212 J0.0000 
G1 G91 G2 X0.0000 Y0.0000 Z-0.1111 I-0.4212 J0.0000 
G1 G91 G2 X0.0000 Y0.0000 Z-0.1111 I-0.4212 J0.0000 
G1 G91 G2 X0.0000 Y0.0000 Z-0.1111 I-0.4212 J0.0000
G1 G91 G2 X0.0000 Y0.0000 Z-0.1111 I-0.4212 J0.0000 
G1 G91 G2 X0.0000 Y0.0000 Z-0.1111 I-0.4212 J0.0000 
G1 G91 G2 X0.0000 Y0.0000 Z-0.1111 I-0.4212 J0.0000   
G1 G91 G40 X-0.4212 Y0.0000
G1 G90 Z6.6000 F0.300
G0 G90 Z8.0000

(********** THREAD 2 ********)
(* ROUGH 3 D22MM/D0.8661" *)
G0 G90 X12.7437 Y-3.0026
G0 G90 Z7.6000
G1 G90 Z7.5000 F0.300
G1 G91 G42 X0.4331 Y0.0000 F0.010
G1 G91 G2 X0.0000 Y0.0000 Z-0.1111 I-0.4331 J0.0000 
G1 G91 G2 X0.0000 Y0.0000 Z-0.1111 I-0.4331 J0.0000 
G1 G91 G2 X0.0000 Y0.0000 Z-0.1111 I-0.4331 J0.0000 
G1 G91 G2 X0.0000 Y0.0000 Z-0.1111 I-0.4331 J0.0000 
G1 G91 G2 X0.0000 Y0.0000 Z-0.1111 I-0.4331 J0.0000 
G1 G91 G2 X0.0000 Y0.0000 Z-0.1111 I-0.4331 J0.0000 
G1 G91 G2 X0.0000 Y0.0000 Z-0.1111 I-0.4331 J0.0000 
G1 G91 G2 X0.0000 Y0.0000 Z-0.1111 I-0.4331 J0.0000 
G1 G91 G2 X0.0000 Y0.0000 Z-0.1111 I-0.4331 J0.0000 
G1 G91 G40 X-0.4331 Y0.0000
G1 G90 Z6.6000 F0.300
G0 G90 Z8.0000

(********** THREAD 2 ********)
(* ROUGH 4 D22.225MM/D0.875" *)
G0 G90 X12.7437 Y-3.0026
G0 G90 Z7.6000
G1 G90 Z7.5000 F0.300
G1 G91 G42 X0.4375 Y0.0000 F0.010
G1 G91 G2 X0.0000 Y0.0000 Z-0.1111 I-0.4375 J0.0000 
G1 G91 G2 X0.0000 Y0.0000 Z-0.1111 I-0.4375 J0.0000 
G1 G91 G2 X0.0000 Y0.0000 Z-0.1111 I-0.4375 J0.0000 
G1 G91 G2 X0.0000 Y0.0000 Z-0.1111 I-0.4375 J0.0000 
G1 G91 G2 X0.0000 Y0.0000 Z-0.1111 I-0.4375 J0.0000 
G1 G91 G2 X0.0000 Y0.0000 Z-0.1111 I-0.4375 J0.0000 
G1 G91 G2 X0.0000 Y0.0000 Z-0.1111 I-0.4375 J0.0000 
G1 G91 G2 X0.0000 Y0.0000 Z-0.1111 I-0.4375 J0.0000 
G1 G91 G2 X0.0000 Y0.0000 Z-0.1111 I-0.4375 J0.0000   
G1 G91 G40 X-0.4375 Y0.0000
G1 G90 Z6.6000 F0.300
G0 G90 Z8.0000

(*************************************************)

(********** THREAD 3 ********)
(* ROUGH 1 D20.5MM/D0.8071" *)
G1 Z8.0000 F0.300
G0 G90 X14.5026 Y-1.2437
G0 G90 Z7.6000
G1 G90 Z7.5000 F0.300
G1 G91 G42 X0.4035 Y0.0000 F0.010
G1 G91 G2 X0.0000 Y0.0000 Z-0.1111 I-0.4035 J0.0000 
G1 G91 G2 X0.0000 Y0.0000 Z-0.1111 I-0.4035 J0.0000 
G1 G91 G2 X0.0000 Y0.0000 Z-0.1111 I-0.4035 J0.0000 
G1 G91 G2 X0.0000 Y0.0000 Z-0.1111 I-0.4035 J0.0000 
G1 G91 G2 X0.0000 Y0.0000 Z-0.1111 I-0.4035 J0.0000 
G1 G91 G2 X0.0000 Y0.0000 Z-0.1111 I-0.4035 J0.0000 
G1 G91 G2 X0.0000 Y0.0000 Z-0.1111 I-0.4035 J0.0000 
G1 G91 G2 X0.0000 Y0.0000 Z-0.1111 I-0.4035 J0.0000 
G1 G91 G2 X0.0000 Y0.0000 Z-0.1111 I-0.4035 J0.0000  
G1 G91 G40 X-0.4035 Y0.0000
G1 G90 Z6.6000 F0.300
G0 G90 Z8.0000

(********** THREAD 3 ********)
(* ROUGH 2 D21.4MM/D0.8425" *)
G0 G90 X14.5026 Y-1.2437
G0 G90 Z7.6000
G1 G90 Z7.5000 F0.300
G1 G91 G42 X0.4212 Y0.0000 F0.010
G1 G91 G2 X0.0000 Y0.0000 Z-0.1111 I-0.4212 J0.0000 
G1 G91 G2 X0.0000 Y0.0000 Z-0.1111 I-0.4212 J0.0000 
G1 G91 G2 X0.0000 Y0.0000 Z-0.1111 I-0.4212 J0.0000 
G1 G91 G2 X0.0000 Y0.0000 Z-0.1111 I-0.4212 J0.0000 
G1 G91 G2 X0.0000 Y0.0000 Z-0.1111 I-0.4212 J0.0000 
G1 G91 G2 X0.0000 Y0.0000 Z-0.1111 I-0.4212 J0.0000
G1 G91 G2 X0.0000 Y0.0000 Z-0.1111 I-0.4212 J0.0000 
G1 G91 G2 X0.0000 Y0.0000 Z-0.1111 I-0.4212 J0.0000 
G1 G91 G2 X0.0000 Y0.0000 Z-0.1111 I-0.4212 J0.0000   
G1 G91 G40 X-0.4212 Y0.0000
G1 G90 Z6.6000 F0.300
G0 G90 Z8.0000

(********** THREAD 3 ********)
(* ROUGH 3 D22MM/D0.8661" *)
G0 G90 X14.5026 Y-1.2437
G0 G90 Z7.6000
G1 G90 Z7.5000 F0.300
G1 G91 G42 X0.4331 Y0.0000 F0.010
G1 G91 G2 X0.0000 Y0.0000 Z-0.1111 I-0.4331 J0.0000 
G1 G91 G2 X0.0000 Y0.0000 Z-0.1111 I-0.4331 J0.0000 
G1 G91 G2 X0.0000 Y0.0000 Z-0.1111 I-0.4331 J0.0000 
G1 G91 G2 X0.0000 Y0.0000 Z-0.1111 I-0.4331 J0.0000 
G1 G91 G2 X0.0000 Y0.0000 Z-0.1111 I-0.4331 J0.0000 
G1 G91 G2 X0.0000 Y0.0000 Z-0.1111 I-0.4331 J0.0000 
G1 G91 G2 X0.0000 Y0.0000 Z-0.1111 I-0.4331 J0.0000 
G1 G91 G2 X0.0000 Y0.0000 Z-0.1111 I-0.4331 J0.0000 
G1 G91 G2 X0.0000 Y0.0000 Z-0.1111 I-0.4331 J0.0000 
G1 G91 G40 X-0.4331 Y0.0000
G1 G90 Z6.6000 F0.300
G0 G90 Z8.0000

(********** THREAD 3 ********)
(* ROUGH 4 D22.225MM/D0.875" *)
G0 G90 X14.5026 Y-1.2437
G0 G90 Z7.6000
G1 G90 Z7.5000 F0.300
G1 G91 G42 X0.4375 Y0.0000 F0.010
G1 G91 G2 X0.0000 Y0.0000 Z-0.1111 I-0.4375 J0.0000 
G1 G91 G2 X0.0000 Y0.0000 Z-0.1111 I-0.4375 J0.0000 
G1 G91 G2 X0.0000 Y0.0000 Z-0.1111 I-0.4375 J0.0000 
G1 G91 G2 X0.0000 Y0.0000 Z-0.1111 I-0.4375 J0.0000 
G1 G91 G2 X0.0000 Y0.0000 Z-0.1111 I-0.4375 J0.0000 
G1 G91 G2 X0.0000 Y0.0000 Z-0.1111 I-0.4375 J0.0000 
G1 G91 G2 X0.0000 Y0.0000 Z-0.1111 I-0.4375 J0.0000 
G1 G91 G2 X0.0000 Y0.0000 Z-0.1111 I-0.4375 J0.0000 
G1 G91 G2 X0.0000 Y0.0000 Z-0.1111 I-0.4375 J0.0000   
G1 G91 G40 X-0.4375 Y0.0000
G1 G90 Z6.6000 F0.300
G0 G90 Z8.0000

(*************************************************)

(********** THREAD 4 ********)
(* ROUGH 1 D20.5MM/D0.8071" *)
G0 G90 X14.5026 Y1.2437
G0 G90 Z7.6000
G1 G90 Z7.5000 F0.300
G1 G91 G42 X0.4035 Y0.0000 F0.010
G1 G91 G2 X0.0000 Y0.0000 Z-0.1111 I-0.4035 J0.0000 
G1 G91 G2 X0.0000 Y0.0000 Z-0.1111 I-0.4035 J0.0000 
G1 G91 G2 X0.0000 Y0.0000 Z-0.1111 I-0.4035 J0.0000 
G1 G91 G2 X0.0000 Y0.0000 Z-0.1111 I-0.4035 J0.0000 
G1 G91 G2 X0.0000 Y0.0000 Z-0.1111 I-0.4035 J0.0000 
G1 G91 G2 X0.0000 Y0.0000 Z-0.1111 I-0.4035 J0.0000 
G1 G91 G2 X0.0000 Y0.0000 Z-0.1111 I-0.4035 J0.0000 
G1 G91 G2 X0.0000 Y0.0000 Z-0.1111 I-0.4035 J0.0000 
G1 G91 G2 X0.0000 Y0.0000 Z-0.1111 I-0.4035 J0.0000  
G1 G91 G40 X-0.4035 Y0.0000
G1 G90 Z6.6000 F0.300
G0 G90 Z8.0000

(********** THREAD 4 ********)
(* ROUGH 2 D21.4MM/D0.8425" *)
G0 G90 X14.5026 Y1.2437
G0 G90 Z7.6000
G1 G90 Z7.5000 F0.300
G1 G91 G42 X0.4212 Y0.0000 F0.010
G1 G91 G2 X0.0000 Y0.0000 Z-0.1111 I-0.4212 J0.0000 
G1 G91 G2 X0.0000 Y0.0000 Z-0.1111 I-0.4212 J0.0000 
G1 G91 G2 X0.0000 Y0.0000 Z-0.1111 I-0.4212 J0.0000 
G1 G91 G2 X0.0000 Y0.0000 Z-0.1111 I-0.4212 J0.0000 
G1 G91 G2 X0.0000 Y0.0000 Z-0.1111 I-0.4212 J0.0000 
G1 G91 G2 X0.0000 Y0.0000 Z-0.1111 I-0.4212 J0.0000
G1 G91 G2 X0.0000 Y0.0000 Z-0.1111 I-0.4212 J0.0000 
G1 G91 G2 X0.0000 Y0.0000 Z-0.1111 I-0.4212 J0.0000 
G1 G91 G2 X0.0000 Y0.0000 Z-0.1111 I-0.4212 J0.0000   
G1 G91 G40 X-0.4212 Y0.0000
G1 G90 Z6.6000 F0.300
G0 G90 Z8.0000

(********** THREAD 4 ********)
(* ROUGH 3 D22MM/D0.8661" *)
G0 G90 X14.5026 Y1.2437
G0 G90 Z7.6000
G1 G90 Z7.5000 F0.300
G1 G91 G42 X0.4331 Y0.0000 F0.010
G1 G91 G2 X0.0000 Y0.0000 Z-0.1111 I-0.4331 J0.0000 
G1 G91 G2 X0.0000 Y0.0000 Z-0.1111 I-0.4331 J0.0000 
G1 G91 G2 X0.0000 Y0.0000 Z-0.1111 I-0.4331 J0.0000 
G1 G91 G2 X0.0000 Y0.0000 Z-0.1111 I-0.4331 J0.0000 
G1 G91 G2 X0.0000 Y0.0000 Z-0.1111 I-0.4331 J0.0000 
G1 G91 G2 X0.0000 Y0.0000 Z-0.1111 I-0.4331 J0.0000 
G1 G91 G2 X0.0000 Y0.0000 Z-0.1111 I-0.4331 J0.0000 
G1 G91 G2 X0.0000 Y0.0000 Z-0.1111 I-0.4331 J0.0000 
G1 G91 G2 X0.0000 Y0.0000 Z-0.1111 I-0.4331 J0.0000 
G1 G91 G40 X-0.4331 Y0.0000
G1 G90 Z6.6000 F0.300
G0 G90 Z8.0000

(********** THREAD 4 ********)
(* ROUGH 4 D22.225MM/D0.875" *)
G0 G90 X14.5026 Y1.2437
G0 G90 Z7.6000
G1 G90 Z7.5000 F0.300
G1 G91 G42 X0.4375 Y0.0000 F0.010
G1 G91 G2 X0.0000 Y0.0000 Z-0.1111 I-0.4375 J0.0000 
G1 G91 G2 X0.0000 Y0.0000 Z-0.1111 I-0.4375 J0.0000 
G1 G91 G2 X0.0000 Y0.0000 Z-0.1111 I-0.4375 J0.0000 
G1 G91 G2 X0.0000 Y0.0000 Z-0.1111 I-0.4375 J0.0000 
G1 G91 G2 X0.0000 Y0.0000 Z-0.1111 I-0.4375 J0.0000 
G1 G91 G2 X0.0000 Y0.0000 Z-0.1111 I-0.4375 J0.0000 
G1 G91 G2 X0.0000 Y0.0000 Z-0.1111 I-0.4375 J0.0000 
G1 G91 G2 X0.0000 Y0.0000 Z-0.1111 I-0.4375 J0.0000 
G1 G91 G2 X0.0000 Y0.0000 Z-0.1111 I-0.4375 J0.0000   
G1 G91 G40 X-0.4375 Y0.0000
G1 G90 Z6.6000 F0.300
G0 G90 Z8.0000

(*************************************************)

(********** THREAD 5 ********)
(* ROUGH 1 D20.5MM/D0.8071" *)
G0 G90 X12.7437 Y3.0026
G0 G90 Z7.6000
G1 G90 Z7.5000 F0.300
G1 G91 G42 X0.4035 Y0.0000 F0.010
G1 G91 G2 X0.0000 Y0.0000 Z-0.1111 I-0.4035 J0.0000 
G1 G91 G2 X0.0000 Y0.0000 Z-0.1111 I-0.4035 J0.0000 
G1 G91 G2 X0.0000 Y0.0000 Z-0.1111 I-0.4035 J0.0000 
G1 G91 G2 X0.0000 Y0.0000 Z-0.1111 I-0.4035 J0.0000 
G1 G91 G2 X0.0000 Y0.0000 Z-0.1111 I-0.4035 J0.0000 
G1 G91 G2 X0.0000 Y0.0000 Z-0.1111 I-0.4035 J0.0000 
G1 G91 G2 X0.0000 Y0.0000 Z-0.1111 I-0.4035 J0.0000 
G1 G91 G2 X0.0000 Y0.0000 Z-0.1111 I-0.4035 J0.0000 
G1 G91 G2 X0.0000 Y0.0000 Z-0.1111 I-0.4035 J0.0000  
G1 G91 G40 X-0.4035 Y0.0000
G1 G90 Z6.6000 F0.300
G0 G90 Z8.0000

(********** THREAD 5 ********)
(* ROUGH 2 D21.4MM/D0.8425" *)
G0 G90 X12.7437 Y3.0026
G0 G90 Z7.6000
G1 G90 Z7.5000 F0.300
G1 G91 G42 X0.4212 Y0.0000 F0.010
G1 G91 G2 X0.0000 Y0.0000 Z-0.1111 I-0.4212 J0.0000 
G1 G91 G2 X0.0000 Y0.0000 Z-0.1111 I-0.4212 J0.0000 
G1 G91 G2 X0.0000 Y0.0000 Z-0.1111 I-0.4212 J0.0000 
G1 G91 G2 X0.0000 Y0.0000 Z-0.1111 I-0.4212 J0.0000 
G1 G91 G2 X0.0000 Y0.0000 Z-0.1111 I-0.4212 J0.0000 
G1 G91 G2 X0.0000 Y0.0000 Z-0.1111 I-0.4212 J0.0000
G1 G91 G2 X0.0000 Y0.0000 Z-0.1111 I-0.4212 J0.0000 
G1 G91 G2 X0.0000 Y0.0000 Z-0.1111 I-0.4212 J0.0000 
G1 G91 G2 X0.0000 Y0.0000 Z-0.1111 I-0.4212 J0.0000   
G1 G91 G40 X-0.4212 Y0.0000
G1 G90 Z6.6000 F0.300
G0 G90 Z8.0000

(********** THREAD 5 ********)
(* ROUGH 3 D22MM/D0.8661" *)
G0 G90 X12.7437 Y3.0026
G0 G90 Z7.6000
G1 G90 Z7.5000 F0.300
G1 G91 G42 X0.4331 Y0.0000 F0.010
G1 G91 G2 X0.0000 Y0.0000 Z-0.1111 I-0.4331 J0.0000 
G1 G91 G2 X0.0000 Y0.0000 Z-0.1111 I-0.4331 J0.0000 
G1 G91 G2 X0.0000 Y0.0000 Z-0.1111 I-0.4331 J0.0000 
G1 G91 G2 X0.0000 Y0.0000 Z-0.1111 I-0.4331 J0.0000 
G1 G91 G2 X0.0000 Y0.0000 Z-0.1111 I-0.4331 J0.0000 
G1 G91 G2 X0.0000 Y0.0000 Z-0.1111 I-0.4331 J0.0000 
G1 G91 G2 X0.0000 Y0.0000 Z-0.1111 I-0.4331 J0.0000 
G1 G91 G2 X0.0000 Y0.0000 Z-0.1111 I-0.4331 J0.0000 
G1 G91 G2 X0.0000 Y0.0000 Z-0.1111 I-0.4331 J0.0000 
G1 G91 G40 X-0.4331 Y0.0000
G1 G90 Z6.6000 F0.300
G0 G90 Z8.0000

(********* THREAD 5 **********)
(* ROUGH 4 D22.225MM/D0.875" *)
G0 G90 X12.7437 Y3.0026
G0 G90 Z7.6000
G1 G90 Z7.5000 F0.300
G1 G91 G42 X0.4375 Y0.0000 F0.010
G1 G91 G2 X0.0000 Y0.0000 Z-0.1111 I-0.4375 J0.0000 
G1 G91 G2 X0.0000 Y0.0000 Z-0.1111 I-0.4375 J0.0000 
G1 G91 G2 X0.0000 Y0.0000 Z-0.1111 I-0.4375 J0.0000 
G1 G91 G2 X0.0000 Y0.0000 Z-0.1111 I-0.4375 J0.0000 
G1 G91 G2 X0.0000 Y0.0000 Z-0.1111 I-0.4375 J0.0000 
G1 G91 G2 X0.0000 Y0.0000 Z-0.1111 I-0.4375 J0.0000 
G1 G91 G2 X0.0000 Y0.0000 Z-0.1111 I-0.4375 J0.0000 
G1 G91 G2 X0.0000 Y0.0000 Z-0.1111 I-0.4375 J0.0000 
G1 G91 G2 X0.0000 Y0.0000 Z-0.1111 I-0.4375 J0.0000   
G1 G91 G40 X-0.4375 Y0.0000
G1 G90 Z6.6000 F0.300
G0 G90 Z8.0000

(*************************************************)

(********* THREAD 6 *********)
(* ROUGH 1 D20.5MM/D0.8071" *)
G0 G90 X10.2563 Y3.0026
G0 G90 Z7.6000
G1 G90 Z7.5000 F0.300
G1 G91 G42 X0.4035 Y0.0000 F0.010
G1 G91 G2 X0.0000 Y0.0000 Z-0.1111 I-0.4035 J0.0000 
G1 G91 G2 X0.0000 Y0.0000 Z-0.1111 I-0.4035 J0.0000 
G1 G91 G2 X0.0000 Y0.0000 Z-0.1111 I-0.4035 J0.0000 
G1 G91 G2 X0.0000 Y0.0000 Z-0.1111 I-0.4035 J0.0000 
G1 G91 G2 X0.0000 Y0.0000 Z-0.1111 I-0.4035 J0.0000 
G1 G91 G2 X0.0000 Y0.0000 Z-0.1111 I-0.4035 J0.0000 
G1 G91 G2 X0.0000 Y0.0000 Z-0.1111 I-0.4035 J0.0000 
G1 G91 G2 X0.0000 Y0.0000 Z-0.1111 I-0.4035 J0.0000 
G1 G91 G2 X0.0000 Y0.0000 Z-0.1111 I-0.4035 J0.0000  
G1 G91 G40 X-0.4035 Y0.0000
G1 G90 Z6.6000 F0.300
G0 G90 Z8.0000

(********** THREAD 6 ********)
(* ROUGH 2 D21.4MM/D0.8425" *)
G0 G90 X10.2563 Y3.0026
G0 G90 Z7.6000
G1 G90 Z7.5000 F0.300
G1 G91 G42 X0.4212 Y0.0000 F0.010
G1 G91 G2 X0.0000 Y0.0000 Z-0.1111 I-0.4212 J0.0000 
G1 G91 G2 X0.0000 Y0.0000 Z-0.1111 I-0.4212 J0.0000 
G1 G91 G2 X0.0000 Y0.0000 Z-0.1111 I-0.4212 J0.0000 
G1 G91 G2 X0.0000 Y0.0000 Z-0.1111 I-0.4212 J0.0000 
G1 G91 G2 X0.0000 Y0.0000 Z-0.1111 I-0.4212 J0.0000 
G1 G91 G2 X0.0000 Y0.0000 Z-0.1111 I-0.4212 J0.0000
G1 G91 G2 X0.0000 Y0.0000 Z-0.1111 I-0.4212 J0.0000 
G1 G91 G2 X0.0000 Y0.0000 Z-0.1111 I-0.4212 J0.0000 
G1 G91 G2 X0.0000 Y0.0000 Z-0.1111 I-0.4212 J0.0000   
G1 G91 G40 X-0.4212 Y0.0000
G1 G90 Z6.6000 F0.300
G0 G90 Z8.0000

(******** THREAD 6 ********)
(* ROUGH 3 D22MM/D0.8661" *)
G0 G90 X10.2563 Y3.0026
G0 G90 Z7.6000
G1 G90 Z7.5000 F0.300
G1 G91 G42 X0.4331 Y0.0000 F0.010
G1 G91 G2 X0.0000 Y0.0000 Z-0.1111 I-0.4331 J0.0000 
G1 G91 G2 X0.0000 Y0.0000 Z-0.1111 I-0.4331 J0.0000 
G1 G91 G2 X0.0000 Y0.0000 Z-0.1111 I-0.4331 J0.0000 
G1 G91 G2 X0.0000 Y0.0000 Z-0.1111 I-0.4331 J0.0000 
G1 G91 G2 X0.0000 Y0.0000 Z-0.1111 I-0.4331 J0.0000 
G1 G91 G2 X0.0000 Y0.0000 Z-0.1111 I-0.4331 J0.0000 
G1 G91 G2 X0.0000 Y0.0000 Z-0.1111 I-0.4331 J0.0000 
G1 G91 G2 X0.0000 Y0.0000 Z-0.1111 I-0.4331 J0.0000 
G1 G91 G2 X0.0000 Y0.0000 Z-0.1111 I-0.4331 J0.0000 
G1 G91 G40 X-0.4331 Y0.0000
G1 G90 Z6.6000 F0.300
G0 G90 Z8.0000

(********** THREAD 6 ********)
(* ROUGH 4 D22.225MM/D0.875" *)
G0 G90 X10.2563 Y3.0026
G0 G90 Z7.6000
G1 G90 Z7.5000 F0.300
G1 G91 G42 X0.4375 Y0.0000 F0.010
G1 G91 G2 X0.0000 Y0.0000 Z-0.1111 I-0.4375 J0.0000 
G1 G91 G2 X0.0000 Y0.0000 Z-0.1111 I-0.4375 J0.0000 
G1 G91 G2 X0.0000 Y0.0000 Z-0.1111 I-0.4375 J0.0000 
G1 G91 G2 X0.0000 Y0.0000 Z-0.1111 I-0.4375 J0.0000 
G1 G91 G2 X0.0000 Y0.0000 Z-0.1111 I-0.4375 J0.0000 
G1 G91 G2 X0.0000 Y0.0000 Z-0.1111 I-0.4375 J0.0000 
G1 G91 G2 X0.0000 Y0.0000 Z-0.1111 I-0.4375 J0.0000 
G1 G91 G2 X0.0000 Y0.0000 Z-0.1111 I-0.4375 J0.0000 
G1 G91 G2 X0.0000 Y0.0000 Z-0.1111 I-0.4375 J0.0000   
G1 G91 G40 X-0.4375 Y0.0000
G1 G90 Z6.6000 F0.300
G0 G90 Z8.0000

(*************************************************)

(********** THREAD 7 ********)
(* ROUGH 1 D20.5MM/D0.8071" *)
G0 G90 X8.4974 Y1.2437
G0 G90 Z7.6000
G1 G90 Z7.5000 F0.300
G1 G91 G42 X0.4035 Y0.0000 F0.010
G1 G91 G2 X0.0000 Y0.0000 Z-0.1111 I-0.4035 J0.0000 
G1 G91 G2 X0.0000 Y0.0000 Z-0.1111 I-0.4035 J0.0000 
G1 G91 G2 X0.0000 Y0.0000 Z-0.1111 I-0.4035 J0.0000 
G1 G91 G2 X0.0000 Y0.0000 Z-0.1111 I-0.4035 J0.0000 
G1 G91 G2 X0.0000 Y0.0000 Z-0.1111 I-0.4035 J0.0000 
G1 G91 G2 X0.0000 Y0.0000 Z-0.1111 I-0.4035 J0.0000 
G1 G91 G2 X0.0000 Y0.0000 Z-0.1111 I-0.4035 J0.0000 
G1 G91 G2 X0.0000 Y0.0000 Z-0.1111 I-0.4035 J0.0000 
G1 G91 G2 X0.0000 Y0.0000 Z-0.1111 I-0.4035 J0.0000  
G1 G91 G40 X-0.4035 Y0.0000
G1 G90 Z6.6000 F0.300
G0 G90 Z8.0000

(********** THREAD 7 ********)
(* ROUGH 2 D21.4MM/D0.8425" *)
G0 G90 X8.4974 Y1.2437
G0 G90 Z7.6000
G1 G90 Z7.5000 F0.300
G1 G91 G42 X0.4212 Y0.0000 F0.010
G1 G91 G2 X0.0000 Y0.0000 Z-0.1111 I-0.4212 J0.0000 
G1 G91 G2 X0.0000 Y0.0000 Z-0.1111 I-0.4212 J0.0000 
G1 G91 G2 X0.0000 Y0.0000 Z-0.1111 I-0.4212 J0.0000 
G1 G91 G2 X0.0000 Y0.0000 Z-0.1111 I-0.4212 J0.0000 
G1 G91 G2 X0.0000 Y0.0000 Z-0.1111 I-0.4212 J0.0000 
G1 G91 G2 X0.0000 Y0.0000 Z-0.1111 I-0.4212 J0.0000
G1 G91 G2 X0.0000 Y0.0000 Z-0.1111 I-0.4212 J0.0000 
G1 G91 G2 X0.0000 Y0.0000 Z-0.1111 I-0.4212 J0.0000 
G1 G91 G2 X0.0000 Y0.0000 Z-0.1111 I-0.4212 J0.0000   
G1 G91 G40 X-0.4212 Y0.0000
G1 G90 Z6.6000 F0.300
G0 G90 Z8.0000

(******** THREAD 7 ********)
(* ROUGH 3 D22MM/D0.8661" *)
G0 G90 X8.4974 Y1.2437
G0 G90 Z7.6000
G1 G90 Z7.5000 F0.300
G1 G91 G42 X0.4331 Y0.0000 F0.010
G1 G91 G2 X0.0000 Y0.0000 Z-0.1111 I-0.4331 J0.0000 
G1 G91 G2 X0.0000 Y0.0000 Z-0.1111 I-0.4331 J0.0000 
G1 G91 G2 X0.0000 Y0.0000 Z-0.1111 I-0.4331 J0.0000 
G1 G91 G2 X0.0000 Y0.0000 Z-0.1111 I-0.4331 J0.0000 
G1 G91 G2 X0.0000 Y0.0000 Z-0.1111 I-0.4331 J0.0000 
G1 G91 G2 X0.0000 Y0.0000 Z-0.1111 I-0.4331 J0.0000 
G1 G91 G2 X0.0000 Y0.0000 Z-0.1111 I-0.4331 J0.0000 
G1 G91 G2 X0.0000 Y0.0000 Z-0.1111 I-0.4331 J0.0000 
G1 G91 G2 X0.0000 Y0.0000 Z-0.1111 I-0.4331 J0.0000 
G1 G91 G40 X-0.4331 Y0.0000
G1 G90 Z6.6000 F0.300
G0 G90 Z8.0000

(********** THREAD 7 *********)
(* ROUGH 4 D22.225MM/D0.875" *)
G0 G90 X8.4974 Y1.2437
G0 G90 Z7.6000
G1 G90 Z7.5000 F0.300
G1 G91 G42 X0.4375 Y0.0000 F0.010
G1 G91 G2 X0.0000 Y0.0000 Z-0.1111 I-0.4375 J0.0000 
G1 G91 G2 X0.0000 Y0.0000 Z-0.1111 I-0.4375 J0.0000 
G1 G91 G2 X0.0000 Y0.0000 Z-0.1111 I-0.4375 J0.0000 
G1 G91 G2 X0.0000 Y0.0000 Z-0.1111 I-0.4375 J0.0000 
G1 G91 G2 X0.0000 Y0.0000 Z-0.1111 I-0.4375 J0.0000 
G1 G91 G2 X0.0000 Y0.0000 Z-0.1111 I-0.4375 J0.0000 
G1 G91 G2 X0.0000 Y0.0000 Z-0.1111 I-0.4375 J0.0000 
G1 G91 G2 X0.0000 Y0.0000 Z-0.1111 I-0.4375 J0.0000 
G1 G91 G2 X0.0000 Y0.0000 Z-0.1111 I-0.4375 J0.0000   
G1 G91 G40 X-0.4375 Y0.0000
G1 G90 Z6.6000 F0.300
G0 G90 Z8.0000

(*************************************************)

(********** THREAD 8 ********)
(* ROUGH 1 D20.5MM/D0.8071" *)
G0 G90 X8.4974 Y-1.2437
G0 G90 Z7.6000
G1 G90 Z7.5000 F0.300
G1 G91 G42 X0.4035 Y0.0000 F0.010
G1 G91 G2 X0.0000 Y0.0000 Z-0.1111 I-0.4035 J0.0000 
G1 G91 G2 X0.0000 Y0.0000 Z-0.1111 I-0.4035 J0.0000 
G1 G91 G2 X0.0000 Y0.0000 Z-0.1111 I-0.4035 J0.0000 
G1 G91 G2 X0.0000 Y0.0000 Z-0.1111 I-0.4035 J0.0000 
G1 G91 G2 X0.0000 Y0.0000 Z-0.1111 I-0.4035 J0.0000 
G1 G91 G2 X0.0000 Y0.0000 Z-0.1111 I-0.4035 J0.0000 
G1 G91 G2 X0.0000 Y0.0000 Z-0.1111 I-0.4035 J0.0000 
G1 G91 G2 X0.0000 Y0.0000 Z-0.1111 I-0.4035 J0.0000 
G1 G91 G2 X0.0000 Y0.0000 Z-0.1111 I-0.4035 J0.0000  
G1 G91 G40 X-0.4035 Y0.0000
G1 G90 Z6.6000 F0.300
G0 G90 Z8.0000

(********** THREAD 8 ********)
(* ROUGH 2 D21.4MM/D0.8425" *)
G0 G90 X8.4974 Y-1.2437
G0 G90 Z7.6000
G1 G90 Z7.5000 F0.300
G1 G91 G42 X0.4212 Y0.0000 F0.010
G1 G91 G2 X0.0000 Y0.0000 Z-0.1111 I-0.4212 J0.0000 
G1 G91 G2 X0.0000 Y0.0000 Z-0.1111 I-0.4212 J0.0000 
G1 G91 G2 X0.0000 Y0.0000 Z-0.1111 I-0.4212 J0.0000 
G1 G91 G2 X0.0000 Y0.0000 Z-0.1111 I-0.4212 J0.0000 
G1 G91 G2 X0.0000 Y0.0000 Z-0.1111 I-0.4212 J0.0000 
G1 G91 G2 X0.0000 Y0.0000 Z-0.1111 I-0.4212 J0.0000
G1 G91 G2 X0.0000 Y0.0000 Z-0.1111 I-0.4212 J0.0000 
G1 G91 G2 X0.0000 Y0.0000 Z-0.1111 I-0.4212 J0.0000 
G1 G91 G2 X0.0000 Y0.0000 Z-0.1111 I-0.4212 J0.0000   
G1 G91 G40 X-0.4212 Y0.0000
G1 G90 Z6.6000 F0.300
G0 G90 Z8.0000

(******** THREAD 8 ********)
(* ROUGH 3 D22MM/D0.8661" *)
G0 G90 X8.4974 Y-1.2437
G0 G90 Z7.6000
G1 G90 Z7.5000 F0.300
G1 G91 G42 X0.4331 Y0.0000 F0.010
G1 G91 G2 X0.0000 Y0.0000 Z-0.1111 I-0.4331 J0.0000 
G1 G91 G2 X0.0000 Y0.0000 Z-0.1111 I-0.4331 J0.0000 
G1 G91 G2 X0.0000 Y0.0000 Z-0.1111 I-0.4331 J0.0000 
G1 G91 G2 X0.0000 Y0.0000 Z-0.1111 I-0.4331 J0.0000 
G1 G91 G2 X0.0000 Y0.0000 Z-0.1111 I-0.4331 J0.0000 
G1 G91 G2 X0.0000 Y0.0000 Z-0.1111 I-0.4331 J0.0000 
G1 G91 G2 X0.0000 Y0.0000 Z-0.1111 I-0.4331 J0.0000 
G1 G91 G2 X0.0000 Y0.0000 Z-0.1111 I-0.4331 J0.0000 
G1 G91 G2 X0.0000 Y0.0000 Z-0.1111 I-0.4331 J0.0000 
G1 G91 G40 X-0.4331 Y0.0000
G1 G90 Z6.6000 F0.300
G0 G90 Z8.0000

(********** THREAD 8 *********)
(* ROUGH 4 D22.225MM/D0.875" *)
G0 G90 X8.4974 Y-1.2437
G0 G90 Z7.6000
G1 G90 Z7.5000 F0.300
G1 G91 G42 X0.4375 Y0.0000 F0.010
G1 G91 G2 X0.0000 Y0.0000 Z-0.1111 I-0.4375 J0.0000 
G1 G91 G2 X0.0000 Y0.0000 Z-0.1111 I-0.4375 J0.0000 
G1 G91 G2 X0.0000 Y0.0000 Z-0.1111 I-0.4375 J0.0000 
G1 G91 G2 X0.0000 Y0.0000 Z-0.1111 I-0.4375 J0.0000 
G1 G91 G2 X0.0000 Y0.0000 Z-0.1111 I-0.4375 J0.0000 
G1 G91 G2 X0.0000 Y0.0000 Z-0.1111 I-0.4375 J0.0000 
G1 G91 G2 X0.0000 Y0.0000 Z-0.1111 I-0.4375 J0.0000 
G1 G91 G2 X0.0000 Y0.0000 Z-0.1111 I-0.4375 J0.0000 
G1 G91 G2 X0.0000 Y0.0000 Z-0.1111 I-0.4375 J0.0000   
G1 G91 G40 X-0.4375 Y0.0000
G1 G90 Z6.6000 F0.300
G0 G90 Z8.0000
G0 Z15.0000
G49 G69
M9
M5
G91 G28 Z0 (1 - HOME Z)
G91 G28 X0 (2 - HOME X)
G91 G28 Y0 (3 - HOME Y)
G90
M0
M00
M00


N29
(OPERATION: FINISH -  THREAD D7/8"-9UNC-2B)
(COMMENT: THREADING - FINISH THREAD D7/8"-9UNC-2B VGS2.7.48)
(B AXIS ANGLE: 90.0 DEGREES)
(TOOL ID: TD10067 - TOOL DIAMETER: 16MM)
(TOOL COMMENT: THREAD MILL D16MM/D0.6299" TO 7/8"-9UNC-2B)
T032.01 M6
G91 G28 Z0 (Z TO SAFETY)
G91 G28 X0 (2 - HOME X)
G91 G28 Y0 (3 - HOME Y)
G90
G55 G64
(**************************)
(* G55 WORK-OFFSET ACTIVE *)
(**************************)
G17 M200 M212 (MILLING MODE)
G10.9 X0 (RADIUS MODE)
G97 S1700 M3
M108 (UNCLAMP B AXIS)
G0 B90.
M107 (CLAMP B AXIS)
M212 (UNCLAMP C AXIS)
G0 C180.
M210 (CLAMP C AXIS)
G68 X0. Y0. Z0. I0. J1. K0. R90.
G0 X10.2563 Y-3.0026 Z15.0000
G0 Z12.0000
G95
M8     M51
(********* THREAD 1 *********)
(* FINISH D22.225MM/D0.875" *)
G0 G90 X10.2563 Y-3.0026
G0 G90 Z8.0000
G0 G90 Z7.6000 M51
G1 G90 Z7.5000 F0.300
G1 G91 G42 D1 X0.4375 Y0.0000 F0.010
G1 G91 G2 X0.0000 Y0.0000 Z-0.1111 I-0.4375 J0.0000 
G1 G91 G2 X0.0000 Y0.0000 Z-0.1111 I-0.4375 J0.0000 
G1 G91 G2 X0.0000 Y0.0000 Z-0.1111 I-0.4375 J0.0000 
G1 G91 G2 X0.0000 Y0.0000 Z-0.1111 I-0.4375 J0.0000 
G1 G91 G2 X0.0000 Y0.0000 Z-0.1111 I-0.4375 J0.0000 
G1 G91 G2 X0.0000 Y0.0000 Z-0.1111 I-0.4375 J0.0000 
G1 G91 G2 X0.0000 Y0.0000 Z-0.1111 I-0.4375 J0.0000 
G1 G91 G2 X0.0000 Y0.0000 Z-0.1111 I-0.4375 J0.0000 
G1 G91 G2 X0.0000 Y0.0000 Z-0.1111 I-0.4375 J0.0000   
G1 G91 G40 X-0.4375 Y0.0000
G1 G90 Z6.6000 F0.300
G0 G90 Z8.0000
M0
(*************************************************)

(********* THREAD 2 *********)
(* FINISH D22.225MM/D0.875" *)
G0 G90 X12.7437 Y-3.0026
G0 G90 Z7.6000
G1 G90 Z7.5000 F0.300
G1 G91 G42 D1 X0.4375 Y0.0000 F0.010
G1 G91 G2 X0.0000 Y0.0000 Z-0.1111 I-0.4375 J0.0000 
G1 G91 G2 X0.0000 Y0.0000 Z-0.1111 I-0.4375 J0.0000 
G1 G91 G2 X0.0000 Y0.0000 Z-0.1111 I-0.4375 J0.0000 
G1 G91 G2 X0.0000 Y0.0000 Z-0.1111 I-0.4375 J0.0000 
G1 G91 G2 X0.0000 Y0.0000 Z-0.1111 I-0.4375 J0.0000 
G1 G91 G2 X0.0000 Y0.0000 Z-0.1111 I-0.4375 J0.0000 
G1 G91 G2 X0.0000 Y0.0000 Z-0.1111 I-0.4375 J0.0000 
G1 G91 G2 X0.0000 Y0.0000 Z-0.1111 I-0.4375 J0.0000 
G1 G91 G2 X0.0000 Y0.0000 Z-0.1111 I-0.4375 J0.0000   
G1 G91 G40 X-0.4375 Y0.0000
G1 G90 Z6.6000 F0.300
G0 G90 Z8.0000

(*************************************************)

(********* THREAD 3 *********)
(* FINISH D22.225MM/D0.875" *)
G0 G90 X14.5026 Y-1.2437
G0 G90 Z7.6000
G1 G90 Z7.5000 F0.300
G1 G91 G42 D1 X0.4375 Y0.0000 F0.010
G1 G91 G2 X0.0000 Y0.0000 Z-0.1111 I-0.4375 J0.0000 
G1 G91 G2 X0.0000 Y0.0000 Z-0.1111 I-0.4375 J0.0000 
G1 G91 G2 X0.0000 Y0.0000 Z-0.1111 I-0.4375 J0.0000 
G1 G91 G2 X0.0000 Y0.0000 Z-0.1111 I-0.4375 J0.0000 
G1 G91 G2 X0.0000 Y0.0000 Z-0.1111 I-0.4375 J0.0000 
G1 G91 G2 X0.0000 Y0.0000 Z-0.1111 I-0.4375 J0.0000 
G1 G91 G2 X0.0000 Y0.0000 Z-0.1111 I-0.4375 J0.0000 
G1 G91 G2 X0.0000 Y0.0000 Z-0.1111 I-0.4375 J0.0000 
G1 G91 G2 X0.0000 Y0.0000 Z-0.1111 I-0.4375 J0.0000   
G1 G91 G40 X-0.4375 Y0.0000
G1 G90 Z6.6000 F0.300
G0 G90 Z8.0000

(*************************************************)

(********* THREAD 4 *********)
(* FINISH D22.225MM/D0.875" *)
G0 G90 X14.5026 Y1.2437
G0 G90 Z7.6000
G1 G90 Z7.5000 F0.300
G1 G91 G42 D1 X0.4375 Y0.0000 F0.010
G1 G91 G2 X0.0000 Y0.0000 Z-0.1111 I-0.4375 J0.0000 
G1 G91 G2 X0.0000 Y0.0000 Z-0.1111 I-0.4375 J0.0000 
G1 G91 G2 X0.0000 Y0.0000 Z-0.1111 I-0.4375 J0.0000 
G1 G91 G2 X0.0000 Y0.0000 Z-0.1111 I-0.4375 J0.0000 
G1 G91 G2 X0.0000 Y0.0000 Z-0.1111 I-0.4375 J0.0000 
G1 G91 G2 X0.0000 Y0.0000 Z-0.1111 I-0.4375 J0.0000 
G1 G91 G2 X0.0000 Y0.0000 Z-0.1111 I-0.4375 J0.0000 
G1 G91 G2 X0.0000 Y0.0000 Z-0.1111 I-0.4375 J0.0000 
G1 G91 G2 X0.0000 Y0.0000 Z-0.1111 I-0.4375 J0.0000   
G1 G91 G40 X-0.4375 Y0.0000
G1 G90 Z6.6000 F0.300
G0 G90 Z8.0000

(*************************************************)

(********* THREAD 5 *********)
(* FINISH D22.225MM/D0.875" *)
G0 G90 X12.7437 Y3.0026
G0 G90 Z7.6000
G1 G90 Z7.5000 F0.300
G1 G91 G42 D1 X0.4375 Y0.0000 F0.010
G1 G91 G2 X0.0000 Y0.0000 Z-0.1111 I-0.4375 J0.0000 
G1 G91 G2 X0.0000 Y0.0000 Z-0.1111 I-0.4375 J0.0000 
G1 G91 G2 X0.0000 Y0.0000 Z-0.1111 I-0.4375 J0.0000 
G1 G91 G2 X0.0000 Y0.0000 Z-0.1111 I-0.4375 J0.0000 
G1 G91 G2 X0.0000 Y0.0000 Z-0.1111 I-0.4375 J0.0000 
G1 G91 G2 X0.0000 Y0.0000 Z-0.1111 I-0.4375 J0.0000 
G1 G91 G2 X0.0000 Y0.0000 Z-0.1111 I-0.4375 J0.0000 
G1 G91 G2 X0.0000 Y0.0000 Z-0.1111 I-0.4375 J0.0000 
G1 G91 G2 X0.0000 Y0.0000 Z-0.1111 I-0.4375 J0.0000   
G1 G91 G40 X-0.4375 Y0.0000
G1 G90 Z6.6000 F0.300
G0 G90 Z8.0000

(*************************************************)

(********* THREAD 6 *********)
(* FINISH D22.225MM/D0.875" *)
G0 G90 X10.2563 Y3.0026
G0 G90 Z7.6000
G1 G90 Z7.5000 F0.300
G1 G91 G42 D1 X0.4375 Y0.0000 F0.010
G1 G91 G2 X0.0000 Y0.0000 Z-0.1111 I-0.4375 J0.0000 
G1 G91 G2 X0.0000 Y0.0000 Z-0.1111 I-0.4375 J0.0000 
G1 G91 G2 X0.0000 Y0.0000 Z-0.1111 I-0.4375 J0.0000 
G1 G91 G2 X0.0000 Y0.0000 Z-0.1111 I-0.4375 J0.0000 
G1 G91 G2 X0.0000 Y0.0000 Z-0.1111 I-0.4375 J0.0000 
G1 G91 G2 X0.0000 Y0.0000 Z-0.1111 I-0.4375 J0.0000 
G1 G91 G2 X0.0000 Y0.0000 Z-0.1111 I-0.4375 J0.0000 
G1 G91 G2 X0.0000 Y0.0000 Z-0.1111 I-0.4375 J0.0000 
G1 G91 G2 X0.0000 Y0.0000 Z-0.1111 I-0.4375 J0.0000   
G1 G91 G40 X-0.4375 Y0.0000
G1 G90 Z6.6000 F0.300
G0 G90 Z8.0000

(*************************************************)

(********* THREAD 7 *********)
(* FINISH D22.225MM/D0.875" *)
G0 G90 X8.4974 Y1.2437
G0 G90 Z7.6000
G1 G90 Z7.5000 F0.300
G1 G91 G42 D1 X0.4375 Y0.0000 F0.010
G1 G91 G2 X0.0000 Y0.0000 Z-0.1111 I-0.4375 J0.0000 
G1 G91 G2 X0.0000 Y0.0000 Z-0.1111 I-0.4375 J0.0000 
G1 G91 G2 X0.0000 Y0.0000 Z-0.1111 I-0.4375 J0.0000 
G1 G91 G2 X0.0000 Y0.0000 Z-0.1111 I-0.4375 J0.0000 
G1 G91 G2 X0.0000 Y0.0000 Z-0.1111 I-0.4375 J0.0000 
G1 G91 G2 X0.0000 Y0.0000 Z-0.1111 I-0.4375 J0.0000 
G1 G91 G2 X0.0000 Y0.0000 Z-0.1111 I-0.4375 J0.0000 
G1 G91 G2 X0.0000 Y0.0000 Z-0.1111 I-0.4375 J0.0000 
G1 G91 G2 X0.0000 Y0.0000 Z-0.1111 I-0.4375 J0.0000   
G1 G91 G40 X-0.4375 Y0.0000
G1 G90 Z6.6000 F0.300
G0 G90 Z8.0000

(*************************************************)

(********* THREAD 8 *********)
(* FINISH D22.225MM/D0.875" *)
G0 G90 X8.4974 Y-1.2437
G0 G90 Z7.6000
G1 G90 Z7.5000 F0.300
G1 G91 G42 D1 X0.4375 Y0.0000 F0.010
G1 G91 G2 X0.0000 Y0.0000 Z-0.1111 I-0.4375 J0.0000 
G1 G91 G2 X0.0000 Y0.0000 Z-0.1111 I-0.4375 J0.0000 
G1 G91 G2 X0.0000 Y0.0000 Z-0.1111 I-0.4375 J0.0000 
G1 G91 G2 X0.0000 Y0.0000 Z-0.1111 I-0.4375 J0.0000 
G1 G91 G2 X0.0000 Y0.0000 Z-0.1111 I-0.4375 J0.0000 
G1 G91 G2 X0.0000 Y0.0000 Z-0.1111 I-0.4375 J0.0000 
G1 G91 G2 X0.0000 Y0.0000 Z-0.1111 I-0.4375 J0.0000 
G1 G91 G2 X0.0000 Y0.0000 Z-0.1111 I-0.4375 J0.0000 
G1 G91 G2 X0.0000 Y0.0000 Z-0.1111 I-0.4375 J0.0000   
G1 G91 G40 X-0.4375 Y0.0000
G1 G90 Z6.6000 F0.300
G0 G90 Z8.0000
G0 Z15.0000
G49 G69
M9
M5
G91 G28 Z0 (1 - HOME Z)
G91 G28 X0 (2 - HOME X)
G91 G28 Y0 (3 - HOME Y)
G90
M0 

N30
(OPERATION: FINISH - STUDDED THREAD D7/8"-9UNC-2B)
(COMMENT: THREADING - FINISH THREAD D7/8"-9UNC-2B VGS2.7.48)
(B AXIS ANGLE: 90.0 DEGREES)
(TOOL ID: TD10067 - TOOL DIAMETER: 16MM)
(TOOL COMMENT: THREAD MILL D16MM/D0.6299" TO 7/8"-9UNC-2B)
T032.01 M6
G91 G28 Z0 (Z TO SAFETY)
G91 G28 X0 (2 - HOME X)
G91 G28 Y0 (3 - HOME Y)
G90
G55 G64
(**************************)
(* G55 WORK-OFFSET ACTIVE *)
(**************************)
G17 M200 M212 (MILLING MODE)
G10.9 X0 (RADIUS MODE)
G97 S1700 M3
M108 (UNCLAMP B AXIS)
G0 B90.
M107 (CLAMP B AXIS)
M212 (UNCLAMP C AXIS)
G0 C0.
M210 (CLAMP C AXIS)
G68 X0. Y0. Z0. I0. J1. K0. R90.
G0 X10.2563 Y-3.0026 Z15.0000
G0 Z12.0000
G95
M8    M51
(********* THREAD 1 *********)
(* FINISH D22.225MM/D0.875" *)
G0 G90 X10.2563 Y-3.0026
G0 G90 Z8.0000
G0 G90 Z7.6000
G1 G90 Z7.5000 F0.300
G1 G91 G42 D1 X0.4375 Y0.0000 F0.010
G1 G91 G2 X0.0000 Y0.0000 Z-0.1111 I-0.4375 J0.0000 
G1 G91 G2 X0.0000 Y0.0000 Z-0.1111 I-0.4375 J0.0000 
G1 G91 G2 X0.0000 Y0.0000 Z-0.1111 I-0.4375 J0.0000 
G1 G91 G2 X0.0000 Y0.0000 Z-0.1111 I-0.4375 J0.0000 
G1 G91 G2 X0.0000 Y0.0000 Z-0.1111 I-0.4375 J0.0000 
G1 G91 G2 X0.0000 Y0.0000 Z-0.1111 I-0.4375 J0.0000 
G1 G91 G2 X0.0000 Y0.0000 Z-0.1111 I-0.4375 J0.0000 
G1 G91 G2 X0.0000 Y0.0000 Z-0.1111 I-0.4375 J0.0000 
G1 G91 G2 X0.0000 Y0.0000 Z-0.1111 I-0.4375 J0.0000   
G1 G91 G40 X-0.4375 Y0.0000
G1 G90 Z6.6000 F0.300
G0 G90 Z8.0000

(*************************************************)

(********* THREAD 2 *********)
(* FINISH D22.225MM/D0.875" *)
G0 G90 X12.7437 Y-3.0026
M00
G0 G90 Z7.6000
G1 G90 Z7.5000 F0.300
G1 G91 G42 D1 X0.4375 Y0.0000 F0.010
G1 G91 G2 X0.0000 Y0.0000 Z-0.1111 I-0.4375 J0.0000 
G1 G91 G2 X0.0000 Y0.0000 Z-0.1111 I-0.4375 J0.0000 
G1 G91 G2 X0.0000 Y0.0000 Z-0.1111 I-0.4375 J0.0000 
G1 G91 G2 X0.0000 Y0.0000 Z-0.1111 I-0.4375 J0.0000 
G1 G91 G2 X0.0000 Y0.0000 Z-0.1111 I-0.4375 J0.0000 
G1 G91 G2 X0.0000 Y0.0000 Z-0.1111 I-0.4375 J0.0000 
G1 G91 G2 X0.0000 Y0.0000 Z-0.1111 I-0.4375 J0.0000 
G1 G91 G2 X0.0000 Y0.0000 Z-0.1111 I-0.4375 J0.0000 
G1 G91 G2 X0.0000 Y0.0000 Z-0.1111 I-0.4375 J0.0000   
G1 G91 G40 X-0.4375 Y0.0000
G1 G90 Z6.6000 F0.300
G0 G90 Z8.0000

(*************************************************)

(********* THREAD 3 *********)
(* FINISH D22.225MM/D0.875" *)
G0 G90 X14.5026 Y-1.2437
G0 G90 Z7.6000
G1 G90 Z7.5000 F0.300
G1 G91 G42 D1 X0.4375 Y0.0000 F0.010
G1 G91 G2 X0.0000 Y0.0000 Z-0.1111 I-0.4375 J0.0000 
G1 G91 G2 X0.0000 Y0.0000 Z-0.1111 I-0.4375 J0.0000 
G1 G91 G2 X0.0000 Y0.0000 Z-0.1111 I-0.4375 J0.0000 
G1 G91 G2 X0.0000 Y0.0000 Z-0.1111 I-0.4375 J0.0000 
G1 G91 G2 X0.0000 Y0.0000 Z-0.1111 I-0.4375 J0.0000 
G1 G91 G2 X0.0000 Y0.0000 Z-0.1111 I-0.4375 J0.0000 
G1 G91 G2 X0.0000 Y0.0000 Z-0.1111 I-0.4375 J0.0000 
G1 G91 G2 X0.0000 Y0.0000 Z-0.1111 I-0.4375 J0.0000 
G1 G91 G2 X0.0000 Y0.0000 Z-0.1111 I-0.4375 J0.0000   
G1 G91 G40 X-0.4375 Y0.0000
G1 G90 Z6.6000 F0.300
G0 G90 Z8.0000

(*************************************************)

(********* THREAD 4 *********)
(* FINISH D22.225MM/D0.875" *)
G0 G90 X14.5026 Y1.2437
G0 G90 Z7.6000
G1 G90 Z7.5000 F0.300
G1 G91 G42 D1 X0.4375 Y0.0000 F0.010
G1 G91 G2 X0.0000 Y0.0000 Z-0.1111 I-0.4375 J0.0000 
G1 G91 G2 X0.0000 Y0.0000 Z-0.1111 I-0.4375 J0.0000 
G1 G91 G2 X0.0000 Y0.0000 Z-0.1111 I-0.4375 J0.0000 
G1 G91 G2 X0.0000 Y0.0000 Z-0.1111 I-0.4375 J0.0000 
G1 G91 G2 X0.0000 Y0.0000 Z-0.1111 I-0.4375 J0.0000 
G1 G91 G2 X0.0000 Y0.0000 Z-0.1111 I-0.4375 J0.0000 
G1 G91 G2 X0.0000 Y0.0000 Z-0.1111 I-0.4375 J0.0000 
G1 G91 G2 X0.0000 Y0.0000 Z-0.1111 I-0.4375 J0.0000 
G1 G91 G2 X0.0000 Y0.0000 Z-0.1111 I-0.4375 J0.0000   
G1 G91 G40 X-0.4375 Y0.0000
G1 G90 Z6.6000 F0.300
G0 G90 Z8.0000

(*************************************************)

(********* THREAD 5 *********)
(* FINISH D22.225MM/D0.875" *)
G0 G90 X12.7437 Y3.0026
G0 G90 Z7.6000
G1 G90 Z7.5000 F0.300
G1 G91 G42 D1 X0.4375 Y0.0000 F0.010
G1 G91 G2 X0.0000 Y0.0000 Z-0.1111 I-0.4375 J0.0000 
G1 G91 G2 X0.0000 Y0.0000 Z-0.1111 I-0.4375 J0.0000 
G1 G91 G2 X0.0000 Y0.0000 Z-0.1111 I-0.4375 J0.0000 
G1 G91 G2 X0.0000 Y0.0000 Z-0.1111 I-0.4375 J0.0000 
G1 G91 G2 X0.0000 Y0.0000 Z-0.1111 I-0.4375 J0.0000 
G1 G91 G2 X0.0000 Y0.0000 Z-0.1111 I-0.4375 J0.0000 
G1 G91 G2 X0.0000 Y0.0000 Z-0.1111 I-0.4375 J0.0000 
G1 G91 G2 X0.0000 Y0.0000 Z-0.1111 I-0.4375 J0.0000 
G1 G91 G2 X0.0000 Y0.0000 Z-0.1111 I-0.4375 J0.0000   
G1 G91 G40 X-0.4375 Y0.0000
G1 G90 Z6.6000 F0.300
G0 G90 Z8.0000

(*************************************************)

(********* THREAD 6 *********)
(* FINISH D22.225MM/D0.875" *)
G0 G90 X10.2563 Y3.0026
G0 G90 Z7.6000
G1 G90 Z7.5000 F0.300
G1 G91 G42 D1 X0.4375 Y0.0000 F0.010
G1 G91 G2 X0.0000 Y0.0000 Z-0.1111 I-0.4375 J0.0000 
G1 G91 G2 X0.0000 Y0.0000 Z-0.1111 I-0.4375 J0.0000 
G1 G91 G2 X0.0000 Y0.0000 Z-0.1111 I-0.4375 J0.0000 
G1 G91 G2 X0.0000 Y0.0000 Z-0.1111 I-0.4375 J0.0000 
G1 G91 G2 X0.0000 Y0.0000 Z-0.1111 I-0.4375 J0.0000 
G1 G91 G2 X0.0000 Y0.0000 Z-0.1111 I-0.4375 J0.0000 
G1 G91 G2 X0.0000 Y0.0000 Z-0.1111 I-0.4375 J0.0000 
G1 G91 G2 X0.0000 Y0.0000 Z-0.1111 I-0.4375 J0.0000 
G1 G91 G2 X0.0000 Y0.0000 Z-0.1111 I-0.4375 J0.0000   
G1 G91 G40 X-0.4375 Y0.0000
G1 G90 Z6.6000 F0.300
G0 G90 Z8.0000

(*************************************************)

(********* THREAD 7 *********)
(* FINISH D22.225MM/D0.875" *)
G0 G90 X8.4974 Y1.2437
G0 G90 Z7.6000
G1 G90 Z7.5000 F0.300
G1 G91 G42 D1 X0.4375 Y0.0000 F0.010
G1 G91 G2 X0.0000 Y0.0000 Z-0.1111 I-0.4375 J0.0000 
G1 G91 G2 X0.0000 Y0.0000 Z-0.1111 I-0.4375 J0.0000 
G1 G91 G2 X0.0000 Y0.0000 Z-0.1111 I-0.4375 J0.0000 
G1 G91 G2 X0.0000 Y0.0000 Z-0.1111 I-0.4375 J0.0000 
G1 G91 G2 X0.0000 Y0.0000 Z-0.1111 I-0.4375 J0.0000 
G1 G91 G2 X0.0000 Y0.0000 Z-0.1111 I-0.4375 J0.0000 
G1 G91 G2 X0.0000 Y0.0000 Z-0.1111 I-0.4375 J0.0000 
G1 G91 G2 X0.0000 Y0.0000 Z-0.1111 I-0.4375 J0.0000 
G1 G91 G2 X0.0000 Y0.0000 Z-0.1111 I-0.4375 J0.0000   
G1 G91 G40 X-0.4375 Y0.0000
G1 G90 Z6.6000 F0.300
G0 G90 Z8.0000

(*************************************************)

(********* THREAD 8 *********)
(* FINISH D22.225MM/D0.875" *)
G0 G90 X8.4974 Y-1.2437
G0 G90 Z7.6000
G1 G90 Z7.5000 F0.300
G1 G91 G42 D1 X0.4375 Y0.0000 F0.010
G1 G91 G2 X0.0000 Y0.0000 Z-0.1111 I-0.4375 J0.0000 
G1 G91 G2 X0.0000 Y0.0000 Z-0.1111 I-0.4375 J0.0000 
G1 G91 G2 X0.0000 Y0.0000 Z-0.1111 I-0.4375 J0.0000 
G1 G91 G2 X0.0000 Y0.0000 Z-0.1111 I-0.4375 J0.0000 
G1 G91 G2 X0.0000 Y0.0000 Z-0.1111 I-0.4375 J0.0000 
G1 G91 G2 X0.0000 Y0.0000 Z-0.1111 I-0.4375 J0.0000 
G1 G91 G2 X0.0000 Y0.0000 Z-0.1111 I-0.4375 J0.0000 
G1 G91 G2 X0.0000 Y0.0000 Z-0.1111 I-0.4375 J0.0000 
G1 G91 G2 X0.0000 Y0.0000 Z-0.1111 I-0.4375 J0.0000   
G1 G91 G40 X-0.4375 Y0.0000
G1 G90 Z6.6000 F0.300
G0 G90 Z8.0000
G0 Z15.0000
G49 G69
M9
M5
G91 G28 Z0 (1 - HOME Z)
G91 G28 X0 (2 - HOME X)
G91 G28 Y0 (3 - HOME Y)
G90
M00
M00
(==============================================)

             ( DRILL SIDE OUTLET D1.625 *1* )
N31
(OPERATION: ROUGH HOLE D1.662" DRILL D1.625" VGS2.7.29)
(COMMENT: DRILLING - ROUGH HOLE D1.662" API VR DRILL D1.625")
(B AXIS ANGLE: 90.0 DEGREES)
(TOOL ID: T10008 OU TD10053 - TOOL DIAMETER: 41.275MM)
(TOOL COMMENT: U DRILL D41.275MM X 4XD)
T021.01 M6
(T022.01) (TOOL ON HOLD)
G91 G28 Z0 (Z TO SAFETY)
G91 G28 X0 (2 - HOME X)
G91 G28 Y0 (3 - HOME Y)
G90
G55 G64
(**************************)
(* G55 WORK-OFFSET ACTIVE *)
(**************************)
G17 M200 M212 (MILLING MODE)
G10.9 X0 (RADIUS MODE)
G97 S780 M3
M108 (UNCLAMP B AXIS)
G0 B90.
M107 (CLAMP B AXIS)
M212 (UNCLAMP C AXIS)
G0 C0.
M210 (CLAMP C AXIS)
G68 X0. Y0. Z0. I0. J1. K0. R90.
G0 Y0.0000
G0 X11.5000 Y0.0000 Z15.0000
G95
M8 M51
G0 Z12.0000
G99 G83 X11.5000 Y0.0000 Z4.7000(Z4.9000) D0.200 Q1.000 R7.6181 F0.005
G80
G0 Z15.0000
G49 G69
M9
M5
G91 G28 Z0 (1 - HOME Z)
G91 G28 X0 (2 - HOME X)
G91 G28 Y0 (3 - HOME Y)
G90
M0

             ( DRILL SIDE OUTLET D1.625 *2* )

N32
(OPERATION: ROUGH HOLE D1.662" DRILL D1.625" VGS2.7.29)
(COMMENT: DRILLING - ROUGH HOLE D1.662" API VR DRILL D1.625")
(B AXIS ANGLE: 90.0 DEGREES)
(TOOL ID: T10008 TD10053 - TOOL DIAMETER: 41.275MM)
(TOOL COMMENT: U DRILL D41.275MM X 4XD)
T021.01 M6
G91 G28 Z0 (Z TO SAFETY)
G91 G28 X0 (2 - HOME X)
G91 G28 Y0 (3 - HOME Y)
G90
G55 G64
(**************************)
(* G55 WORK-OFFSET ACTIVE *)
(**************************)
G17 M200 M212 (MILLING MODE)
G10.9 X0 (RADIUS MODE)
G97 S780 M3
M108 (UNCLAMP B AXIS)
G0 B90.
M107 (CLAMP B AXIS)
M212 (UNCLAMP C AXIS)
G0 C180.
M210 (CLAMP C AXIS)
G68 X0. Y0. Z0. I0. J1. K0. R90.
G0 Y0.0000
G0 X11.5000 Y0.0000 Z15.0000
G95
M8   M51
G0 Z12.0000
G99 G83 X11.5000 Y0.0000 Z4.7000(Z4.9000) R7.6181 D0.200 Q1.00 F0.005
G80
G0 Z15.0000
G49 G69
M9
M5
G91 G28 Z0 (1 - HOME Z)
G91 G28 X0 (2 - HOME X)
G91 G28 Y0 (3 - HOME Y)
G90
M0
M00

N33
(OPERATION: ROUGH - 2-1/16" API VR THREAD VGS2.7.29)
(COMMENT: MILLING - ROUGH - 2-1/16" API VR THREAD VGS2.7.29)
(B AXIS ANGLE: 90.0 DEGREES)
(TOOL ID: TD10029 - TOOL DIAMETER: 25MM)
(TOOL COMMENT: SQUARE SHOUDER MILL D25MM)
T022.01 M6
(T040.01) (TOOL ON HOLD)
G91 G28 Z0 (Z TO SAFETY)
G91 G28 X0 (2 - HOME X)
G91 G28 Y0 (3 - HOME Y)
G90
G55 G64
(**************************)
(* G55 WORK-OFFSET ACTIVE *)
(**************************)
G17 M200 M212 (MILLING MODE)
G10.9 X0 (RADIUS MODE)
G97 S1320 M3
M108 (UNCLAMP B AXIS)
G0 B90.
M107 (CLAMP B AXIS)
M212 (UNCLAMP C AXIS)
G0 C0.
M210 (CLAMP C AXIS)
G68 X0. Y0. Z0. I0. J1. K0. R90.
G0 Y0.0000
G0 X11.5000 Y0.0000 Z15.0000
G0 Z12.0000
M8   M51
G95 
G0 Z8.0000
G01 Z7.550 F0.025
G01 G42 X11.5000 Y0.9000 F0.026
G02.1 X11.5000 Y0.820 Z4.9900 J-0.900 P128 F0.026
G01 G40 X11.5000 Y0.0000 
G1 Z8.0000 F0.300
G0 Z15.0000 M9
G49 G69
M5
G91 G28 Z0 (1 - HOME Z)
G91 G28 X0 (2 - HOME X)
G91 G28 Y0 (3 - HOME Y)
G90
M01

N34
(OPERATION: ROUGH - 2-1/16" API VR THREAD VGS2.7.29)
(COMMENT: MILLING - ROUGH TAPER PROFILE 2-1/16" API VR THREAD VGS2.7.29)
(B AXIS ANGLE: 90.0 DEGREES)
(TOOL ID: TD10029 - TOOL DIAMETER: 25MM)
(TOOL COMMENT: SQUARE SHOUDER MILL D25MM)
T022.01 M6
G91 G28 Z0 (Z TO SAFETY)
G91 G28 X0 (2 - HOME X)
G91 G28 Y0 (3 - HOME Y)
G90
G55 G64
(**************************)
(* G55 WORK-OFFSET ACTIVE *)
(**************************)
G17 M200 M212 (MILLING MODE)
G10.9 X0 (RADIUS MODE)
G97 S1320 M3
M108 (UNCLAMP B AXIS)
G0 B90.
M107 (CLAMP B AXIS)
M212 (UNCLAMP C AXIS)
G0 C180.
M210 (CLAMP C AXIS)
G68 X0. Y0. Z0. I0. J1. K0. R90.
G0 Y0.0000
G0 X11.5000 Y0.0000 Z15.0000
G0 Z12.0000
M8  M51
G95 
G0 Z8.0000
G01 Z7.550 F0.025
G01 G41 X11.5000 Y0.9000 F0.026
G03.1 X11.5000 Y0.820 Z4.9900 J-0.900 P128 F0.026
G01 G40 X11.5000 Y0.0000 
G0 Z15.0000 M9
G49 G69
M9
M5
G91 G28 Z0 (1 - HOME Z)
G91 G28 X0 (2 - HOME X)
G91 G28 Y0 (3 - HOME Y)
G90
M01


N35
(OPERATION: ROUGH - 2-1/16" API VR THREAD VGS2.7.29)
(COMMENT: MILLING - ROUGH TAPER PROFILE 2-1/16" API VR THREAD VGS2.7.29)
(B AXIS ANGLE: 90.0 DEGREES)
(TOOL ID: TD10029 - TOOL DIAMETER: 25MM)
(TOOL COMMENT: SQUARE SHOUDER MILL D25MM)
T022.01 M6
G91 G28 Z0 (Z TO SAFETY)
G91 G28 X0 (2 - HOME X)
G91 G28 Y0 (3 - HOME Y)
G90
G55 G64
(**************************)
(* G55 WORK-OFFSET ACTIVE *)
(**************************)
G17 M200 M212 (MILLING MODE)
G10.9 X0 (RADIUS MODE)
G97 S1320 M3
M108 (UNCLAMP B AXIS)
G0 B90.
M107 (CLAMP B AXIS)
M212 (UNCLAMP C AXIS)
G0 C0.
M210 (CLAMP C AXIS)
G68 X0. Y0. Z0. I0. J1. K0. R90.
G0 Y0.0000
G0 X11.5000 Y0.0000 Z15.0000
G0 Z12.0000
M8 M51
G95 
G0 Z8.0000
G01 Z7.5400 F0.300
 
G01 G41 X11.5000 Y1.0970 F0.026
G03.1 X11.5000 Y1.0970 Z7.1000 J-1.0970 P44 F0.015
G01 G40 X11.5000 Y0.0000
 
G01 G41 X11.5000 Y1.0970 F0.015
G03 X11.5000 Y1.0970 J-1.0970 F0.015 
G01 G40 X11.5000 Y0.0000 
 
G01 G41 X11.5000 Y1.0970 F0.026
G03.1 X11.5000 Y0.8070 Z6.8100 J-1.0970 P48 F0.015 
G01 G40 X11.5000 Y0.0000 

G0 Z15.0000
G49 G69
M9
M5
G91 G28 Z0 (1 - HOME Z)
G91 G28 X0 (2 - HOME X)
G91 G28 Y0 (3 - HOME Y)
G90
M01
(M00)


N36
(OPERATION: ROUGH - 2-1/16" API VR THREAD VGS2.7.29)
(COMMENT: MILLING - ROUGH TAPER PROFILE 2-1/16" API VR THREAD VGS2.7.29)
(B AXIS ANGLE: 90.0 DEGREES)
(TOOL ID: TD10029 - TOOL DIAMETER: 25MM)
(TOOL COMMENT: SQUARE SHOUDER MILL D25MM)
T022.01 M6
G91 G28 Z0 (Z TO SAFETY)
G91 G28 X0 (2 - HOME X)
G91 G28 Y0 (3 - HOME Y)
G90
G55 G64
(**************************)
(* G55 WORK-OFFSET ACTIVE *)
(**************************)
G17 M200 M212 (MILLING MODE)
G10.9 X0 (RADIUS MODE)
G97 S1320 M3
M108 (UNCLAMP B AXIS)
G0 B90.
M107 (CLAMP B AXIS)
M212 (UNCLAMP C AXIS)
G0 C180.
M210 (CLAMP C AXIS)
G68 X0. Y0. Z0. I0. J1. K0. R90.
G0 Y0.0000 Z20.
G0 X11.5000 Y0.0000 Z15.0000
G0 Z12.0000
M8    M51
G95 
G0 Z8.0000
G01 Z7.5400 F0.300
 
G01 G41 X11.5000 Y1.0970 F0.026
G03.1 X11.5000 Y1.0970 Z7.1000 J-1.0970 P44 F0.015 
G01 G40 X11.5000 Y0.0000 
 
G01 G41 X11.5000 Y1.0970 F0.015
G03 X11.5000 Y1.0970 J-1.0970 F0.015 
G01 G40 X11.5000 Y0.0000 
 
G01 G41 X11.5000 Y1.0970 F0.026
G03.1 X11.5000 Y0.8070 Z6.8100 J-1.0970 P48 F0.015 
G01 G40 X11.5000 Y0.0000 

G0 Z8.0000
G0 Z15.0000
G49 G69
M9
M5
G91 G28 Z0 (1 - HOME Z)
G91 G28 X0 (2 - HOME X)
G91 G28 Y0 (3 - HOME Y)
G90
M00
M00

N37
(OPERATION: 2-1/16" API VR THREAD 11.5TPI VGS2.7.29)
(COMMENT: THREADING - 2-1/16" API VR THREAD 11.5TPI VGS2.7.29)
(B AXIS ANGLE: 90.0 DEGREES)
(TOOL ID: TD10024 - TOOL DIAMETER: 51.9MM)
(TOOL COMMENT: BORING BAR THREAD E3416 584 40120 + 266RKF-40-16 + 266RL-16NT01C115M 1135)
T040.01 M6
(T031.01) (TOOL ON HOLD)
G91 G28 Z0 (Z TO SAFETY)
G91 G28 X0 (2 - HOME X)
G91 G28 Y0 (3 - HOME Y)
G90
G55 G64
(**************************)
(* G55 WORK-OFFSET ACTIVE *)
(**************************)
G17 M200 M212 (MILLING MODE)
G10.9 X0 (RADIUS MODE)
G97 S1240 M3
M108 (UNCLAMP B AXIS)
G0 B90.
M107 (CLAMP B AXIS)
M212 (UNCLAMP C AXIS)
G0 C0.
M210 (CLAMP C AXIS)
G68 X0. Y0. Z0. I0. J1. K0. R90.
G0 Y0.0000 Z20.0
G0 X11.5000 Y0.0000 Z15.0000
G0 Z12.0000
G95
M8  M51
G0 Z8.0000
G01 Z7.5869 F0.300 
G01 G42 X11.5000 Y0.955 F0.0035
G02.1 X11.5000 Y0.8842 Z5.3275 J-0.955 P26 
G1 G40 X11.5000 Y0.0000
G0 Z8.0000 M9
G0 Z15.0000 M5
G49 G69
M9
M5
G91 G28 Z0 (1 - HOME Z)
G91 G28 X0 (2 - HOME X)
G91 G28 Y0 (3 - HOME Y)
G90
M0


N38
(OPERATION: 2-1/16" API VR THREAD VGS2.7.29)
(COMMENT: THREADING - 2-1/16" API VR THREAD VGS2.7.29)
(B AXIS ANGLE: 90.0 DEGREES)
(TOOL ID: TD10024 - TOOL DIAMETER: 51.9MM)
(TOOL COMMENT: BORING BAR THREAD E3416 584 40120 + 266RKF-40-16 + 266RL-16NT01C115M 1135)
T040.01 M6
G91 G28 Z0 (Z TO SAFETY)
G91 G28 X0 (2 - HOME X)
G91 G28 Y0 (3 - HOME Y)
G90
G55 G64
(**************************)
(* G55 WORK-OFFSET ACTIVE *)
(**************************)
G17 M200 M212 (MILLING MODE)
G10.9 X0 (RADIUS MODE)
G97 S1240 M3
M108 (UNCLAMP B AXIS)
G0 B90.
M107 (CLAMP B AXIS)
M212 (UNCLAMP C AXIS)
G0 C180.
M210 (CLAMP C AXIS)
G68 X0. Y0. Z0. I0. J1. K0. R90.
G0 Y0.0000 Z20.0
G0 X11.5000 Y0.0000 Z15.0000
G0 Z12.0000
G95 M8  M51
G0 Z8.0000
G01 Z7.5869 F0.300 
G01 G42 X11.5000 Y0.955 F0.0035
G02.1 X11.5000 Y0.8842 Z5.3275 J-0.955 P26 
G1 G40 X11.5000 Y0.0000
G0 Z15.0000 M5
G49 G69
M9
M5
G91 G28 Z0 (1 - HOME Z)
G91 G28 X0 (2 - HOME X)
G91 G28 Y0 (3 - HOME Y)
G90
M0
M00


N39
(USE TOOL KYOCERA R24)
(CHANGE TOOL MANUALY )

(OPERATION: R-24 RING GROOVE VGS2.8.6)
(COMMENT: MILLING - R-24 RING GROOVE VGS2.8.6)
(B AXIS ANGLE: 90.0 DEGREES)
(TOOL ID: TD1XXXX - TOOL DIAMETER: KYOCERA R24)
(TOOL COMMENT: SPIRO GROVING SET KYOCERA R24)
T031.01 M6
(T024.01) (TOOL ON HOLD)
G91 G28 Z0 (Z TO SAFETY)
G91 G28 X0 (2 - HOME X)
G91 G28 Y0 (3 - HOME Y)
G90
G55 G64
(**************************)
(* G55 WORK-OFFSET ACTIVE *)
(**************************)
G17 M200 M212 (MILLING MODE)
G10.9 X0 (RADIUS MODE)
G97 S400 M3
M108 (UNCLAMP B AXIS)
G0 B90.
M107 (CLAMP B AXIS)
M212 (UNCLAMP C AXIS)
G0 C0.
M210 (CLAMP C AXIS)
G68 X0. Y0. Z0. I0. J1. K0. R90.
G0 Y0.0000 Z20.
G0 X11.5000 Y0.0000 Z15.0000
G0 Z12.0000
G95
M8 
G0 Z8.0000
G01 Z7.5100 F0.025
G01 G91 Y0.0420 F0.005
G03 J-0.0420 Z-0.0200 
G03 J-0.0420 Z-0.0200 
G03 J-0.0420 Z-0.0200 
G03 J-0.0420 Z-0.0200 
G03 J-0.0420 Z-0.0200 
G03 J-0.0420 Z-0.0200 
G03 J-0.0420 Z-0.0200 
G03 J-0.0420 Z-0.0200 
G03 J-0.0420 Z-0.0200 
G03 J-0.0420 Z-0.0200 
G03 J-0.0420 Z-0.0200 
G03 J-0.0420 Z-0.0200 F0.004 
G03 J-0.0420 Z-0.0200 
G03 J-0.0420 Z-0.0200 
G03 J-0.0420 Z-0.0200 
G03 J-0.0420 Z-0.0100 F0.002 
G03 J-0.0420 Z-0.0100 
(G04 X2.) 
M3 S455 
G03 J-0.0420 Z-0.0050 F0.0005
G03 J-0.0420 Z-0.0050 F0.0004
M3 S550
G03 J-0.0420  
G03 J-0.0420  
G01 G90 Z7.500 F0.250
G0 Z8.0000 M9
G0 Z15.0000
G49 G69
M9
M5
G91 G28 Z0 (1 - HOME Z)
G91 G28 X0 (2 - HOME X)
G91 G28 Y0 (3 - HOME Y)
G90
M0

(-----------------------------------------)
(R-24   2ND  C180.0)


N40
(OPERATION: R-24 RING GROOVE VGS2.8.6)

(COMMENT: MILLING - R-24 RING GROOVE VGS2.8.6)
(B AXIS ANGLE: 90.0 DEGREES)
(TOOL ID: TD1XXXX - TOOL DIAMETER: KYOCERA R24)
(TOOL COMMENT: SPIRO GROVING SET KYOCERA R24)
T031.01 M6
G91 G28 Z0 (Z TO SAFETY)
G91 G28 X0 (2 - HOME X)
G91 G28 Y0 (3 - HOME Y)
G90
G55 G64
(**************************)
(* G55 WORK-OFFSET ACTIVE *)
(**************************)
G17 M200 M212 (MILLING MODE)
G10.9 X0 (RADIUS MODE)
G97 S400 M3
M108 (UNCLAMP B AXIS)
G0 B90.
M107 (CLAMP B AXIS)
M212 (UNCLAMP C AXIS)
G0 C180.
M210 (CLAMP C AXIS)
G68 X0. Y0. Z0. I0. J1. K0. R90.
G0 Y0.0000 Z20.
G0 X11.5000 Y0.0000 Z15.0000
G0 Z12.0000
G95
M8
G0 Z8.0000
G01 Z7.5100 F0.025
G01 G91 Y0.0420 F0.005
G03 J-0.0420 Z-0.0200 
G03 J-0.0420 Z-0.0200 
G03 J-0.0420 Z-0.0200 
G03 J-0.0420 Z-0.0200 
G03 J-0.0420 Z-0.0200 
G03 J-0.0420 Z-0.0200 
G03 J-0.0420 Z-0.0200 
G03 J-0.0420 Z-0.0200 
G03 J-0.0420 Z-0.0200 
G03 J-0.0420 Z-0.0200 
