(BAKER OFSE - DRILLING&PRODUCTION)
(MACHINE:MAZAK INTEGREX E-1060V/8 II)
(CNC CONTROL :MAZATROL MATRIX)
(PROGRAM:304085)
(EQUIPMENT ID:MZK)
(APLICATION CODE:0)
(DESCRIPTION:TUBING HEAD PART, BODY, CWCTA-EBS, 9-5/8, 13-5/8  3M X 11 5M)
(PART NUMBER:AA1646962)
(PART NUMBER REVIEW:004)
(PART INFO:AABM89785)
(PART INFO REVIEW:001)
(OPERATION:MACHINING F1)
(SET UP:1)
(PROGRAMMER:AMMAMUTHU)
(****************************************)
(*************** SET JAWS ***************)
(****************************************)
(******* MAIN CHUCK: XXXXXXXXXXXX *******)
(****************************************)
G20 G23 G40 G64 G80
M140 M200 M210
(****************************************)

(**** PARAMETER WORK-OFFSET IN XYZBC ****)
(****************************************)
#900=-52.5591         (****-52.5591)  (*** X [INCH]    ***)
#901=-20.8661         (****-20.8661)  (*** Y [INCH]    ***)
#902=-24.108 (-24.106) (****Z [INCH]   ***)
#903=0.000            (*** B [ANGLE] ***)
#904=6.967 (7.203)     (*** C [ANGLE] ***)
(***************************)

(**** DEFINE G54 TO G59 ****)
(***************************)
G90 G10 L2 P0 X0. Y0. Z0. B0. C0.
G90 G10 L2 P1 X#900 Y#901 Z#902 B#903 C#904 (P1 - G54)
G90 G10 L2 P2 X#900 Y#901 Z#902 B#903 C#904 (P2 - G55)
G90 G10 L2 P3 X#900 Y#901 Z#902 B#903 C#904 (P3 - G56)
G90 G10 L2 P4 X#900 Y#901 Z#902 B#903 C#904 (P4 - G57)
G90 G10 L2 P5 X#900 Y#901 Z#902 B#903 C#904 (P5 - G58)
G90 G10 L2 P6 X#900 Y#901 Z#902 B#903 C#904 (P6 - G59)
(****************************************************)
(* ATENTION !!!! - MACHINE WILL BE TO HOME POSITION *)
(****** HOLD ON XYZ - CONFIRM WITH CYCLE START ******)
(****************************************************)


G91 G28 Z0 (1 - HOME Z)
G91 G28 X0 (2 - HOME X)
G91 G28 Y0 (3 - HOME Y)
G90
M00
M00


N1
(OPERATION: ROUGH OUT FACE)
(COMMENTS: TURNING - ROUGH TOP FACE 0.0125" STOCK)
((DCLNL 3232P 16  W/ CNMG160616 - M5 TP3500  INSERT)
(B AXIS ANGLE: 0.0 DEGREES)
(TOOL ID: TD20023 - INSERT RADIUS: .1 MM)
(TOOL COMMENT: C8-DCLNL-55080-19 / CNMM 19 06 16 - MP9015)
T09.61 M6
T002.61 (TOOL ON HOLD)
G91 G28 Z0 (Z TO SAFETY)
G90
G54 G64
(***************************)
(* G54 WORK OFFSET *)
(***************************)
M108 (UNCLAMP B AXIS)
G0 B0.
M107 (CLAMP B AXIS)
G0 Y0.0000
G18 M202 (TURNING MODE)
G10.9 X1 (DIAMETER MODE)
G92 S150
G96 S550 M203
G0 X22.6888 Z0.2337
M8
G95 M51
G1 Z0.1497 F0.012
G1 X10.2212
G0 Z0.1937
G0 X22.7654
G1 Z0.1113
G1 X10.2212
G0 Z0.1953
G0 X22.8202 Z0.168
G1 Z0.084
G1 X22.6202
G1 X22.598 Z0.073
G1 X10.2212
G0 Z0.1937
G0 X24.0000
G49
M9
M205
G91 G28 Z0 (1 - HOME Z)
G91 G28 X0 (2 - HOME X)
G91 G28 Y0 (3 - HOME Y)
G90
M0

N2
(OPERATION: ROUGH ID PROFILE D0 060 STOCK)
(COMMENTS: TURNING - ROUGH ID PROFILE D0.060 STOCK)
(B AXIS ANGLE: 0.0 DEGREES)
(TOOL ID: TD20023 - INSERT RADIUS: 1.6 MM)
(TOOL COMMENT: C8-DCLNL-55080-19 / CNMM 19 06 16 - MP9015)
T09.61 M6

G91 G28 Z0 (Z FOR SAFETY)
G90
G54 G64
(***************************)
(* G54 WORK OFFSET *)
(***************************)
M108 (UNCLAMP B AXIS)
G0 B0.
M107 (CLAMP B AXIS)
G0 Y0.
G18 M202 (TURNING MODE)
G10.9 X1 (DIAMETER MODE)
G92 S200
G96 S360 M204
G0 X-9. Z1.9685
G0 Z-7.7196
G0 X-9.7078
M8
G95 M51
G1 X-10.1018 F0.016
G1 Z-8.1616
G0 X-9.842
G0 Z0.1622
G1 X-10.3296
G1 Z-8.0477
G1 X-10.1018 Z-8.1616
G0 X-9.842
G0 Z0.173
G1 X-10.5574
G1 Z-6.7854
G1 X-10.5026 Z-7.1132
G3 X-10.502 Z-7.121 I-0.0927 K-0.0078
G1 Z-7.9615
G1 X-10.3296 Z-8.0477
G0 X-10.0696
G0 Z0.173
G1 X-10.785
G1 Z-0.0227
G3 X-10.704 Z-0.16 I-0.2125 K-0.1373
G1 Z-0.4624
G1 X-10.689 Z-2.7479
G1 Z-5.9952
G1 X-10.5574 Z-6.7854
G0 X-10.2974
G0 Z0.173
G1 X-11.0128
G1 Z0.073
G3 X-10.785 Z-0.0227 I-0.0986 K-0.233
G0 X-9.
G0 Z1.9685
G49
M9
M205
G91 G28 Z0 (1 - HOME Z)
G91 G28 X0 (2 - HOME X)
G91 G28 Y0 (3 - HOME Y)
G90
M0

N3
(OPERATION: ROUGH ID BORE DIAM G D11.062)
(COMMENTS: TURNING - ROUGH ID BORE DIAM G=D11.062" D0.060" STOCK)
(B AXIS ANGLE: 0.0 DEGREES)
(TOOL ID: TD20024 - INSERT RADIUS: .8 MM)
(TOOL COMMENT: C8-DDUNL-55080-15 / DNMM 150612-PR 4225)

T06.61 M6
(T017.01) (TOOL ON HOLD)
G91 G28 Z0 (Z FOR SAFETY)
G90
G54 G64
(***************************)
(* G54 WORK OFFSET *)
(***************************)
M108 (UNCLAMP B AXIS)
G0 B0.
M107 (CLAMP B AXIS)
G0 Y0.
G18 M202 (TURNING MODE)
G10.9 X1 (DIAMETER MODE)
G92 S200
G96 S350 M204
G0 X-9. (Z1.9685) Z0.300
G0 Z-0.5225
G0 X-10.5146
M8
G95 M51
G1 X-10.7666 F0.015
G1 X-10.8164 Z-0.5623
G1 X-10.8458 Z-0.6028
G1 Z-2.5872
G1 X-10.7864 Z-2.6689
G0 X-10.6544
G0 Z-0.6028
G1 X-10.8458
G1 X-10.9058 Z-0.6852
G1 Z-0.7452
G1 X-10.7738
G0 Z-0.6852
G1 X-10.9058
G1 X-10.939 Z-0.7308
G1 Z-2.4592
G1 X-10.8458 Z-2.5872
G0 X-9.
G0 (Z1.9685) Z0.300
G49
M9
M205
G91 G28 Z0 (1 - HOME Z)
G91 G28 X0 (2 - HOME X)
G91 G28 Y0 (3 - HOME Y)
G90
M0

N4
(OPERATION: ROUGH ID RELIEF DIAM H D10 980)
(COMMENTS: TURNING - ROUGH ID RELIEF DIAM. H=D10.980" D0.060" STO)
(B AXIS ANGLE: 0.0 DEGREES)
(TOOL ID: TD20024 - INSERT RADIUS: .8 MM)
(TOOL COMMENT: C8-DDUNL-55080-15 / DNMM 150612-PR 4225)

T06.61 M6
(T010.01) (NEXT TOOL)
G91 G28 Z0 (Z FOR SAFETY)
G90
G54 G64
(***************************)
(* G54 WORK OFFSET *)
(***************************)
M108 (UNCLAMP B AXIS)
G0 B0.
M107 (CLAMP B AXIS)
G0 Y0.
G18 M202 (TURNING MODE)
G10.9 X1 (DIAMETER MODE)
G92 S200
G96 S350 M204
G0 X-9. (Z1.9685) Z0.300
G0 Z-4.039
G0 X-10.5
M8
G95 M51
G1 X-10.752 F0.015
G1 X-10.797 Z-4.075
G1 Z-4.135
G1 X-10.665
G0 Z-4.075
G1 X-10.797
G1 X-10.857 Z-4.123
G1 Z-4.3449
G1 X-10.7864 Z-4.4419
G0 X-10.6544
G0 X-10.5 Z-4.039
G1 X-10.752
G1 X-10.797 Z-4.075
G1 Z-4.135
G1 X-10.665
G0 Z-4.075
G1 X-10.797
G1 X-10.857 Z-4.123
G1 Z-4.3449
G1 X-10.7864 Z-4.4419
G0 X-9.
G0 (Z1.9685) Z0.300
G49
M9
M205
G91 G28 Z0 (1 - HOME Z)
G91 G28 X0 (2 - HOME X)
G91 G28 Y0 (3 - HOME Y)
G90
M0

N5
(OPERATION: ROUGH GROOVE R 54 0 030 STOCK)
(COMMENTS: TURNING - ROUGH R-54 RING GROVE)
(B AXIS ANGLE: 0.0 DEGREES)
(TOOL ID: TD20025 - INSERT RADIUS: .8 MM)
(TOOL COMMENT: DVVNN3232 P16 / VNMG 160408-MS MP9015)

T017.01 M6
(T006.61) (TOOL ON HOLD)
G91 G28 Z0 (Z FOR SAFETY)
G90
G54 G64
(***************************)
(* G54 WORK OFFSET *)
(***************************)
M108 (UNCLAMP B AXIS)
G0 B0.
M107 (CLAMP B AXIS)
G0 Y0.
G18 M202 (TURNING MODE)
G10.9 X1 (DIAMETER MODE)
G92 S200
G96 S360 M203
G0 X24. Z1.9685
G0 X13.286
G0 Z0.1675
M8
G95 M51
G1 Z0.0415 F0.006
G1 X13.271 Z0.0177
G1 X13.151
G1 Z0.0837
G0 X13.271
G1 Z0.0177
G1 X13.252 Z-0.0123
G1 X12.238
G1 X12.2228 Z0.0058
G1 X12.2002 Z0.0415
G0 Z0.1075
G0 X13.252
G1 Z-0.0123
G1 X13.2332 Z-0.0423
G1 X13.1132
G1 Z0.0237
G0 X13.2332
G1 Z-0.0423
G1 X13.2234 Z-0.0577
G1 X13.2164 Z-0.066
G1 X12.2836
G1 X12.238 Z-0.0123
G0 Z0.0537
G0 X13.2164
G1 Z-0.066
G1 X13.1908 Z-0.096
G1 X13.0708
G1 Z-0.03
G0 X13.1908
G1 Z-0.096
G1 X13.1708 Z-0.1198
G1 X12.3292
G1 X12.2836 Z-0.066
G0 Z0.
G0 X13.1708
G1 Z-0.1198
G1 X13.1452 Z-0.1498
G1 X13.0252
G1 Z-0.0838
G0 X13.1452
G1 Z-0.1498
G1 X13.125 Z-0.1735
G1 X12.375
G1 X12.3292 Z-0.1198
G0 Z-0.0538
G0 X13.125
G1 Z-0.1735
G1 X13.0996 Z-0.2035
G1 X12.9796
G1 Z-0.1375
G0 X13.0996
G1 Z-0.2035
G1 X13.0794 Z-0.2273
G1 X12.4206
G1 X12.375 Z-0.1735
G0 Z-0.1075
G0 X13.0794
G1 Z-0.2273
G1 X13.054 Z-0.2573
G1 X12.934
G1 Z-0.1913
G0 X13.054
G1 Z-0.2573
G1 X13.0338 Z-0.281
G1 X12.4662
G1 X12.4206 Z-0.2273
G0 Z-0.1613
G0 X13.0338
G1 Z-0.281
G1 X13.0084 Z-0.311
G1 X12.8884
G1 Z-0.245
G0 X13.0084
G1 Z-0.311
G1 X12.9882 Z-0.3348
G1 X12.5118
G1 X12.4662 Z-0.281
G0 Z-0.215
G0 X12.9882
G1 Z-0.3348
G1 X12.9628 Z-0.3648
G1 X12.8428
G1 Z-0.2988
G0 X12.9628
G1 Z-0.3648
G1 X12.9426 Z-0.3885
G1 X12.5574
G1 X12.5118 Z-0.3348
G0 Z1.9685
G0 X24.
G49
M9
M205
G91 G28 Z0 (1 - HOME Z)
G91 G28 X0 (2 - HOME X)
G91 G28 Y0 (3 - HOME Y)
G90
M0

N6
(OPERATION: FINISH TOP FACE)
(COMMENTS: TURNING - FINISH TOP FACE)
(B AXIS ANGLE: 0.0 DEGREES)
(TOOL ID: TD20026 - INSERT RADIUS: .8 MM)
(TOOL COMMENT: C8-DDUNL-55080-15 / DNMM 15 06 08-PM 4225)

T006.61 M6
G91 G28 Z0 (Z FOR SAFETY)
G90
G54 G64
(***************************)
(* G54 WORK OFFSET *)
(***************************)
M108 (UNCLAMP B AXIS)
G0 B0.
M107 (CLAMP B AXIS)
G0 Y0.
G18 M202 (TURNING MODE)
G10.9 X1 (DIAMETER MODE)
G92 S200
G96 S300 M203
G0 X24. Z0.100
G0 X22.81
G0 Z0.1315
M8
G95 M51
G1 G41 Z0. F0.006
G1 X10.71
G1 G40 Z0.1315
G0 Z0.3585
G0 X24.
G49
M9
M205
G91 G28 Z0 (1 - HOME Z)
G91 G28 X0 (2 - HOME X)
G91 G28 Y0 (3 - HOME Y)
G90
M0

N7
(OPERATION: SEMI FINISH ID D10 890 D0 030 ST)
(COMMENTS: TURNING - SEMI FINISH ID DIAM. A=D10.890" 0.030" STOCK)
(B AXIS ANGLE: 0.0 DEGREES)
(TOOL ID: TD20026 - INSERT RADIUS: .8 MM)
(TOOL COMMENT: C8-DDUNL-55080-15 / DNMM 15 06 08-PM 4225)

T006.61 M6
G91 G28 Z0 (Z FOR SAFETY)
G90
G54 G64
(***************************)
(* G54 WORK OFFSET *)
(***************************)
M108 (UNCLAMP B AXIS)
G0 B0.
M107 (CLAMP B AXIS)
G0 Y0.
G18 M202 (TURNING MODE)
G10.9 X1 (DIAMETER MODE)
G92 S200
G96 S420 M204
G0 X-9. (Z1.9685) Z0.300
G0 X-11.18
G0 Z0.1315
M8
G95 M51
G1 G42 Z0. F0.005
G3 X-10.86 Z-0.16 I0. K-0.16
G1 Z-0.4626
G3 X-10.8744 Z-0.5036 I-0.12 K0.
G1 X-11.032 Z-0.72
G1 Z-2.47
G1 X-10.8594 Z-2.707
G3 X-10.845 Z-2.748 I-0.1128 K-0.041
G1 G40 X-10.582
G0 (Z1.9685) Z0.300
G0 X-9.
G49
M9
M205
G91 G28 Z0 (1 - HOME Z)
G91 G28 X0 (2 - HOME X)
G91 G28 Y0 (3 - HOME Y)
G90
M0

N8
(OPERATION: FINISH ID DIAM A D10.890)
(COMMENTS: TURNING - FINISH ID DIAM. A=D10.890"+-0.005")
(B AXIS ANGLE: 0.0 DEGREES)
(TOOL ID: TD20026 - INSERT RADIUS: .8 MM)
(TOOL COMMENT: C8-DDUNL-55080-15 / DNMM 15 06 08-PM 4225)

T006.61 M6
G91 G28 Z0 (Z FOR SAFETY)
G90
G54 G64
(***************************)
(* G54 WORK OFFSET *)
(***************************)
M108 (UNCLAMP B AXIS)
G0 B0.
M107 (CLAMP B AXIS)
G0 Y0.
G18 M202 (TURNING MODE)
G10.9 X1 (DIAMETER MODE)
G92 S200
G96 S450 M204
G0 X24. (Z1.9685) Z0.300
G0 X-11.21
G0 Z0.1315
M8
G95 M51
G1 G42 Z0. F0.005
G3 X-10.89 Z-0.16 I0. K-0.16
G1 Z-0.4626
G3 X-10.9044 Z-0.5036 I-0.12 K0.
G1 X-11.062 Z-0.72
G1 Z-2.47
G1 X-10.8894 Z-2.707
G3 X-10.875 Z-2.748 I-0.1128 K-0.041
G1 G40 X-10.612
G0 X-9.
G0 (Z1.9685)Z0.300
G49
M9
M205
G91 G28 Z0 (1 - HOME Z)
G91 G28 X0 (2 - HOME X)
G91 G28 Y0 (3 - HOME Y)
G90
M0
M00

N9
(OPERATION: PRE FINISH ID DIAM B D10 875)
(COMMENTS: TURNING - SEMI FINISH ID DIAM. B=D10.875"+-0.003")
(B AXIS ANGLE: 0.0 DEGREES)
(TOOL ID: TD20026 - INSERT RADIUS: .8 MM)
(TOOL COMMENT: C8-DDUNL-55080-15 / DNMM 15 06 08-PM 4225)

T006.61 M6
G91 G28 Z0 (Z FOR SAFETY)
G90
G54 G64
(***************************)
(* G54 WORK OFFSET *)
(***************************)
M108 (UNCLAMP B AXIS)
G0 B0.
M107 (CLAMP B AXIS)
G0 Y0.
G18 M202 (TURNING MODE)
G10.9 X1 (DIAMETER MODE)
G92 S200
G96 S450 M204
G0 X-9. (Z1.9685) Z0.300
G0 Z-2.5773
G0 X-10.6406
M8
G95 M51
G1 G42 X-10.845 Z-2.648 F0.005
G1 Z-3.9759
G3 X-10.8692 Z-4.0209 I-0.09 K0.
G1 X-10.95 Z-4.0909
G1 Z-4.3558
G1 X-10.8558 Z-4.4851
G3 X-10.845 Z-4.5159 I-0.0846 K-0.0308
G1 Z-5.999
G1 X-10.6582 Z-7.1203
G3 X-10.658 Z-7.1216 I-0.0149 K-0.0013
G1 Z-8.
G1 X-9.8992 Z-8.3794
G1 G40 X-9.7134 Z-8.2864
G0 X-9.
G0 (Z1.9685) Z0.300
G49
M9
M205
G91 G28 Z0 (1 - HOME Z)
G91 G28 X0 (2 - HOME X)
G91 G28 Y0 (3 - HOME Y)
G90
M0

N10
(OPERATION: FINISH ID DIAM B D10.875 X PD)
(COMMENTS: TURNING - FINISH ID DIAM. B=D10.875"+-0.003")
(B AXIS ANGLE: 0.0 DEGREES)
(TOOL ID: TD20026 - INSERT RADIUS: .8 MM)
(TOOL COMMENT: C8-DDUNL-55080-15 / DNMM 15 06 08-PM 4225)
T006.61 M6

G91 G28 Z0 (Z FOR SAFETY)
G90
G54 G64
(***************************)
(* G54 WORK OFFSET *)
(***************************)
M108 (UNCLAMP B AXIS)
G0 B0.
M107 (CLAMP B AXIS)
G0 Y0.
G18 M202 (TURNING MODE)
G10.9 X1 (DIAMETER MODE)
G92 S200
G96 S450 M204
G0 X-9. (Z1.9685) Z0.300
G0 Z-2.5773
G0 X-10.6706
M8
G95 M51
G1 G42 X-10.875 Z-2.648 F0.005
G1 Z-3.9759
G3 X-10.8992 Z-4.0209 I-0.09 K0.
G1 X-10.98 Z-4.0909
G1 Z-4.3558
G1 X-10.8858 Z-4.4851
G3 X-10.875 Z-4.5159 I-0.0846 K-0.0308
G1 Z-5.999
G1 X-10.6882 Z-7.1203
G3 X-10.688 Z-7.1216 I-0.0149 K-0.0013
G1 Z-8.
G1 X-9.9292 Z-8.3794
G1 G40 X-9.7434 Z-8.2864
G0 X-9.
G0 (Z1.9685) Z0.300
G49
M9
M205
G91 G28 Z0 (1 - HOME Z)
G91 G28 X0 (2 - HOME X)
G91 G28 Y0 (3 - HOME Y)
G90
M0
M00

(----------------------------------------)
(SEMI FINISH OD R-54 RING GROOVE)
(----------------------------------------)

N11
(OPERATION: SEMI FINISH OD R-54 RING GROVE)
(COMMENTS: TURNING - SEMI FINISH OD R-54 RING GROVE)
(B AXIS ANGLE: 0.0 DEGREES)
(TOOL ID: TD20025 - INSERT RADIUS: .8 MM)
(TOOL COMMENT: DVVNN3232 P16 / VNMG 160408-MS MP9015)

T017.01 M6
(T007.01) (TOOL ON HOLD)
G91 G28 Z0 (Z FOR SAFETY)
G90
G54 G64
(***************************)
(* G54 WORK OFFSET *)
(***************************)
M108 (UNCLAMP B AXIS)
G0 B0.
M107 (CLAMP B AXIS)
G0 Y0.
G18 M202 (TURNING MODE)
G10.9 X1 (DIAMETER MODE)
G92 S200
G96 S450 M203
G0 X24. Z1.9685
G0 X13.446
G0 Z0.1465
M8
G95 M51
G1 G41 Z0.015 F0.004
G1 X13.4192
G2 X13.3732 Z-0.0002 I0. K-0.025
G1 X13.0274 Z-0.4076
G3 X12.9446 Z-0.435 I-0.0414 K0.0176
G1 X12.6768
G1 G40 Z-0.3035
G0 Z1.9685
G0 X24.
G49
M9
M205
G91 G28 Z0 (1 - HOME Z)
G91 G28 X0 (2 - HOME X)
G91 G28 Y0 (3 - HOME Y)
G90
M01

(--------------------------------------)
(SEMI FINISH ID R-54 RING GROOVE)
(--------------------------------------)

N12
(OPERATION: SEMI FINISH ID R 54 RING GROVE)
(COMMENTS: TURNING - SEMI FINISH ID R-54 RING GROVE)
(B AXIS ANGLE: 0.0 DEGREES)
(TOOL ID: TD20025 - INSERT RADIUS: .8 MM)
(TOOL COMMENT: DVVNN3232 P16 / VNMG 160408-MS MP9015)
T017.02 M6

G91 G28 Z0 (Z FOR SAFETY)
G90
G54 G64
(***************************)
(* G54 WORK OFFSET *)
(***************************)
M108 (UNCLAMP B AXIS)
G0 B0.
M107 (CLAMP B AXIS)
G0 Y0.
G18 M202 (TURNING MODE)
G10.9 X1 (DIAMETER MODE)
G92 S200
G96 S450 M203
G0 X24. Z1.9685
G0 X12.054
G0 Z0.1465
M8
G95 M51
G1 G42 Z0.015 F0.004
G1 X12.0808
G3 X12.1268 Z-0.0002 I0. K-0.025
G1 X12.4726 Z-0.4076
G2 X12.5554 Z-0.435 I0.0414 K0.0176
G1 X12.7832
G1 G40 Z-0.3035
G0 Z1.9685
G0 X24.
G49
M9
M205
G91 G28 Z0 (1 - HOME Z)
G91 G28 X0 (2 - HOME X)
G91 G28 Y0 (3 - HOME Y)
G90
M0

(*** MEASURE DEEP 0.435 ***)
(*** MEASURE OD -0.XXXX ***)
(*** MEASURE ID +0.XXXX ***)

(------------------------------------)
(FINISH OD R-54 RING GROOVE)
(------------------------------------)

N13
(OPERATION: FINISH OD R-54 RING GROVE)
(COMMENTS: TURNING - FINISH OD R-54 RING GROVE)
(B AXIS ANGLE: 0.0 DEGREES)
(TOOL ID: TD20025 - INSERT RADIUS: .8 MM)
(TOOL COMMENT: DVVNN3232 P16 / VNMG 160408-MS MP9015)
T017.01 M6
G91 G28 Z0 (Z FOR SAFETY)
G90
G54 G64
(***************************)
(* G54 WORK OFFSET *)
(***************************)
M108 (UNCLAMP B AXIS)
G0 B0.
M107 (CLAMP B AXIS)
G0 Y0.
G18 M202 (TURNING MODE)
G10.9 X1 (DIAMETER MODE)
G92 S200
G96 S320 M203

G0 X24. Z1.9685
G0 X13.446
G0 Z0.1315
M8
G95 M51
G1 G41 Z0. F0.003
G1 X13.4192
G2 X13.4008 Z-0.0061 I0. K-0.01
G1 X13.055 Z-0.4134
G3 X12.9446 Z-0.45 I-0.0552 K0.0234
G1 X12.6768
G1 G40 Z-0.3185
G0 Z1.9685
G0 X24.
G49
M9
M205
G91 G28 Z0 (1 - HOME Z)
G91 G28 X0 (2 - HOME X)
G91 G28 Y0 (3 - HOME Y)
G90
M01

(-------------------------------------)
(FINISH ID R-54 RING GROOVE)
(-------------------------------------)

N14
(OPERATION: FINISH ID R 54 RING GROOVE)
(COMMENTS: TURNING - FINISH ID R-54 RING GROOVE)
(B AXIS ANGLE: 0.0 DEGREES)
(TOOL ID: TD20025 - INSERT RADIUS: .8 MM)
(TOOL COMMENT: DVVNN3232 P16 / VNMG 160408-MS MP9015)
T017.02 M6
(T029.01) (RELOAD FIRST TOOL)
G91 G28 Z0 (Z FOR SAFETY)
G90
G54 G64
(***************************)
(* G54 WORK OFFSET *)
(***************************)
M108 (UNCLAMP B AXIS)
G0 B0.
M107 (CLAMP B AXIS)
G0 Y0.
G18 M202 (TURNING MODE)
G10.9 X1 (DIAMETER MODE)
G92 S200
G96 S320 M203
G0 X24. Z1.9685
G0 X12.054
G0 Z0.1315
M8
G95 M51
G1 G42 Z0. F0.003
G1 X12.0808
G3 X12.0992 Z-0.0061 I0. K-0.01
G1 X12.445 Z-0.4134
G2 X12.5554 Z-0.45 I0.0552 K0.0234
G1 X12.7832
G1 G40 Z-0.3185
G0 Z1.9685
G0 X24.
G49
M9
M205
G91 G28 Z0 (1 - HOME Z)
G91 G28 X0 (2 - HOME X)
G91 G28 Y0 (3 - HOME Y)
G90
M00


   (**** START MILLING PROCESS ****)
N15
(OPERATION: ROUGH OUTLETS FACE)
(COMMENTS: MILLING - ROUGH OUTLETS FACE DIM. 15.00" 0.030" STOCK)
(B AXIS ANGLE: 90.0 DEGREES)
(TOOL ID: TD10010 - TOOL DIAMETER: 125.0 MM)
(TOOL COMMENT: FACE MILL D125MM/D4.921" 90GR R1.2MM)
T04.61 M6
G91 G28 Z0 (Z TO SAFETY)
G90
G55 G64
(**************************)
(* G55 WORK-OFFSET ACTIVE *)
(**************************)
G17 M200 M212 (MILLING MODE)
G10.9 X0 (RADIUS MODE)
G97 S380 M3
M108 (UNCLAMP B AXIS)
G0 B90.0000
M107 (CLAMP B AXIS)
M212 (UNCLAMP C AXIS)
G0 C0.0000
M210 (CLAMP C AXIS)
G68 X0. Y0. Z0. I0. J1. K0. R90.
G0 Y0.0000
G0 X9.2500 Y-7.350 Z15.0000
G0 Z12.1481 M51
M8
G95
G1 Z8.6944 F0.300
G1 Z8.470 F0.070
G1 Y7.3500
G0 X13.500
G1 Y-7.3500
G0 X17.900 
G1 Y7.3500
G0 Z12.1481
G0 X9.2500 Y-7.3500
G1 Z8.6944 F0.3
G1 Z8.4300 F0.070
G1 Y7.3500
G0 X13.500
G1 Y-7.3500
G0 X17.900 
G1 Y7.3500
G1 Z8.6944 F0.3
G0 Z25.0000
M01

(** ROUGH OUTLETS C180 **)

G0 C180.
G0 X9.250 Y-7.350 Z15.00
G0 Z12.00
G1 Z8.6944 F0.300
G1 Z8.470 F0.070
G1 Y7.3500
G0 X13.500
G1 Y-7.3500
G0 X17.900 
G1 Y7.3500
G0 Z12.1481
G0 X9.2500 Y-7.3500
G1 Z8.6944 F0.3
G1 Z8.4300 F0.070
G1 Y7.3500
G0 X13.500
G1 Y-7.3500
G0 X17.900 
G1 Y7.3500
G1 Z8.6944 F0.3
G0 Z25.0000

G49 G69
M9
M5
G91 G28 Z0 (1 - HOME Z)
G91 G28 X0 (2 - HOME X)
G91 G28 Y0 (3 - HOME Y)
G90
M0
M00

N16
(OPERATION: FINISH OUTLETS FACE DIM. 15.00")
(COMMENTS: MILLING - FINISH OUTLETS FACE DIM. 15.00")
(B AXIS ANGLE: 0.0 DEGREES)
(TOOL ID: TD10010 - TOOL DIAMETER: 125.0 MM)
(TOOL COMMENT: FRESA D125 90GR R3.2 X 16 UTIL [160 TOTAL ])

T010.61 M6
(T006.61) (TOOL ON HOLD)
G91 G28 Z0 (Z TO SAFETY)
G90
G55 G64
(**************************)
(* G55 WORK-OFFSET ACTIVE *)
(**************************)
G17 M200 M212 (MILLING MODE)
G10.9 X0 (RADIUS MODE)
G97 S382 M3
M108 (UNCLAMP B AXIS)
G0 B90.0000
M107 (CLAMP B AXIS)
M212 (UNCLAMP C AXIS)
G0 C0.0000
M210 (CLAMP C AXIS)
G68 X0. Y0. Z0. I0. J1. K0. R90.
G0 Y0.0000
G0 X9.2500 Y-7.3500 Z15.0000
G0 Z12.1181
M8
G95 M51
G1 Z8.6181 F0.300
G1 Z8.410 F0.030
G1 Y7.3500
G0 X13.500
G1 Y-7.3500
G0 X17.900 (X14.2894) 
G1 Y7.3500
G1 Z8.9181 F0.300
G0 Z25.0000




(** FINISH OUTLETS C180 **)

G0 C180.
G0 X9.2500 Y-7.350 
G0 Z12.1181
G1 Z8.6181 F0.3
G1 Z8.410 F0.030
G1 Y7.350
G0 X13.500
G1 Y-7.350
G0 X17.900 (X14.2894)
G1 Y7.350
G1 Z8.6181 F0.3
G0 Z25.0000
G49 G69
M9
M5
G91 G28 Z0 (1 - HOME Z)
G91 G28 X0 (2 - HOME X)
G91 G28 Y0 (3 - HOME Y)
G90
M0

N17
(OPERATION: MARK POINT D1.335 SECTION W-W)
(COMMENTS: CENTER DRILLING - MARK POINT ON D1.335" SECTION W-W)
(B AXIS ANGLE: 90.0 DEGREES)
(TOOL ID: T11012 - TOOL DIAMETER: 8.0 MM)
(TOOL COMMENT: CENTER DRILLING D3MM)
T007.01 M6
G91 G28 Z0 (Z TO SAFETY)
G90
G55 G64
(**************************)
(* G55 WORK-OFFSET ACTIVE *)
(**************************)
G17 M200 M212 (MILLING MODE)
G10.9 X0 (RADIUS MODE)
G97 S1500 M3
M108 (UNCLAMP B AXIS)
G0 B90.0000
M107 (CLAMP B AXIS)
M212 (UNCLAMP C AXIS)
G0 C30.0
M210 (CLAMP C AXIS)
G68 X0. Y0. Z0. I0. J1. K0. R90.
G0 Y0.0000
G0 X1.6250 Y0.0000 Z13.0000
G95 M08
G98 G82 X1.6250 Y0.0000 Z11.485 R11.600 F0.005
X1.6250 Y0.0000 C60.
X1.6250 Y0.0000 C90.
X1.6250 Y0.0000 C120.
X1.6250 Y0.0000 C150.
X1.6250 Y0.0000 C180.
X1.6250 Y0.0000 C210.
X1.6250 Y0.0000 C240.
X1.6250 Y0.0000 C270.
X1.6250 Y0.0000 C300.
X1.6250 Y0.0000 C330.
G80
G0 Z14.0000
M9
G49 G69
M5
G91 G28 Z0 (1 - HOME Z)
G91 G28 X0 (2 - HOME X)
G91 G28 Y0 (3 - HOME Y)
G90
M01


N18
(OPERATION: MARK POINT D0.766" VIEW U-U)
(COMMENTS: CENTER DRILLING - MARK POINT ON D0.766" VIEW U-U)
(B AXIS ANGLE: 90.0 DEGREES)
(TOOL ID: T11012 - TOOL DIAMETER: 8.0 MM)
(TOOL COMMENT: CENTER DRILLING D3MM)
T007.01 M6
G91 G28 Z0 (Z TO SAFETY)
G90
G55 G64
(**************************)
(* G55 WORK-OFFSET ACTIVE *)
(**************************)
G17 M200 M212 (MILLING MODE)
G10.9 X0 (RADIUS MODE)
G97 S1500 M3
M108 (UNCLAMP B AXIS)
G0 B90.0000
M107 (CLAMP B AXIS)
M212 (UNCLAMP C AXIS)
G0 C0.0000
M210 (CLAMP C AXIS)
G68 X0. Y0. Z0. I0. J1. K0. R90.
G0 Y0.0000
G0 X12.2563 Y3.0026 Z12.0000
G95 M08
G98 G82 X12.2563 Y3.0026 Z8.400 R8.6181 F0.005
X10.4974 Y1.2437
Y-1.2437
X12.2563 Y-3.0026
X14.7437
X16.5026 Y-1.2437
Y1.2437
X14.7437 Y3.0026
(* MARK POINT D1.662" SECTION Y-Y *)
X13.5000 Y0.0000
G80
G0 Z24.0000
M01

(** C180 **)
G0 C180.
G0 X12.2563 Y3.0026
G0 Z12.00
G95 M08
G98 G82 X12.2563 Y3.0026 Z8.400 R8.6181 F0.005
X10.4974 Y1.2437
Y-1.2437
X12.2563 Y-3.0026
X14.7437
X16.5026 Y-1.2437
Y1.2437
X14.7437 Y3.0026
(* MARK POINT D1.662" SECTION Y-Y *)
X13.5000 Y0.0000
G80
G0 Z25.0000

G80
G0 Z25.0000 M9
G49 G69
M5
G91 G28 Z0 (1 - HOME Z)
G91 G28 X0 (2 - HOME X)
G91 G28 Y0 (3 - HOME Y)
G90
M0
M00



N19
(OPERATION: STUDDED 7/8"9UNC 2B VGS2.7.48)
(COMMENTS: DRILLING - FLANGE OUTLET 2-1/16" 5M 6B D7/8"-9UNC-2B X 1.37")
(B AXIS ANGLE: 0.0 DEGREES)
(TOOL ID: TD10046 - TOOL DIAMETER: 19.5 MM)
(TOOL COMMENT: U DRILL D19.5MM 3XD)
T026.01 M6
(T011.03) (TOOL ON HOLD)
G91 G28 Z0 (Z TO SAFETY)
G90
G55 G64
(**************************)
(* G55 WORK-OFFSET ACTIVE *)
(**************************)
G17 M200 M212 (MILLING MODE)
G10.9 X0 (RADIUS MODE)
G97 S1960 M3
M108 (UNCLAMP B AXIS)
G0 B90.0000
M107 (CLAMP B AXIS)
M212 (UNCLAMP C AXIS)
G0 C0.0000
M210 (CLAMP C AXIS)
G68 X0. Y0. Z0. I0. J1. K0. R90.
G0 Y0.0000
G0 X12.2563 Y3.0026 Z12.0000
G95 M08 M51
G0 Z8.6181
G98 G83 X12.2563 Y3.0026 Z6.970 R8.6181 D0.200 Q0.200 F0.0032
X10.4974 Y1.2437
Y-1.2437
X12.2563 Y-3.0026
X14.7437
X16.5026 Y-1.2437
Y1.2437
X14.7437 Y3.0026
G80
G0 Z14.5000
G49 G69
M9
M5
G91 G28 Z0 (1 - HOME Z)
G91 G28 X0 (2 - HOME X)
G91 G28 Y0 (3 - HOME Y)
G90
M01

N20
(OPERATION: STUDDED 7/8"9UNC 2B VGS2.7.48)
(COMMENTS: DRILLING - FLANGE OUTLET 2-1/16" 5M 6B D7/8"-9UNC-2B X 1.37")
(B AXIS ANGLE: 0.0 DEGREES)
(TOOL ID: TD10046 - TOOL DIAMETER: 19.5 MM)
(TOOL COMMENT: U DRILL D19.5MM 3XD)
T026.01 M6
(T011.03) (TOOL ON HOLD)
G91 G28 Z0 (Z TO SAFETY)
G90
G55 G64
(**************************)
(* G55 WORK-OFFSET ACTIVE *)
(**************************)
G17 M200 M212 (MILLING MODE)
G10.9 X0 (RADIUS MODE)
G97 S1960 M3
M108 (UNCLAMP B AXIS)
G0 B90.0000
M107 (CLAMP B AXIS)
M212 (UNCLAMP C AXIS)
G0 C180.0
M210 (CLAMP C AXIS)
G68 X0. Y0. Z0. I0. J1. K0. R90.
G0 Y0.0000
G0 X12.2563 Y3.0026 Z12.0000
G95 M08 M51
G0 Z8.6181
G98 G83 X12.2563 Y3.0026 Z6.970 R8.6181 D0.200 Q0.200 F0.0032
X10.4974 Y1.2437
Y-1.2437
X12.2563 Y-3.0026
X14.7437
X16.5026 Y-1.2437
Y1.2437
X14.7437 Y3.0026
G80
G0 Z14.5000
G49 G69
M9
M5
G91 G28 Z0 (1 - HOME Z)
G91 G28 X0 (2 - HOME X)
G91 G28 Y0 (3 - HOME Y)
G90
M01
M0
M00

N21
(OPERATION: BEVEL HOLES TOP FLANGE FACE)
(COMMENT: BEVELING - HOLES TOP FLANGE FACE D1.520")
(B AXIS ANGLE: 0.0 DEGREES)
(TOOL ID: TD10011 - TOOL DIAMETER: 48.5 MM)
(TOOL COMMENT: CHANFER MILL D1.917 X D1.260" X 45 DEGREES)
T011.05 M6
(T020.01) (TOOL ON HOLD)
G91 G28 Z0 (Z TO SAFETY)
G90
G55 G64
(**************************)
(* G55 WORK-OFFSET ACTIVE *)
G17 M200 M212 (MILLING MODE)
G10.9 X0 (RADIUS MODE)
G97 S800 M3
M108 (UNCLAMP B AXIS)
G0 B0.0000
M107 (CLAMP B AXIS)
M212 (UNCLAMP C AXIS)
G0 C15.0
M210 (CLAMP C AXIS)
G0 Y0.0000
G0 X9.50 Y0.0000 Z3.0000
G95 M08
G98 G82 X9.500 Y0.0000 Z-0.935 R0.200 F0.005
X9.500 Y0.0000 C45.
X9.500 Y0.0000 C75.
X9.500 Y0.0000 C105.
X9.500 Y0.0000 C135.
X9.500 Y0.0000 C165.
X9.500 Y0.0000 C195.
X9.500 Y0.0000 C225.
X9.500 Y0.0000 C255.
X9.500 Y0.0000 C285.
X9.500 Y0.0000 C315.
X9.500 Y0.0000 C345.
G80
G0 Z4.0000
M9
G49 G69
M5
G91 G28 Z0 (1 - HOME Z)
G91 G28 X0 (2 - HOME X)
G91 G28 Y0 (3 - HOME Y)
G90
M01
M00
M0 (MANUAL TOOL LOADING)
G91 G28 Z0 (1 - HOME Z)
G91 G28 X0 (2 - HOME X)
G91 G28 Y0 (3 - HOME Y)
G90
M108 (UNCLAMP B AXIS)
G0 B90.
M107 (CLAMP B AXIS)
G0 G91 Y-41.5
Z-27.
M19
M00 (MANUAL TOOL UNLOAD)
M00 (MANUAL NEXT TOOL LOADING & CHANGE TOOL SP.NO)
(**************************)

N22
(OPERATION: BEVEL - 2-1/16" 5M STUDDED FLANGES HOLES)
(COMMENT: BEVELING - STUDDED FLANGES HOLES D7/8"-9UNC-2B)
(B AXIS ANGLE: 90.0 DEGREES)
(TOOL ID: TD10019 - TOOL DIAMETER: 33.0 MM)
(TOOL COMMENT: D33X45G CHAMFER TOOL)
T020.01 M6
(T032.01) (TOOL ON HOLD)
G91 G28 Z0 (Z TO SAFETY)
G90
G55 G64
(**************************)
(* G55 WORK-OFFSET ACTIVE *)
(**************************)
G17 M200 M212 (MILLING MODE)
G10.9 X0 (RADIUS MODE)
G97 S500 M3
M108 (UNCLAMP B AXIS)
G0 B90.
M107 (CLAMP B AXIS)
M212 (UNCLAMP C AXIS)
G0 C0.
M210 (CLAMP C AXIS)
G68 X0. Y0. Z0. I0. J1. K0. R90.
G0 Y0.0000
G0 X12.2563 Y3.0026 
G0 Z12.0000
G95 M08
G98 G82 X12.2563 Y3.0026 Z8.210 R8.6181 F0.003
X10.4974 Y1.2437
Y-1.2437
X12.2563 Y-3.0026
X14.7437
X16.5026 Y-1.2437
Y1.2437
X14.7437 Y3.0026
G80
G0 Z15.0000
G49 G69
M9
M5
G91 G28 Z0 (1 - HOME Z)
G91 G28 X0 (2 - HOME X)
G91 G28 Y0 (3 - HOME Y)
G90
M01
M00

N23
(OPERATION: BEVEL - 2-1/16" 5M STUDDED FLANGES HOLES)
(COMMENT: BEVELING - STUDDED FLANGES HOLES D7/8"-9UNC-2B)
(B AXIS ANGLE: 90.0 DEGREES)
(TOOL ID: TD10019 - TOOL DIAMETER: 33.0 MM)
(TOOL COMMENT: D33X45G CHAMFER TOOL)
T020.01 M6
(T032.01) (TOOL ON HOLD)
G91 G28 Z0 (Z TO SAFETY)
G90
G55 G64
(**************************)
(* G55 WORK-OFFSET ACTIVE *)
(**************************)
G17 M200 M212 (MILLING MODE)
G10.9 X0 (RADIUS MODE)
G97 S500 M3
M108 (UNCLAMP B AXIS)
G0 B90.
M107 (CLAMP B AXIS)
M212 (UNCLAMP C AXIS)
G0 C180.
M210 (CLAMP C AXIS)
G68 X0. Y0. Z0. I0. J1. K0. R90.
G0 Y0.0000
G0 X12.2563 Y3.0026 
G0 Z12.0000
G95 M08
G98 G82 X12.2563 Y3.0026 Z8.210 R8.6181 F0.003
X10.4974 Y1.2437
Y-1.2437
X12.2563 Y-3.0026
X14.7437
X16.5026 Y-1.2437
Y1.2437
X14.7437 Y3.0026
G80
G0 Z15.0000
G49 G69
M9
M5
G91 G28 Z0 (1 - HOME Z)
G91 G28 X0 (2 - HOME X)
G91 G28 Y0 (3 - HOME Y)
G90
M01
M00

N24
(OPERATION: ROUGH - THREAD D7/8"-9UNC-2B)
(COMMENT: THREADING - ROUGH THREAD D7/8"-9UNC-2B VGS2.7.48)
(B AXIS ANGLE: 90.0 DEGREES)
(TOOL ID: TD10067 - TOOL DIAMETER: 16MM)
(TOOL COMMENT: THREAD MILL D16MM/D0.6299" TO 7/8"-9UNC-2B)
T032.01 M6
(T021.01) (TOOL ON HOLD)
G91 G28 Z0 (Z TO SAFETY)
G90
G55 G64
(**************************)
(* G55 WORK-OFFSET ACTIVE *)
(**************************)
G17 M200 M212 (MILLING MODE)
G10.9 X0 (RADIUS MODE)
G97 S1145 M3
M108 (UNCLAMP B AXIS)
G0 B90.
M107 (CLAMP B AXIS)
M212 (UNCLAMP C AXIS)
G0 C0.
M210 (CLAMP C AXIS)
G68 X0. Y0. Z0. I0. J1. K0. R90.
G0 Y0.0000
G0 X12.2563 Y3.0026 Z15.0000
G0 Z12.0000
G95
M51
(********** THREAD 1 ********)
(* ROUGH 1 D20.5MM/D0.8071" *)
G0 G90 X12.2563 Y3.0026
G0 G90 Z8.5000
G1 G90 Z8.4000 F0.300
G1 G91 G42 X0.4035 Y0.0000 F0.010
G1 G91 G2 X0.0000 Y0.0000 Z-0.1111 I-0.4035 J0.0000 
G1 G91 G2 X0.0000 Y0.0000 Z-0.1111 I-0.4035 J0.0000 
G1 G91 G2 X0.0000 Y0.0000 Z-0.1111 I-0.4035 J0.0000 
G1 G91 G2 X0.0000 Y0.0000 Z-0.1111 I-0.4035 J0.0000 
G1 G91 G2 X0.0000 Y0.0000 Z-0.1111 I-0.4035 J0.0000 
G1 G91 G2 X0.0000 Y0.0000 Z-0.1111 I-0.4035 J0.0000 
G1 G91 G2 X0.0000 Y0.0000 Z-0.1111 I-0.4035 J0.0000 
G1 G91 G2 X0.0000 Y0.0000 Z-0.1111 I-0.4035 J0.0000 
G1 G91 G2 X0.0000 Y0.0000 Z-0.1111 I-0.4035 J0.0000  
G1 G91 G40 X-0.4035 Y0.0000
G1 G90 Z7.6000 F0.300
G0 G90 Z12.0000
M01
(********** THREAD 1 ********)
(* ROUGH 2 D21.4MM/D0.8425" *)
G0 G90 X12.2563 Y3.0026
G0 G90 Z8.5000
G1 G90 Z8.4000 F0.300
G1 G91 G42 X0.4212 Y0.0000 F0.010
G1 G91 G2 X0.0000 Y0.0000 Z-0.1111 I-0.4212 J0.0000 
G1 G91 G2 X0.0000 Y0.0000 Z-0.1111 I-0.4212 J0.0000 
G1 G91 G2 X0.0000 Y0.0000 Z-0.1111 I-0.4212 J0.0000 
G1 G91 G2 X0.0000 Y0.0000 Z-0.1111 I-0.4212 J0.0000 
G1 G91 G2 X0.0000 Y0.0000 Z-0.1111 I-0.4212 J0.0000 
G1 G91 G2 X0.0000 Y0.0000 Z-0.1111 I-0.4212 J0.0000
G1 G91 G2 X0.0000 Y0.0000 Z-0.1111 I-0.4212 J0.0000 
G1 G91 G2 X0.0000 Y0.0000 Z-0.1111 I-0.4212 J0.0000 
G1 G91 G2 X0.0000 Y0.0000 Z-0.1111 I-0.4212 J0.0000   
G1 G91 G40 X-0.4212 Y0.0000
G1 G90 Z7.6000 F0.300
G0 G90 Z12.0000
M01
(********** THREAD 1 ********)
(* ROUGH 3 D22MM/D0.8661" *)
G0 G90 X12.2563 Y3.0026
G0 G90 Z8.5000
G1 G90 Z8.4000 F0.300
G1 G91 G42 X0.4331 Y0.0000 F0.010
G1 G91 G2 X0.0000 Y0.0000 Z-0.1111 I-0.4331 J0.0000 
G1 G91 G2 X0.0000 Y0.0000 Z-0.1111 I-0.4331 J0.0000 
G1 G91 G2 X0.0000 Y0.0000 Z-0.1111 I-0.4331 J0.0000 
G1 G91 G2 X0.0000 Y0.0000 Z-0.1111 I-0.4331 J0.0000 
G1 G91 G2 X0.0000 Y0.0000 Z-0.1111 I-0.4331 J0.0000 
G1 G91 G2 X0.0000 Y0.0000 Z-0.1111 I-0.4331 J0.0000 
G1 G91 G2 X0.0000 Y0.0000 Z-0.1111 I-0.4331 J0.0000 
G1 G91 G2 X0.0000 Y0.0000 Z-0.1111 I-0.4331 J0.0000 
G1 G91 G2 X0.0000 Y0.0000 Z-0.1111 I-0.4331 J0.0000 
G1 G91 G40 X-0.4331 Y0.0000
G1 G90 Z7.6000 F0.300
G0 G90 Z12.0000
M01
(********** THREAD 1 ********)
(* ROUGH 4 D22.225MM/D0.875" *)
G0 G90 X12.2563 Y3.0026
G0 G90 Z8.5000
G1 G90 Z8.4000 F0.300
G1 G91 G42 X0.4375 Y0.0000 F0.010
G1 G91 G2 X0.0000 Y0.0000 Z-0.1111 I-0.4375 J0.0000 
G1 G91 G2 X0.0000 Y0.0000 Z-0.1111 I-0.4375 J0.0000 
G1 G91 G2 X0.0000 Y0.0000 Z-0.1111 I-0.4375 J0.0000 
G1 G91 G2 X0.0000 Y0.0000 Z-0.1111 I-0.4375 J0.0000 
G1 G91 G2 X0.0000 Y0.0000 Z-0.1111 I-0.4375 J0.0000 
G1 G91 G2 X0.0000 Y0.0000 Z-0.1111 I-0.4375 J0.0000 
G1 G91 G2 X0.0000 Y0.0000 Z-0.1111 I-0.4375 J0.0000 
G1 G91 G2 X0.0000 Y0.0000 Z-0.1111 I-0.4375 J0.0000 
G1 G91 G2 X0.0000 Y0.0000 Z-0.1111 I-0.4375 J0.0000   
G1 G91 G40 X-0.4375 Y0.0000
G1 G90 Z7.6000 F0.300
G0 G90 Z12.0000

(********** THREAD 2 ********)
(* ROUGH 1 D20.5MM/D0.8071" *)
G0 G90 X10.4974 Y1.2437
G0 G90 Z8.5000
M01
G1 G90 Z8.4000 F0.300
G1 G91 G42 X0.4035 Y0.0000 F0.010
G1 G91 G2 X0.0000 Y0.0000 Z-0.1111 I-0.4035 J0.0000 
G1 G91 G2 X0.0000 Y0.0000 Z-0.1111 I-0.4035 J0.0000 
G1 G91 G2 X0.0000 Y0.0000 Z-0.1111 I-0.4035 J0.0000 
G1 G91 G2 X0.0000 Y0.0000 Z-0.1111 I-0.4035 J0.0000 
G1 G91 G2 X0.0000 Y0.0000 Z-0.1111 I-0.4035 J0.0000 
G1 G91 G2 X0.0000 Y0.0000 Z-0.1111 I-0.4035 J0.0000 
G1 G91 G2 X0.0000 Y0.0000 Z-0.1111 I-0.4035 J0.0000 
G1 G91 G2 X0.0000 Y0.0000 Z-0.1111 I-0.4035 J0.0000 
G1 G91 G2 X0.0000 Y0.0000 Z-0.1111 I-0.4035 J0.0000  
G1 G91 G40 X-0.4035 Y0.0000
G1 G90 Z7.6000 F0.300
G0 G90 Z12.0000

(********** THREAD 2 ********)
(* ROUGH 2 D21.4MM/D0.8425" *)
G0 G90 X10.4974 Y1.2437
G0 G90 Z8.5000
G1 G90 Z8.4000 F0.300
G1 G91 G42 X0.4212 Y0.0000 F0.010
G1 G91 G2 X0.0000 Y0.0000 Z-0.1111 I-0.4212 J0.0000 
G1 G91 G2 X0.0000 Y0.0000 Z-0.1111 I-0.4212 J0.0000 
G1 G91 G2 X0.0000 Y0.0000 Z-0.1111 I-0.4212 J0.0000 
G1 G91 G2 X0.0000 Y0.0000 Z-0.1111 I-0.4212 J0.0000 
G1 G91 G2 X0.0000 Y0.0000 Z-0.1111 I-0.4212 J0.0000 
G1 G91 G2 X0.0000 Y0.0000 Z-0.1111 I-0.4212 J0.0000
G1 G91 G2 X0.0000 Y0.0000 Z-0.1111 I-0.4212 J0.0000 
G1 G91 G2 X0.0000 Y0.0000 Z-0.1111 I-0.4212 J0.0000 
G1 G91 G2 X0.0000 Y0.0000 Z-0.1111 I-0.4212 J0.0000   
G1 G91 G40 X-0.4212 Y0.0000
G1 G90 Z7.6000 F0.300
G0 G90 Z12.0000

(********** THREAD 2 ********)
(* ROUGH 3 D22MM/D0.8661" *)
G0 G90 X10.4974 Y1.2437
G0 G90 Z8.5000
G1 G90 Z8.4000 F0.300
G1 G91 G42 X0.4331 Y0.0000 F0.010
G1 G91 G2 X0.0000 Y0.0000 Z-0.1111 I-0.4331 J0.0000 
G1 G91 G2 X0.0000 Y0.0000 Z-0.1111 I-0.4331 J0.0000 
G1 G91 G2 X0.0000 Y0.0000 Z-0.1111 I-0.4331 J0.0000 
G1 G91 G2 X0.0000 Y0.0000 Z-0.1111 I-0.4331 J0.0000 
G1 G91 G2 X0.0000 Y0.0000 Z-0.1111 I-0.4331 J0.0000 
G1 G91 G2 X0.0000 Y0.0000 Z-0.1111 I-0.4331 J0.0000 
G1 G91 G2 X0.0000 Y0.0000 Z-0.1111 I-0.4331 J0.0000 
G1 G91 G2 X0.0000 Y0.0000 Z-0.1111 I-0.4331 J0.0000 
G1 G91 G2 X0.0000 Y0.0000 Z-0.1111 I-0.4331 J0.0000 
G1 G91 G40 X-0.4331 Y0.0000
G1 G90 Z7.6000 F0.300
G0 G90 Z12.0000

(********** THREAD 2 ********)
(* ROUGH 4 D22.225MM/D0.875" *)
G0 G90 X10.4974 Y1.2437
G0 G90 Z8.5000
G1 G90 Z8.4000 F0.300
G1 G91 G42 X0.4375 Y0.0000 F0.010
G1 G91 G2 X0.0000 Y0.0000 Z-0.1111 I-0.4375 J0.0000 
G1 G91 G2 X0.0000 Y0.0000 Z-0.1111 I-0.4375 J0.0000 
G1 G91 G2 X0.0000 Y0.0000 Z-0.1111 I-0.4375 J0.0000 
G1 G91 G2 X0.0000 Y0.0000 Z-0.1111 I-0.4375 J0.0000 
G1 G91 G2 X0.0000 Y0.0000 Z-0.1111 I-0.4375 J0.0000 
G1 G91 G2 X0.0000 Y0.0000 Z-0.1111 I-0.4375 J0.0000 
G1 G91 G2 X0.0000 Y0.0000 Z-0.1111 I-0.4375 J0.0000 
G1 G91 G2 X0.0000 Y0.0000 Z-0.1111 I-0.4375 J0.0000 
G1 G91 G2 X0.0000 Y0.0000 Z-0.1111 I-0.4375 J0.0000   
G1 G91 G40 X-0.4375 Y0.0000
G1 G90 Z7.6000 F0.300
G0 G90 Z12.0000

(*************************************************)

(********** THREAD 3 ********)
(* ROUGH 1 D20.5MM/D0.8071" *)
G0 G90 X10.4974 Y-1.2437
G0 G90 Z8.5000
M01
G1 G90 Z8.4000 F0.300
G1 G91 G42 X0.4035 Y0.0000 F0.010
G1 G91 G2 X0.0000 Y0.0000 Z-0.1111 I-0.4035 J0.0000 
G1 G91 G2 X0.0000 Y0.0000 Z-0.1111 I-0.4035 J0.0000 
G1 G91 G2 X0.0000 Y0.0000 Z-0.1111 I-0.4035 J0.0000 
G1 G91 G2 X0.0000 Y0.0000 Z-0.1111 I-0.4035 J0.0000 
G1 G91 G2 X0.0000 Y0.0000 Z-0.1111 I-0.4035 J0.0000 
G1 G91 G2 X0.0000 Y0.0000 Z-0.1111 I-0.4035 J0.0000 
G1 G91 G2 X0.0000 Y0.0000 Z-0.1111 I-0.4035 J0.0000 
G1 G91 G2 X0.0000 Y0.0000 Z-0.1111 I-0.4035 J0.0000 
G1 G91 G2 X0.0000 Y0.0000 Z-0.1111 I-0.4035 J0.0000  
G1 G91 G40 X-0.4035 Y0.0000
G1 G90 Z7.6000 F0.300
G0 G90 Z12.0000

(********** THREAD 3 ********)
(* ROUGH 2 D21.4MM/D0.8425" *)
G0 G90 X10.4974 Y-1.2437
G0 G90 Z8.5000
G1 G90 Z8.4000 F0.300
G1 G91 G42 X0.4212 Y0.0000 F0.010
G1 G91 G2 X0.0000 Y0.0000 Z-0.1111 I-0.4212 J0.0000 
G1 G91 G2 X0.0000 Y0.0000 Z-0.1111 I-0.4212 J0.0000 
G1 G91 G2 X0.0000 Y0.0000 Z-0.1111 I-0.4212 J0.0000 
G1 G91 G2 X0.0000 Y0.0000 Z-0.1111 I-0.4212 J0.0000 
G1 G91 G2 X0.0000 Y0.0000 Z-0.1111 I-0.4212 J0.0000 
G1 G91 G2 X0.0000 Y0.0000 Z-0.1111 I-0.4212 J0.0000
G1 G91 G2 X0.0000 Y0.0000 Z-0.1111 I-0.4212 J0.0000 
G1 G91 G2 X0.0000 Y0.0000 Z-0.1111 I-0.4212 J0.0000 
G1 G91 G2 X0.0000 Y0.0000 Z-0.1111 I-0.4212 J0.0000   
G1 G91 G40 X-0.4212 Y0.0000
G1 G90 Z7.6000 F0.300
G0 G90 Z12.0000

(********** THREAD 3 ********)
(* ROUGH 3 D22MM/D0.8661" *)
G0 G90 X10.4974 Y-1.2437
G0 G90 Z8.5000
G1 G90 Z8.4000 F0.300
G1 G91 G42 X0.4331 Y0.0000 F0.010
G1 G91 G2 X0.0000 Y0.0000 Z-0.1111 I-0.4331 J0.0000 
G1 G91 G2 X0.0000 Y0.0000 Z-0.1111 I-0.4331 J0.0000 
G1 G91 G2 X0.0000 Y0.0000 Z-0.1111 I-0.4331 J0.0000 
G1 G91 G2 X0.0000 Y0.0000 Z-0.1111 I-0.4331 J0.0000 
G1 G91 G2 X0.0000 Y0.0000 Z-0.1111 I-0.4331 J0.0000 
G1 G91 G2 X0.0000 Y0.0000 Z-0.1111 I-0.4331 J0.0000 
G1 G91 G2 X0.0000 Y0.0000 Z-0.1111 I-0.4331 J0.0000 
G1 G91 G2 X0.0000 Y0.0000 Z-0.1111 I-0.4331 J0.0000 
G1 G91 G2 X0.0000 Y0.0000 Z-0.1111 I-0.4331 J0.0000 
G1 G91 G40 X-0.4331 Y0.0000
G1 G90 Z7.6000 F0.300
G0 G90 Z12.0000

(********** THREAD 3 ********)
(* ROUGH 4 D22.225MM/D0.875" *)
G0 G90 X10.4974 Y-1.2437
G0 G90 Z8.5000
G1 G90 Z8.4000 F0.300
G1 G91 G42 X0.4375 Y0.0000 F0.010
G1 G91 G2 X0.0000 Y0.0000 Z-0.1111 I-0.4375 J0.0000 
G1 G91 G2 X0.0000 Y0.0000 Z-0.1111 I-0.4375 J0.0000 
G1 G91 G2 X0.0000 Y0.0000 Z-0.1111 I-0.4375 J0.0000 
G1 G91 G2 X0.0000 Y0.0000 Z-0.1111 I-0.4375 J0.0000 
G1 G91 G2 X0.0000 Y0.0000 Z-0.1111 I-0.4375 J0.0000 
G1 G91 G2 X0.0000 Y0.0000 Z-0.1111 I-0.4375 J0.0000 
G1 G91 G2 X0.0000 Y0.0000 Z-0.1111 I-0.4375 J0.0000 
G1 G91 G2 X0.0000 Y0.0000 Z-0.1111 I-0.4375 J0.0000 
G1 G91 G2 X0.0000 Y0.0000 Z-0.1111 I-0.4375 J0.0000   
G1 G91 G40 X-0.4375 Y0.0000
G1 G90 Z7.6000 F0.300
G0 G90 Z12.0000

(*************************************************)

(********** THREAD 4 ********)
(* ROUGH 1 D20.5MM/D0.8071" *)
G0 G90 X12.2563 Y-3.0026
G0 G90 Z8.5000
M01
G1 G90 Z8.4000 F0.300
G1 G91 G42 X0.4035 Y0.0000 F0.010
G1 G91 G2 X0.0000 Y0.0000 Z-0.1111 I-0.4035 J0.0000 
G1 G91 G2 X0.0000 Y0.0000 Z-0.1111 I-0.4035 J0.0000 
G1 G91 G2 X0.0000 Y0.0000 Z-0.1111 I-0.4035 J0.0000 
G1 G91 G2 X0.0000 Y0.0000 Z-0.1111 I-0.4035 J0.0000 
G1 G91 G2 X0.0000 Y0.0000 Z-0.1111 I-0.4035 J0.0000 
G1 G91 G2 X0.0000 Y0.0000 Z-0.1111 I-0.4035 J0.0000 
G1 G91 G2 X0.0000 Y0.0000 Z-0.1111 I-0.4035 J0.0000 
G1 G91 G2 X0.0000 Y0.0000 Z-0.1111 I-0.4035 J0.0000 
G1 G91 G2 X0.0000 Y0.0000 Z-0.1111 I-0.4035 J0.0000  
G1 G91 G40 X-0.4035 Y0.0000
G1 G90 Z7.6000 F0.300
G0 G90 Z12.0000

(********** THREAD 4 ********)
(* ROUGH 2 D21.4MM/D0.8425" *)
G0 G90 X12.2563 Y-3.0026
G0 G90 Z8.5000
G1 G90 Z8.4000 F0.300
G1 G91 G42 X0.4212 Y0.0000 F0.010
G1 G91 G2 X0.0000 Y0.0000 Z-0.1111 I-0.4212 J0.0000 
G1 G91 G2 X0.0000 Y0.0000 Z-0.1111 I-0.4212 J0.0000 
G1 G91 G2 X0.0000 Y0.0000 Z-0.1111 I-0.4212 J0.0000 
G1 G91 G2 X0.0000 Y0.0000 Z-0.1111 I-0.4212 J0.0000 
G1 G91 G2 X0.0000 Y0.0000 Z-0.1111 I-0.4212 J0.0000 
G1 G91 G2 X0.0000 Y0.0000 Z-0.1111 I-0.4212 J0.0000
G1 G91 G2 X0.0000 Y0.0000 Z-0.1111 I-0.4212 J0.0000 
G1 G91 G2 X0.0000 Y0.0000 Z-0.1111 I-0.4212 J0.0000 
G1 G91 G2 X0.0000 Y0.0000 Z-0.1111 I-0.4212 J0.0000   
G1 G91 G40 X-0.4212 Y0.0000
G1 G90 Z7.6000 F0.300
G0 G90 Z12.0000

(********** THREAD 4 ********)
(* ROUGH 3 D22MM/D0.8661" *)
G0 G90 X12.2563 Y-3.0026
G0 G90 Z8.5000
G1 G90 Z8.4000 F0.300
G1 G91 G42 X0.4331 Y0.0000 F0.010
G1 G91 G2 X0.0000 Y0.0000 Z-0.1111 I-0.4331 J0.0000 
G1 G91 G2 X0.0000 Y0.0000 Z-0.1111 I-0.4331 J0.0000 
G1 G91 G2 X0.0000 Y0.0000 Z-0.1111 I-0.4331 J0.0000 
G1 G91 G2 X0.0000 Y0.0000 Z-0.1111 I-0.4331 J0.0000 
G1 G91 G2 X0.0000 Y0.0000 Z-0.1111 I-0.4331 J0.0000 
G1 G91 G2 X0.0000 Y0.0000 Z-0.1111 I-0.4331 J0.0000 
G1 G91 G2 X0.0000 Y0.0000 Z-0.1111 I-0.4331 J0.0000 
G1 G91 G2 X0.0000 Y0.0000 Z-0.1111 I-0.4331 J0.0000 
G1 G91 G2 X0.0000 Y0.0000 Z-0.1111 I-0.4331 J0.0000 
G1 G91 G40 X-0.4331 Y0.0000
G1 G90 Z7.6000 F0.300
G0 G90 Z12.0000

(********** THREAD 4 ********)
(* ROUGH 4 D22.225MM/D0.875" *)
G0 G90 X12.2563 Y-3.0026
G0 G90 Z8.5000
G1 G90 Z8.4000 F0.300
G1 G91 G42 X0.4375 Y0.0000 F0.010
G1 G91 G2 X0.0000 Y0.0000 Z-0.1111 I-0.4375 J0.0000 
G1 G91 G2 X0.0000 Y0.0000 Z-0.1111 I-0.4375 J0.0000 
G1 G91 G2 X0.0000 Y0.0000 Z-0.1111 I-0.4375 J0.0000 
G1 G91 G2 X0.0000 Y0.0000 Z-0.1111 I-0.4375 J0.0000 
G1 G91 G2 X0.0000 Y0.0000 Z-0.1111 I-0.4375 J0.0000 
G1 G91 G2 X0.0000 Y0.0000 Z-0.1111 I-0.4375 J0.0000 
G1 G91 G2 X0.0000 Y0.0000 Z-0.1111 I-0.4375 J0.0000 
G1 G91 G2 X0.0000 Y0.0000 Z-0.1111 I-0.4375 J0.0000 
G1 G91 G2 X0.0000 Y0.0000 Z-0.1111 I-0.4375 J0.0000   
G1 G91 G40 X-0.4375 Y0.0000
G1 G90 Z7.6000 F0.300
G0 G90 Z12.0000

(*************************************************)

(********** THREAD 5 ********)
(* ROUGH 1 D20.5MM/D0.8071" *)
G0 G90 X14.7437 Y-3.0026
G0 G90 Z8.5000
M01
G1 G90 Z8.4000 F0.300
G1 G91 G42 X0.4035 Y0.0000 F0.010
G1 G91 G2 X0.0000 Y0.0000 Z-0.1111 I-0.4035 J0.0000 
G1 G91 G2 X0.0000 Y0.0000 Z-0.1111 I-0.4035 J0.0000 
G1 G91 G2 X0.0000 Y0.0000 Z-0.1111 I-0.4035 J0.0000 
G1 G91 G2 X0.0000 Y0.0000 Z-0.1111 I-0.4035 J0.0000 
G1 G91 G2 X0.0000 Y0.0000 Z-0.1111 I-0.4035 J0.0000 
G1 G91 G2 X0.0000 Y0.0000 Z-0.1111 I-0.4035 J0.0000 
G1 G91 G2 X0.0000 Y0.0000 Z-0.1111 I-0.4035 J0.0000 
G1 G91 G2 X0.0000 Y0.0000 Z-0.1111 I-0.4035 J0.0000 
G1 G91 G2 X0.0000 Y0.0000 Z-0.1111 I-0.4035 J0.0000  
G1 G91 G40 X-0.4035 Y0.0000
G1 G90 Z7.6000 F0.300
G0 G90 Z12.0000

(********** THREAD 5 ********)
(* ROUGH 2 D21.4MM/D0.8425" *)
G0 G90 X14.7437 Y-3.0026
G0 G90 Z8.5000
G1 G90 Z8.4000 F0.300
G1 G91 G42 X0.4212 Y0.0000 F0.010
G1 G91 G2 X0.0000 Y0.0000 Z-0.1111 I-0.4212 J0.0000 
G1 G91 G2 X0.0000 Y0.0000 Z-0.1111 I-0.4212 J0.0000 
G1 G91 G2 X0.0000 Y0.0000 Z-0.1111 I-0.4212 J0.0000 
G1 G91 G2 X0.0000 Y0.0000 Z-0.1111 I-0.4212 J0.0000 
G1 G91 G2 X0.0000 Y0.0000 Z-0.1111 I-0.4212 J0.0000 
G1 G91 G2 X0.0000 Y0.0000 Z-0.1111 I-0.4212 J0.0000
G1 G91 G2 X0.0000 Y0.0000 Z-0.1111 I-0.4212 J0.0000 
G1 G91 G2 X0.0000 Y0.0000 Z-0.1111 I-0.4212 J0.0000 
G1 G91 G2 X0.0000 Y0.0000 Z-0.1111 I-0.4212 J0.0000   
G1 G91 G40 X-0.4212 Y0.0000
G1 G90 Z7.6000 F0.300
G0 G90 Z12.0000

(********** THREAD 5 ********)
(* ROUGH 3 D22MM/D0.8661" *)
G0 G90 X14.7437 Y-3.0026
G0 G90 Z8.5000
G1 G90 Z8.4000 F0.300
G1 G91 G42 X0.4331 Y0.0000 F0.010
G1 G91 G2 X0.0000 Y0.0000 Z-0.1111 I-0.4331 J0.0000 
G1 G91 G2 X0.0000 Y0.0000 Z-0.1111 I-0.4331 J0.0000 
G1 G91 G2 X0.0000 Y0.0000 Z-0.1111 I-0.4331 J0.0000 
G1 G91 G2 X0.0000 Y0.0000 Z-0.1111 I-0.4331 J0.0000 
G1 G91 G2 X0.0000 Y0.0000 Z-0.1111 I-0.4331 J0.0000 
G1 G91 G2 X0.0000 Y0.0000 Z-0.1111 I-0.4331 J0.0000 
G1 G91 G2 X0.0000 Y0.0000 Z-0.1111 I-0.4331 J0.0000 
G1 G91 G2 X0.0000 Y0.0000 Z-0.1111 I-0.4331 J0.0000 
G1 G91 G2 X0.0000 Y0.0000 Z-0.1111 I-0.4331 J0.0000 
G1 G91 G40 X-0.4331 Y0.0000
G1 G90 Z7.6000 F0.300
G0 G90 Z12.0000

(********* THREAD 5 **********)
(* ROUGH 4 D22.225MM/D0.875" *)
G0 G90 X14.7437 Y-3.0026
G0 G90 Z8.5000
G1 G90 Z8.4000 F0.300
G1 G91 G42 X0.4375 Y0.0000 F0.010
G1 G91 G2 X0.0000 Y0.0000 Z-0.1111 I-0.4375 J0.0000 
G1 G91 G2 X0.0000 Y0.0000 Z-0.1111 I-0.4375 J0.0000 
G1 G91 G2 X0.0000 Y0.0000 Z-0.1111 I-0.4375 J0.0000 
G1 G91 G2 X0.0000 Y0.0000 Z-0.1111 I-0.4375 J0.0000 
G1 G91 G2 X0.0000 Y0.0000 Z-0.1111 I-0.4375 J0.0000 
G1 G91 G2 X0.0000 Y0.0000 Z-0.1111 I-0.4375 J0.0000 
G1 G91 G2 X0.0000 Y0.0000 Z-0.1111 I-0.4375 J0.0000 
G1 G91 G2 X0.0000 Y0.0000 Z-0.1111 I-0.4375 J0.0000 
G1 G91 G2 X0.0000 Y0.0000 Z-0.1111 I-0.4375 J0.0000   
G1 G91 G40 X-0.4375 Y0.0000
G1 G90 Z7.6000 F0.300
G0 G90 Z12.0000

(*************************************************)

(********* THREAD 6 *********)
(* ROUGH 1 D20.5MM/D0.8071" *)
G0 G90 X16.5026 Y-1.2437
G0 G90 Z8.5000
M01
G1 G90 Z8.4000 F0.300
G1 G91 G42 X0.4035 Y0.0000 F0.010
G1 G91 G2 X0.0000 Y0.0000 Z-0.1111 I-0.4035 J0.0000 
G1 G91 G2 X0.0000 Y0.0000 Z-0.1111 I-0.4035 J0.0000 
G1 G91 G2 X0.0000 Y0.0000 Z-0.1111 I-0.4035 J0.0000 
G1 G91 G2 X0.0000 Y0.0000 Z-0.1111 I-0.4035 J0.0000 
G1 G91 G2 X0.0000 Y0.0000 Z-0.1111 I-0.4035 J0.0000 
G1 G91 G2 X0.0000 Y0.0000 Z-0.1111 I-0.4035 J0.0000 
G1 G91 G2 X0.0000 Y0.0000 Z-0.1111 I-0.4035 J0.0000 
G1 G91 G2 X0.0000 Y0.0000 Z-0.1111 I-0.4035 J0.0000 
G1 G91 G2 X0.0000 Y0.0000 Z-0.1111 I-0.4035 J0.0000  
G1 G91 G40 X-0.4035 Y0.0000
G1 G90 Z7.6000 F0.300
G0 G90 Z12.0000

(********** THREAD 6 ********)
(* ROUGH 2 D21.4MM/D0.8425" *)
G0 G90 X16.5026 Y-1.2437
G0 G90 Z8.5000
G1 G90 Z8.4000 F0.300
G1 G91 G42 X0.4212 Y0.0000 F0.010
G1 G91 G2 X0.0000 Y0.0000 Z-0.1111 I-0.4212 J0.0000 
G1 G91 G2 X0.0000 Y0.0000 Z-0.1111 I-0.4212 J0.0000 
G1 G91 G2 X0.0000 Y0.0000 Z-0.1111 I-0.4212 J0.0000 
G1 G91 G2 X0.0000 Y0.0000 Z-0.1111 I-0.4212 J0.0000 
G1 G91 G2 X0.0000 Y0.0000 Z-0.1111 I-0.4212 J0.0000 
G1 G91 G2 X0.0000 Y0.0000 Z-0.1111 I-0.4212 J0.0000
G1 G91 G2 X0.0000 Y0.0000 Z-0.1111 I-0.4212 J0.0000 
G1 G91 G2 X0.0000 Y0.0000 Z-0.1111 I-0.4212 J0.0000 
G1 G91 G2 X0.0000 Y0.0000 Z-0.1111 I-0.4212 J0.0000   
G1 G91 G40 X-0.4212 Y0.0000
G1 G90 Z7.6000 F0.300
G0 G90 Z12.0000

(******** THREAD 6 ********)
(* ROUGH 3 D22MM/D0.8661" *)
G0 G90 X16.5026 Y-1.2437
G0 G90 Z8.5000
G1 G90 Z8.4000 F0.300
G1 G91 G42 X0.4331 Y0.0000 F0.010
G1 G91 G2 X0.0000 Y0.0000 Z-0.1111 I-0.4331 J0.0000 
G1 G91 G2 X0.0000 Y0.0000 Z-0.1111 I-0.4331 J0.0000 
G1 G91 G2 X0.0000 Y0.0000 Z-0.1111 I-0.4331 J0.0000 
G1 G91 G2 X0.0000 Y0.0000 Z-0.1111 I-0.4331 J0.0000 
G1 G91 G2 X0.0000 Y0.0000 Z-0.1111 I-0.4331 J0.0000 
G1 G91 G2 X0.0000 Y0.0000 Z-0.1111 I-0.4331 J0.0000 
G1 G91 G2 X0.0000 Y0.0000 Z-0.1111 I-0.4331 J0.0000 
G1 G91 G2 X0.0000 Y0.0000 Z-0.1111 I-0.4331 J0.0000 
G1 G91 G2 X0.0000 Y0.0000 Z-0.1111 I-0.4331 J0.0000 
G1 G91 G40 X-0.4331 Y0.0000
G1 G90 Z7.6000 F0.300
G0 G90 Z12.0000

(********** THREAD 6 ********)
(* ROUGH 4 D22.225MM/D0.875" *)
G0 G90 X16.5026 Y-1.2437
G0 G90 Z8.5000
G1 G90 Z8.4000 F0.300
G1 G91 G42 X0.4375 Y0.0000 F0.010
G1 G91 G2 X0.0000 Y0.0000 Z-0.1111 I-0.4375 J0.0000 
G1 G91 G2 X0.0000 Y0.0000 Z-0.1111 I-0.4375 J0.0000 
G1 G91 G2 X0.0000 Y0.0000 Z-0.1111 I-0.4375 J0.0000 
G1 G91 G2 X0.0000 Y0.0000 Z-0.1111 I-0.4375 J0.0000 
G1 G91 G2 X0.0000 Y0.0000 Z-0.1111 I-0.4375 J0.0000 
G1 G91 G2 X0.0000 Y0.0000 Z-0.1111 I-0.4375 J0.0000 
G1 G91 G2 X0.0000 Y0.0000 Z-0.1111 I-0.4375 J0.0000 
G1 G91 G2 X0.0000 Y0.0000 Z-0.1111 I-0.4375 J0.0000 
G1 G91 G2 X0.0000 Y0.0000 Z-0.1111 I-0.4375 J0.0000   
G1 G91 G40 X-0.4375 Y0.0000
G1 G90 Z7.6000 F0.300
G0 G90 Z12.0000

(*************************************************)

(********** THREAD 7 ********)
(* ROUGH 1 D20.5MM/D0.8071" *)
G0 G90 X16.5026 Y1.2437
G0 G90 Z8.5000
M01
G1 G90 Z8.4000 F0.300
G1 G91 G42 X0.4035 Y0.0000 F0.010
G1 G91 G2 X0.0000 Y0.0000 Z-0.1111 I-0.4035 J0.0000 
G1 G91 G2 X0.0000 Y0.0000 Z-0.1111 I-0.4035 J0.0000 
G1 G91 G2 X0.0000 Y0.0000 Z-0.1111 I-0.4035 J0.0000 
G1 G91 G2 X0.0000 Y0.0000 Z-0.1111 I-0.4035 J0.0000 
G1 G91 G2 X0.0000 Y0.0000 Z-0.1111 I-0.4035 J0.0000 
G1 G91 G2 X0.0000 Y0.0000 Z-0.1111 I-0.4035 J0.0000 
G1 G91 G2 X0.0000 Y0.0000 Z-0.1111 I-0.4035 J0.0000 
G1 G91 G2 X0.0000 Y0.0000 Z-0.1111 I-0.4035 J0.0000 
G1 G91 G2 X0.0000 Y0.0000 Z-0.1111 I-0.4035 J0.0000  
G1 G91 G40 X-0.4035 Y0.0000
G1 G90 Z7.6000 F0.300
G0 G90 Z12.0000

(********** THREAD 7 ********)
(* ROUGH 2 D21.4MM/D0.8425" *)
G0 G90 X16.5026 Y1.2437
G0 G90 Z8.5000
G1 G90 Z8.4000 F0.300
G1 G91 G42 X0.4212 Y0.0000 F0.010
G1 G91 G2 X0.0000 Y0.0000 Z-0.1111 I-0.4212 J0.0000 
G1 G91 G2 X0.0000 Y0.0000 Z-0.1111 I-0.4212 J0.0000 
G1 G91 G2 X0.0000 Y0.0000 Z-0.1111 I-0.4212 J0.0000 
G1 G91 G2 X0.0000 Y0.0000 Z-0.1111 I-0.4212 J0.0000 
G1 G91 G2 X0.0000 Y0.0000 Z-0.1111 I-0.4212 J0.0000 
G1 G91 G2 X0.0000 Y0.0000 Z-0.1111 I-0.4212 J0.0000
G1 G91 G2 X0.0000 Y0.0000 Z-0.1111 I-0.4212 J0.0000 
G1 G91 G2 X0.0000 Y0.0000 Z-0.1111 I-0.4212 J0.0000 
G1 G91 G2 X0.0000 Y0.0000 Z-0.1111 I-0.4212 J0.0000   
G1 G91 G40 X-0.4212 Y0.0000
G1 G90 Z7.6000 F0.300
G0 G90 Z12.0000

(******** THREAD 7 ********)
(* ROUGH 3 D22MM/D0.8661" *)
G0 G90 X16.5026 Y1.2437
G0 G90 Z8.5000
G1 G90 Z8.4000 F0.300
G1 G91 G42 X0.4331 Y0.0000 F0.010
G1 G91 G2 X0.0000 Y0.0000 Z-0.1111 I-0.4331 J0.0000 
G1 G91 G2 X0.0000 Y0.0000 Z-0.1111 I-0.4331 J0.0000 
G1 G91 G2 X0.0000 Y0.0000 Z-0.1111 I-0.4331 J0.0000 
G1 G91 G2 X0.0000 Y0.0000 Z-0.1111 I-0.4331 J0.0000 
G1 G91 G2 X0.0000 Y0.0000 Z-0.1111 I-0.4331 J0.0000 
G1 G91 G2 X0.0000 Y0.0000 Z-0.1111 I-0.4331 J0.0000 
G1 G91 G2 X0.0000 Y0.0000 Z-0.1111 I-0.4331 J0.0000 
G1 G91 G2 X0.0000 Y0.0000 Z-0.1111 I-0.4331 J0.0000 
G1 G91 G2 X0.0000 Y0.0000 Z-0.1111 I-0.4331 J0.0000 
G1 G91 G40 X-0.4331 Y0.0000
G1 G90 Z7.6000 F0.300
G0 G90 Z12.0000

(********** THREAD 7 *********)
(* ROUGH 4 D22.225MM/D0.875" *)
G0 G90 X16.5026 Y1.2437
G0 G90 Z8.5000
G1 G90 Z8.4000 F0.300
G1 G91 G42 X0.4375 Y0.0000 F0.010
G1 G91 G2 X0.0000 Y0.0000 Z-0.1111 I-0.4375 J0.0000 
G1 G91 G2 X0.0000 Y0.0000 Z-0.1111 I-0.4375 J0.0000 
G1 G91 G2 X0.0000 Y0.0000 Z-0.1111 I-0.4375 J0.0000 
G1 G91 G2 X0.0000 Y0.0000 Z-0.1111 I-0.4375 J0.0000 
G1 G91 G2 X0.0000 Y0.0000 Z-0.1111 I-0.4375 J0.0000 
G1 G91 G2 X0.0000 Y0.0000 Z-0.1111 I-0.4375 J0.0000 
G1 G91 G2 X0.0000 Y0.0000 Z-0.1111 I-0.4375 J0.0000 
G1 G91 G2 X0.0000 Y0.0000 Z-0.1111 I-0.4375 J0.0000 
G1 G91 G2 X0.0000 Y0.0000 Z-0.1111 I-0.4375 J0.0000   
G1 G91 G40 X-0.4375 Y0.0000
G1 G90 Z7.6000 F0.300
G0 G90 Z12.0000

(*************************************************)

(********** THREAD 8 ********)
(* ROUGH 1 D20.5MM/D0.8071" *)
G0 G90 X14.7437 Y3.0026
G0 G90 Z8.5000
M01
G1 G90 Z8.4000 F0.300
G1 G91 G42 X0.4035 Y0.0000 F0.010
G1 G91 G2 X0.0000 Y0.0000 Z-0.1111 I-0.4035 J0.0000 
G1 G91 G2 X0.0000 Y0.0000 Z-0.1111 I-0.4035 J0.0000 
G1 G91 G2 X0.0000 Y0.0000 Z-0.1111 I-0.4035 J0.0000 
G1 G91 G2 X0.0000 Y0.0000 Z-0.1111 I-0.4035 J0.0000 
G1 G91 G2 X0.0000 Y0.0000 Z-0.1111 I-0.4035 J0.0000 
G1 G91 G2 X0.0000 Y0.0000 Z-0.1111 I-0.4035 J0.0000 
G1 G91 G2 X0.0000 Y0.0000 Z-0.1111 I-0.4035 J0.0000 
G1 G91 G2 X0.0000 Y0.0000 Z-0.1111 I-0.4035 J0.0000 
G1 G91 G2 X0.0000 Y0.0000 Z-0.1111 I-0.4035 J0.0000  
G1 G91 G40 X-0.4035 Y0.0000
G1 G90 Z7.6000 F0.300
G0 G90 Z12.0000

(********** THREAD 8 ********)
(* ROUGH 2 D21.4MM/D0.8425" *)
G0 G90 X14.7437 Y3.0026
G0 G90 Z8.5000
G1 G90 Z8.4000 F0.300
G1 G91 G42 X0.4212 Y0.0000 F0.010
G1 G91 G2 X0.0000 Y0.0000 Z-0.1111 I-0.4212 J0.0000 
G1 G91 G2 X0.0000 Y0.0000 Z-0.1111 I-0.4212 J0.0000 
G1 G91 G2 X0.0000 Y0.0000 Z-0.1111 I-0.4212 J0.0000 
G1 G91 G2 X0.0000 Y0.0000 Z-0.1111 I-0.4212 J0.0000 
G1 G91 G2 X0.0000 Y0.0000 Z-0.1111 I-0.4212 J0.0000 
G1 G91 G2 X0.0000 Y0.0000 Z-0.1111 I-0.4212 J0.0000
G1 G91 G2 X0.0000 Y0.0000 Z-0.1111 I-0.4212 J0.0000 
G1 G91 G2 X0.0000 Y0.0000 Z-0.1111 I-0.4212 J0.0000 
G1 G91 G2 X0.0000 Y0.0000 Z-0.1111 I-0.4212 J0.0000   
G1 G91 G40 X-0.4212 Y0.0000
G1 G90 Z7.6000 F0.300
G0 G90 Z12.0000

(******** THREAD 8 ********)
(* ROUGH 3 D22MM/D0.8661" *)
G0 G90 X14.7437 Y3.0026
G0 G90 Z8.5000
G1 G90 Z8.4000 F0.300
G1 G91 G42 X0.4331 Y0.0000 F0.010
G1 G91 G2 X0.0000 Y0.0000 Z-0.1111 I-0.4331 J0.0000 
G1 G91 G2 X0.0000 Y0.0000 Z-0.1111 I-0.4331 J0.0000 
G1 G91 G2 X0.0000 Y0.0000 Z-0.1111 I-0.4331 J0.0000 
G1 G91 G2 X0.0000 Y0.0000 Z-0.1111 I-0.4331 J0.0000 
G1 G91 G2 X0.0000 Y0.0000 Z-0.1111 I-0.4331 J0.0000 
G1 G91 G2 X0.0000 Y0.0000 Z-0.1111 I-0.4331 J0.0000 
G1 G91 G2 X0.0000 Y0.0000 Z-0.1111 I-0.4331 J0.0000 
G1 G91 G2 X0.0000 Y0.0000 Z-0.1111 I-0.4331 J0.0000 
G1 G91 G2 X0.0000 Y0.0000 Z-0.1111 I-0.4331 J0.0000 
G1 G91 G40 X-0.4331 Y0.0000
G1 G90 Z7.6000 F0.300
G0 G90 Z12.0000

(********** THREAD 8 *********)
(* ROUGH 4 D22.225MM/D0.875" *)
G0 G90 X14.7437 Y3.0026
G0 G90 Z8.5000
G1 G90 Z8.4000 F0.300
G1 G91 G42 X0.4375 Y0.0000 F0.010
G1 G91 G2 X0.0000 Y0.0000 Z-0.1111 I-0.4375 J0.0000 
G1 G91 G2 X0.0000 Y0.0000 Z-0.1111 I-0.4375 J0.0000 
G1 G91 G2 X0.0000 Y0.0000 Z-0.1111 I-0.4375 J0.0000 
G1 G91 G2 X0.0000 Y0.0000 Z-0.1111 I-0.4375 J0.0000 
G1 G91 G2 X0.0000 Y0.0000 Z-0.1111 I-0.4375 J0.0000 
G1 G91 G2 X0.0000 Y0.0000 Z-0.1111 I-0.4375 J0.0000 
G1 G91 G2 X0.0000 Y0.0000 Z-0.1111 I-0.4375 J0.0000 
G1 G91 G2 X0.0000 Y0.0000 Z-0.1111 I-0.4375 J0.0000 
G1 G91 G2 X0.0000 Y0.0000 Z-0.1111 I-0.4375 J0.0000   
G1 G91 G40 X-0.4375 Y0.0000
G1 G90 Z7.6000 F0.300
G0 G90 Z12.0000
G0 Z15.0000
G49 G69
M9
M5
G91 G28 Z0 (1 - HOME Z)
G91 G28 X0 (2 - HOME X)
G91 G28 Y0 (3 - HOME Y)
G90
M0
M00

N25
(OPERATION: ROUGH - THREAD D7/8"-9UNC-2B)
(COMMENT: THREADING - ROUGH THREAD D7/8"-9UNC-2B VGS2.7.48)
(B AXIS ANGLE: 90.0 DEGREES)
(TOOL ID: TD10067 - TOOL DIAMETER: 16MM)
(TOOL COMMENT: THREAD MILL D16MM/D0.6299" TO 7/8"-9UNC-2B)
T032.01 M6
(T021.01) (TOOL ON HOLD)
G91 G28 Z0 (Z TO SAFETY)
G90
G55 G64
(**************************)
(* G55 WORK-OFFSET ACTIVE *)
(**************************)
G17 M200 M212 (MILLING MODE)
G10.9 X0 (RADIUS MODE)
G97 S1145 M3
M108 (UNCLAMP B AXIS)
G0 B90.
M107 (CLAMP B AXIS)
M212 (UNCLAMP C AXIS)
G0 C180.
M210 (CLAMP C AXIS)
G68 X0. Y0. Z0. I0. J1. K0. R90.
G0 Y0.0000
G0 X12.2563 Y3.0026 Z15.0000
G0 Z12.0000
G95
M51
(********** THREAD 1 ********)
(* ROUGH 1 D20.5MM/D0.8071" *)
G0 G90 X12.2563 Y3.0026
G0 G90 Z8.5000
G1 G90 Z8.4000 F0.300
G1 G91 G42 X0.4035 Y0.0000 F0.010
G1 G91 G2 X0.0000 Y0.0000 Z-0.1111 I-0.4035 J0.0000 
G1 G91 G2 X0.0000 Y0.0000 Z-0.1111 I-0.4035 J0.0000 
G1 G91 G2 X0.0000 Y0.0000 Z-0.1111 I-0.4035 J0.0000 
G1 G91 G2 X0.0000 Y0.0000 Z-0.1111 I-0.4035 J0.0000 
G1 G91 G2 X0.0000 Y0.0000 Z-0.1111 I-0.4035 J0.0000 
G1 G91 G2 X0.0000 Y0.0000 Z-0.1111 I-0.4035 J0.0000 
G1 G91 G2 X0.0000 Y0.0000 Z-0.1111 I-0.4035 J0.0000 
G1 G91 G2 X0.0000 Y0.0000 Z-0.1111 I-0.4035 J0.0000 
G1 G91 G2 X0.0000 Y0.0000 Z-0.1111 I-0.4035 J0.0000  
G1 G91 G40 X-0.4035 Y0.0000
G1 G90 Z7.6000 F0.300
G0 G90 Z12.0000
M01
(********** THREAD 1 ********)
(* ROUGH 2 D21.4MM/D0.8425" *)
G0 G90 X12.2563 Y3.0026
G0 G90 Z8.5000
G1 G90 Z8.4000 F0.300
G1 G91 G42 X0.4212 Y0.0000 F0.010
G1 G91 G2 X0.0000 Y0.0000 Z-0.1111 I-0.4212 J0.0000 
G1 G91 G2 X0.0000 Y0.0000 Z-0.1111 I-0.4212 J0.0000 
G1 G91 G2 X0.0000 Y0.0000 Z-0.1111 I-0.4212 J0.0000 
G1 G91 G2 X0.0000 Y0.0000 Z-0.1111 I-0.4212 J0.0000 
G1 G91 G2 X0.0000 Y0.0000 Z-0.1111 I-0.4212 J0.0000 
G1 G91 G2 X0.0000 Y0.0000 Z-0.1111 I-0.4212 J0.0000
G1 G91 G2 X0.0000 Y0.0000 Z-0.1111 I-0.4212 J0.0000 
G1 G91 G2 X0.0000 Y0.0000 Z-0.1111 I-0.4212 J0.0000 
G1 G91 G2 X0.0000 Y0.0000 Z-0.1111 I-0.4212 J0.0000   
G1 G91 G40 X-0.4212 Y0.0000
G1 G90 Z7.6000 F0.300
G0 G90 Z12.0000
M01
(********** THREAD 1 ********)
(* ROUGH 3 D22MM/D0.8661" *)
G0 G90 X12.2563 Y3.0026
G0 G90 Z8.5000
G1 G90 Z8.4000 F0.300
G1 G91 G42 X0.4331 Y0.0000 F0.010
G1 G91 G2 X0.0000 Y0.0000 Z-0.1111 I-0.4331 J0.0000 
G1 G91 G2 X0.0000 Y0.0000 Z-0.1111 I-0.4331 J0.0000 
G1 G91 G2 X0.0000 Y0.0000 Z-0.1111 I-0.4331 J0.0000 
G1 G91 G2 X0.0000 Y0.0000 Z-0.1111 I-0.4331 J0.0000 
G1 G91 G2 X0.0000 Y0.0000 Z-0.1111 I-0.4331 J0.0000 
G1 G91 G2 X0.0000 Y0.0000 Z-0.1111 I-0.4331 J0.0000 
G1 G91 G2 X0.0000 Y0.0000 Z-0.1111 I-0.4331 J0.0000 
G1 G91 G2 X0.0000 Y0.0000 Z-0.1111 I-0.4331 J0.0000 
G1 G91 G2 X0.0000 Y0.0000 Z-0.1111 I-0.4331 J0.0000 
G1 G91 G40 X-0.4331 Y0.0000
G1 G90 Z7.6000 F0.300
G0 G90 Z12.0000
M01
(********** THREAD 1 ********)
(* ROUGH 4 D22.225MM/D0.875" *)
G0 G90 X12.2563 Y3.0026
G0 G90 Z8.5000
G1 G90 Z8.4000 F0.300
G1 G91 G42 X0.4375 Y0.0000 F0.010
G1 G91 G2 X0.0000 Y0.0000 Z-0.1111 I-0.4375 J0.0000 
G1 G91 G2 X0.0000 Y0.0000 Z-0.1111 I-0.4375 J0.0000 
G1 G91 G2 X0.0000 Y0.0000 Z-0.1111 I-0.4375 J0.0000 
G1 G91 G2 X0.0000 Y0.0000 Z-0.1111 I-0.4375 J0.0000 
G1 G91 G2 X0.0000 Y0.0000 Z-0.1111 I-0.4375 J0.0000 
G1 G91 G2 X0.0000 Y0.0000 Z-0.1111 I-0.4375 J0.0000 
G1 G91 G2 X0.0000 Y0.0000 Z-0.1111 I-0.4375 J0.0000 
G1 G91 G2 X0.0000 Y0.0000 Z-0.1111 I-0.4375 J0.0000 
G1 G91 G2 X0.0000 Y0.0000 Z-0.1111 I-0.4375 J0.0000   
G1 G91 G40 X-0.4375 Y0.0000
G1 G90 Z7.6000 F0.300
G0 G90 Z12.0000

(********** THREAD 2 ********)
(* ROUGH 1 D20.5MM/D0.8071" *)
G0 G90 X10.4974 Y1.2437
G0 G90 Z8.5000
M01
G1 G90 Z8.4000 F0.300
G1 G91 G42 X0.4035 Y0.0000 F0.010
G1 G91 G2 X0.0000 Y0.0000 Z-0.1111 I-0.4035 J0.0000 
G1 G91 G2 X0.0000 Y0.0000 Z-0.1111 I-0.4035 J0.0000 
G1 G91 G2 X0.0000 Y0.0000 Z-0.1111 I-0.4035 J0.0000 
G1 G91 G2 X0.0000 Y0.0000 Z-0.1111 I-0.4035 J0.0000 
G1 G91 G2 X0.0000 Y0.0000 Z-0.1111 I-0.4035 J0.0000 
G1 G91 G2 X0.0000 Y0.0000 Z-0.1111 I-0.4035 J0.0000 
G1 G91 G2 X0.0000 Y0.0000 Z-0.1111 I-0.4035 J0.0000 
G1 G91 G2 X0.0000 Y0.0000 Z-0.1111 I-0.4035 J0.0000 
G1 G91 G2 X0.0000 Y0.0000 Z-0.1111 I-0.4035 J0.0000  
G1 G91 G40 X-0.4035 Y0.0000
G1 G90 Z7.6000 F0.300
G0 G90 Z12.0000

(********** THREAD 2 ********)
(* ROUGH 2 D21.4MM/D0.8425" *)
G0 G90 X10.4974 Y1.2437
G0 G90 Z8.5000
G1 G90 Z8.4000 F0.300
G1 G91 G42 X0.4212 Y0.0000 F0.010
G1 G91 G2 X0.0000 Y0.0000 Z-0.1111 I-0.4212 J0.0000 
G1 G91 G2 X0.0000 Y0.0000 Z-0.1111 I-0.4212 J0.0000 
G1 G91 G2 X0.0000 Y0.0000 Z-0.1111 I-0.4212 J0.0000 
G1 G91 G2 X0.0000 Y0.0000 Z-0.1111 I-0.4212 J0.0000 
G1 G91 G2 X0.0000 Y0.0000 Z-0.1111 I-0.4212 J0.0000 
G1 G91 G2 X0.0000 Y0.0000 Z-0.1111 I-0.4212 J0.0000
G1 G91 G2 X0.0000 Y0.0000 Z-0.1111 I-0.4212 J0.0000 
G1 G91 G2 X0.0000 Y0.0000 Z-0.1111 I-0.4212 J0.0000 
G1 G91 G2 X0.0000 Y0.0000 Z-0.1111 I-0.4212 J0.0000   
G1 G91 G40 X-0.4212 Y0.0000
G1 G90 Z7.6000 F0.300
G0 G90 Z12.0000

(********** THREAD 2 ********)
(* ROUGH 3 D22MM/D0.8661" *)
G0 G90 X10.4974 Y1.2437
G0 G90 Z8.5000
G1 G90 Z8.4000 F0.300
G1 G91 G42 X0.4331 Y0.0000 F0.010
G1 G91 G2 X0.0000 Y0.0000 Z-0.1111 I-0.4331 J0.0000 
G1 G91 G2 X0.0000 Y0.0000 Z-0.1111 I-0.4331 J0.0000 
G1 G91 G2 X0.0000 Y0.0000 Z-0.1111 I-0.4331 J0.0000 
G1 G91 G2 X0.0000 Y0.0000 Z-0.1111 I-0.4331 J0.0000 
G1 G91 G2 X0.0000 Y0.0000 Z-0.1111 I-0.4331 J0.0000 
G1 G91 G2 X0.0000 Y0.0000 Z-0.1111 I-0.4331 J0.0000 
G1 G91 G2 X0.0000 Y0.0000 Z-0.1111 I-0.4331 J0.0000 
G1 G91 G2 X0.0000 Y0.0000 Z-0.1111 I-0.4331 J0.0000 
G1 G91 G2 X0.0000 Y0.0000 Z-0.1111 I-0.4331 J0.0000 
G1 G91 G40 X-0.4331 Y0.0000
G1 G90 Z7.6000 F0.300
G0 G90 Z12.0000

(********** THREAD 2 ********)
(* ROUGH 4 D22.225MM/D0.875" *)
G0 G90 X10.4974 Y1.2437
G0 G90 Z8.5000
G1 G90 Z8.4000 F0.300
G1 G91 G42 X0.4375 Y0.0000 F0.010
G1 G91 G2 X0.0000 Y0.0000 Z-0.1111 I-0.4375 J0.0000 
G1 G91 G2 X0.0000 Y0.0000 Z-0.1111 I-0.4375 J0.0000 
G1 G91 G2 X0.0000 Y0.0000 Z-0.1111 I-0.4375 J0.0000 
G1 G91 G2 X0.0000 Y0.0000 Z-0.1111 I-0.4375 J0.0000 
G1 G91 G2 X0.0000 Y0.0000 Z-0.1111 I-0.4375 J0.0000 
G1 G91 G2 X0.0000 Y0.0000 Z-0.1111 I-0.4375 J0.0000 
G1 G91 G2 X0.0000 Y0.0000 Z-0.1111 I-0.4375 J0.0000 
G1 G91 G2 X0.0000 Y0.0000 Z-0.1111 I-0.4375 J0.0000 
G1 G91 G2 X0.0000 Y0.0000 Z-0.1111 I-0.4375 J0.0000   
G1 G91 G40 X-0.4375 Y0.0000
G1 G90 Z7.6000 F0.300
G0 G90 Z12.0000

(*************************************************)

(********** THREAD 3 ********)
(* ROUGH 1 D20.5MM/D0.8071" *)
G0 G90 X10.4974 Y-1.2437
G0 G90 Z8.5000
M01
G1 G90 Z8.4000 F0.300
G1 G91 G42 X0.4035 Y0.0000 F0.010
G1 G91 G2 X0.0000 Y0.0000 Z-0.1111 I-0.4035 J0.0000 
G1 G91 G2 X0.0000 Y0.0000 Z-0.1111 I-0.4035 J0.0000 
G1 G91 G2 X0.0000 Y0.0000 Z-0.1111 I-0.4035 J0.0000 
G1 G91 G2 X0.0000 Y0.0000 Z-0.1111 I-0.4035 J0.0000 
G1 G91 G2 X0.0000 Y0.0000 Z-0.1111 I-0.4035 J0.0000 
G1 G91 G2 X0.0000 Y0.0000 Z-0.1111 I-0.4035 J0.0000 
G1 G91 G2 X0.0000 Y0.0000 Z-0.1111 I-0.4035 J0.0000 
G1 G91 G2 X0.0000 Y0.0000 Z-0.1111 I-0.4035 J0.0000 
G1 G91 G2 X0.0000 Y0.0000 Z-0.1111 I-0.4035 J0.0000  
G1 G91 G40 X-0.4035 Y0.0000
G1 G90 Z7.6000 F0.300
G0 G90 Z12.0000

(********** THREAD 3 ********)
(* ROUGH 2 D21.4MM/D0.8425" *)
G0 G90 X10.4974 Y-1.2437
G0 G90 Z8.5000
G1 G90 Z8.4000 F0.300
G1 G91 G42 X0.4212 Y0.0000 F0.010
G1 G91 G2 X0.0000 Y0.0000 Z-0.1111 I-0.4212 J0.0000 
G1 G91 G2 X0.0000 Y0.0000 Z-0.1111 I-0.4212 J0.0000 
G1 G91 G2 X0.0000 Y0.0000 Z-0.1111 I-0.4212 J0.0000 
G1 G91 G2 X0.0000 Y0.0000 Z-0.1111 I-0.4212 J0.0000 
G1 G91 G2 X0.0000 Y0.0000 Z-0.1111 I-0.4212 J0.0000 
G1 G91 G2 X0.0000 Y0.0000 Z-0.1111 I-0.4212 J0.0000
G1 G91 G2 X0.0000 Y0.0000 Z-0.1111 I-0.4212 J0.0000 
G1 G91 G2 X0.0000 Y0.0000 Z-0.1111 I-0.4212 J0.0000 
G1 G91 G2 X0.0000 Y0.0000 Z-0.1111 I-0.4212 J0.0000   
G1 G91 G40 X-0.4212 Y0.0000
G1 G90 Z7.6000 F0.300
G0 G90 Z12.0000

(********** THREAD 3 ********)
(* ROUGH 3 D22MM/D0.8661" *)
G0 G90 X10.4974 Y-1.2437
G0 G90 Z8.5000
G1 G90 Z8.4000 F0.300
G1 G91 G42 X0.4331 Y0.0000 F0.010
G1 G91 G2 X0.0000 Y0.0000 Z-0.1111 I-0.4331 J0.0000 
G1 G91 G2 X0.0000 Y0.0000 Z-0.1111 I-0.4331 J0.0000 
G1 G91 G2 X0.0000 Y0.0000 Z-0.1111 I-0.4331 J0.0000 
G1 G91 G2 X0.0000 Y0.0000 Z-0.1111 I-0.4331 J0.0000 
G1 G91 G2 X0.0000 Y0.0000 Z-0.1111 I-0.4331 J0.0000 
G1 G91 G2 X0.0000 Y0.0000 Z-0.1111 I-0.4331 J0.0000 
G1 G91 G2 X0.0000 Y0.0000 Z-0.1111 I-0.4331 J0.0000 
G1 G91 G2 X0.0000 Y0.0000 Z-0.1111 I-0.4331 J0.0000 
G1 G91 G2 X0.0000 Y0.0000 Z-0.1111 I-0.4331 J0.0000 
G1 G91 G40 X-0.4331 Y0.0000
G1 G90 Z7.6000 F0.300
G0 G90 Z12.0000

(********** THREAD 3 ********)
(* ROUGH 4 D22.225MM/D0.875" *)
G0 G90 X10.4974 Y-1.2437
G0 G90 Z8.5000
G1 G90 Z8.4000 F0.300
G1 G91 G42 X0.4375 Y0.0000 F0.010
G1 G91 G2 X0.0000 Y0.0000 Z-0.1111 I-0.4375 J0.0000 
G1 G91 G2 X0.0000 Y0.0000 Z-0.1111 I-0.4375 J0.0000 
G1 G91 G2 X0.0000 Y0.0000 Z-0.1111 I-0.4375 J0.0000 
G1 G91 G2 X0.0000 Y0.0000 Z-0.1111 I-0.4375 J0.0000 
G1 G91 G2 X0.0000 Y0.0000 Z-0.1111 I-0.4375 J0.0000 
G1 G91 G2 X0.0000 Y0.0000 Z-0.1111 I-0.4375 J0.0000 
G1 G91 G2 X0.0000 Y0.0000 Z-0.1111 I-0.4375 J0.0000 
G1 G91 G2 X0.0000 Y0.0000 Z-0.1111 I-0.4375 J0.0000 
G1 G91 G2 X0.0000 Y0.0000 Z-0.1111 I-0.4375 J0.0000   
G1 G91 G40 X-0.4375 Y0.0000
G1 G90 Z7.6000 F0.300
G0 G90 Z12.0000

(*************************************************)

(********** THREAD 4 ********)
(* ROUGH 1 D20.5MM/D0.8071" *)
G0 G90 X12.2563 Y-3.0026
G0 G90 Z8.5000
M01
G1 G90 Z8.4000 F0.300
G1 G91 G42 X0.4035 Y0.0000 F0.010
G1 G91 G2 X0.0000 Y0.0000 Z-0.1111 I-0.4035 J0.0000 
G1 G91 G2 X0.0000 Y0.0000 Z-0.1111 I-0.4035 J0.0000 
G1 G91 G2 X0.0000 Y0.0000 Z-0.1111 I-0.4035 J0.0000 
G1 G91 G2 X0.0000 Y0.0000 Z-0.1111 I-0.4035 J0.0000 
G1 G91 G2 X0.0000 Y0.0000 Z-0.1111 I-0.4035 J0.0000 
G1 G91 G2 X0.0000 Y0.0000 Z-0.1111 I-0.4035 J0.0000 
G1 G91 G2 X0.0000 Y0.0000 Z-0.1111 I-0.4035 J0.0000 
G1 G91 G2 X0.0000 Y0.0000 Z-0.1111 I-0.4035 J0.0000 
G1 G91 G2 X0.0000 Y0.0000 Z-0.1111 I-0.4035 J0.0000  
G1 G91 G40 X-0.4035 Y0.0000
G1 G90 Z7.6000 F0.300
G0 G90 Z12.0000

(********** THREAD 4 ********)
(* ROUGH 2 D21.4MM/D0.8425" *)
G0 G90 X12.2563 Y-3.0026
G0 G90 Z8.5000
G1 G90 Z8.4000 F0.300
G1 G91 G42 X0.4212 Y0.0000 F0.010
G1 G91 G2 X0.0000 Y0.0000 Z-0.1111 I-0.4212 J0.0000 
G1 G91 G2 X0.0000 Y0.0000 Z-0.1111 I-0.4212 J0.0000 
G1 G91 G2 X0.0000 Y0.0000 Z-0.1111 I-0.4212 J0.0000 
G1 G91 G2 X0.0000 Y0.0000 Z-0.1111 I-0.4212 J0.0000 
G1 G91 G2 X0.0000 Y0.0000 Z-0.1111 I-0.4212 J0.0000 
G1 G91 G2 X0.0000 Y0.0000 Z-0.1111 I-0.4212 J0.0000
G1 G91 G2 X0.0000 Y0.0000 Z-0.1111 I-0.4212 J0.0000 
G1 G91 G2 X0.0000 Y0.0000 Z-0.1111 I-0.4212 J0.0000 
G1 G91 G2 X0.0000 Y0.0000 Z-0.1111 I-0.4212 J0.0000   
G1 G91 G40 X-0.4212 Y0.0000
G1 G90 Z7.6000 F0.300
G0 G90 Z12.0000

(********** THREAD 4 ********)
(* ROUGH 3 D22MM/D0.8661" *)
G0 G90 X12.2563 Y-3.0026
G0 G90 Z8.5000
G1 G90 Z8.4000 F0.300
G1 G91 G42 X0.4331 Y0.0000 F0.010
G1 G91 G2 X0.0000 Y0.0000 Z-0.1111 I-0.4331 J0.0000 
G1 G91 G2 X0.0000 Y0.0000 Z-0.1111 I-0.4331 J0.0000 
G1 G91 G2 X0.0000 Y0.0000 Z-0.1111 I-0.4331 J0.0000 
G1 G91 G2 X0.0000 Y0.0000 Z-0.1111 I-0.4331 J0.0000 
G1 G91 G2 X0.0000 Y0.0000 Z-0.1111 I-0.4331 J0.0000 
G1 G91 G2 X0.0000 Y0.0000 Z-0.1111 I-0.4331 J0.0000 
G1 G91 G2 X0.0000 Y0.0000 Z-0.1111 I-0.4331 J0.0000 
G1 G91 G2 X0.0000 Y0.0000 Z-0.1111 I-0.4331 J0.0000 
G1 G91 G2 X0.0000 Y0.0000 Z-0.1111 I-0.4331 J0.0000 
G1 G91 G40 X-0.4331 Y0.0000
G1 G90 Z7.6000 F0.300
G0 G90 Z12.0000

(********** THREAD 4 ********)
(* ROUGH 4 D22.225MM/D0.875" *)
G0 G90 X12.2563 Y-3.0026
G0 G90 Z8.5000
G1 G90 Z8.4000 F0.300
G1 G91 G42 X0.4375 Y0.0000 F0.010
G1 G91 G2 X0.0000 Y0.0000 Z-0.1111 I-0.4375 J0.0000 
G1 G91 G2 X0.0000 Y0.0000 Z-0.1111 I-0.4375 J0.0000 
G1 G91 G2 X0.0000 Y0.0000 Z-0.1111 I-0.4375 J0.0000 
G1 G91 G2 X0.0000 Y0.0000 Z-0.1111 I-0.4375 J0.0000 
G1 G91 G2 X0.0000 Y0.0000 Z-0.1111 I-0.4375 J0.0000 
G1 G91 G2 X0.0000 Y0.0000 Z-0.1111 I-0.4375 J0.0000 
G1 G91 G2 X0.0000 Y0.0000 Z-0.1111 I-0.4375 J0.0000 
G1 G91 G2 X0.0000 Y0.0000 Z-0.1111 I-0.4375 J0.0000 
G1 G91 G2 X0.0000 Y0.0000 Z-0.1111 I-0.4375 J0.0000   
G1 G91 G40 X-0.4375 Y0.0000
G1 G90 Z7.6000 F0.300
G0 G90 Z12.0000

(*************************************************)

(********** THREAD 5 ********)
(* ROUGH 1 D20.5MM/D0.8071" *)
G0 G90 X14.7437 Y-3.0026
G0 G90 Z8.5000
M01
G1 G90 Z8.4000 F0.300
G1 G91 G42 X0.4035 Y0.0000 F0.010
G1 G91 G2 X0.0000 Y0.0000 Z-0.1111 I-0.4035 J0.0000 
G1 G91 G2 X0.0000 Y0.0000 Z-0.1111 I-0.4035 J0.0000 
G1 G91 G2 X0.0000 Y0.0000 Z-0.1111 I-0.4035 J0.0000 
G1 G91 G2 X0.0000 Y0.0000 Z-0.1111 I-0.4035 J0.0000 
G1 G91 G2 X0.0000 Y0.0000 Z-0.1111 I-0.4035 J0.0000 
G1 G91 G2 X0.0000 Y0.0000 Z-0.1111 I-0.4035 J0.0000 
G1 G91 G2 X0.0000 Y0.0000 Z-0.1111 I-0.4035 J0.0000 
G1 G91 G2 X0.0000 Y0.0000 Z-0.1111 I-0.4035 J0.0000 
G1 G91 G2 X0.0000 Y0.0000 Z-0.1111 I-0.4035 J0.0000  
G1 G91 G40 X-0.4035 Y0.0000
G1 G90 Z7.6000 F0.300
G0 G90 Z12.0000

(********** THREAD 5 ********)
(* ROUGH 2 D21.4MM/D0.8425" *)
G0 G90 X14.7437 Y-3.0026
G0 G90 Z8.5000
G1 G90 Z8.4000 F0.300
G1 G91 G42 X0.4212 Y0.0000 F0.010
G1 G91 G2 X0.0000 Y0.0000 Z-0.1111 I-0.4212 J0.0000 
G1 G91 G2 X0.0000 Y0.0000 Z-0.1111 I-0.4212 J0.0000 
G1 G91 G2 X0.0000 Y0.0000 Z-0.1111 I-0.4212 J0.0000 
G1 G91 G2 X0.0000 Y0.0000 Z-0.1111 I-0.4212 J0.0000 
G1 G91 G2 X0.0000 Y0.0000 Z-0.1111 I-0.4212 J0.0000 
G1 G91 G2 X0.0000 Y0.0000 Z-0.1111 I-0.4212 J0.0000
G1 G91 G2 X0.0000 Y0.0000 Z-0.1111 I-0.4212 J0.0000 
G1 G91 G2 X0.0000 Y0.0000 Z-0.1111 I-0.4212 J0.0000 
G1 G91 G2 X0.0000 Y0.0000 Z-0.1111 I-0.4212 J0.0000   
G1 G91 G40 X-0.4212 Y0.0000
G1 G90 Z7.6000 F0.300
G0 G90 Z12.0000

(********** THREAD 5 ********)
(* ROUGH 3 D22MM/D0.8661" *)
G0 G90 X14.7437 Y-3.0026
G0 G90 Z8.5000
G1 G90 Z8.4000 F0.300
G1 G91 G42 X0.4331 Y0.0000 F0.010
G1 G91 G2 X0.0000 Y0.0000 Z-0.1111 I-0.4331 J0.0000 
G1 G91 G2 X0.0000 Y0.0000 Z-0.1111 I-0.4331 J0.0000 
G1 G91 G2 X0.0000 Y0.0000 Z-0.1111 I-0.4331 J0.0000 
G1 G91 G2 X0.0000 Y0.0000 Z-0.1111 I-0.4331 J0.0000 
G1 G91 G2 X0.0000 Y0.0000 Z-0.1111 I-0.4331 J0.0000 
G1 G91 G2 X0.0000 Y0.0000 Z-0.1111 I-0.4331 J0.0000 
G1 G91 G2 X0.0000 Y0.0000 Z-0.1111 I-0.4331 J0.0000 
G1 G91 G2 X0.0000 Y0.0000 Z-0.1111 I-0.4331 J0.0000 
G1 G91 G2 X0.0000 Y0.0000 Z-0.1111 I-0.4331 J0.0000 
G1 G91 G40 X-0.4331 Y0.0000
G1 G90 Z7.6000 F0.300
G0 G90 Z12.0000

(********* THREAD 5 **********)
(* ROUGH 4 D22.225MM/D0.875" *)
G0 G90 X14.7437 Y-3.0026
G0 G90 Z8.5000
G1 G90 Z8.4000 F0.300
G1 G91 G42 X0.4375 Y0.0000 F0.010
G1 G91 G2 X0.0000 Y0.0000 Z-0.1111 I-0.4375 J0.0000 
G1 G91 G2 X0.0000 Y0.0000 Z-0.1111 I-0.4375 J0.0000 
G1 G91 G2 X0.0000 Y0.0000 Z-0.1111 I-0.4375 J0.0000 
G1 G91 G2 X0.0000 Y0.0000 Z-0.1111 I-0.4375 J0.0000 
G1 G91 G2 X0.0000 Y0.0000 Z-0.1111 I-0.4375 J0.0000 
G1 G91 G2 X0.0000 Y0.0000 Z-0.1111 I-0.4375 J0.0000 
G1 G91 G2 X0.0000 Y0.0000 Z-0.1111 I-0.4375 J0.0000 
G1 G91 G2 X0.0000 Y0.0000 Z-0.1111 I-0.4375 J0.0000 
G1 G91 G2 X0.0000 Y0.0000 Z-0.1111 I-0.4375 J0.0000   
G1 G91 G40 X-0.4375 Y0.0000
G1 G90 Z7.6000 F0.300
G0 G90 Z12.0000

(*************************************************)

(********* THREAD 6 *********)
(* ROUGH 1 D20.5MM/D0.8071" *)
G0 G90 X16.5026 Y-1.2437
G0 G90 Z8.5000
M01
G1 G90 Z8.4000 F0.300
G1 G91 G42 X0.4035 Y0.0000 F0.010
G1 G91 G2 X0.0000 Y0.0000 Z-0.1111 I-0.4035 J0.0000 
G1 G91 G2 X0.0000 Y0.0000 Z-0.1111 I-0.4035 J0.0000 
G1 G91 G2 X0.0000 Y0.0000 Z-0.1111 I-0.4035 J0.0000 
G1 G91 G2 X0.0000 Y0.0000 Z-0.1111 I-0.4035 J0.0000 
G1 G91 G2 X0.0000 Y0.0000 Z-0.1111 I-0.4035 J0.0000 
G1 G91 G2 X0.0000 Y0.0000 Z-0.1111 I-0.4035 J0.0000 
G1 G91 G2 X0.0000 Y0.0000 Z-0.1111 I-0.4035 J0.0000 
G1 G91 G2 X0.0000 Y0.0000 Z-0.1111 I-0.4035 J0.0000 
G1 G91 G2 X0.0000 Y0.0000 Z-0.1111 I-0.4035 J0.0000  
G1 G91 G40 X-0.4035 Y0.0000
G1 G90 Z7.6000 F0.300
G0 G90 Z12.0000

(********** THREAD 6 ********)
(* ROUGH 2 D21.4MM/D0.8425" *)
G0 G90 X16.5026 Y-1.2437
G0 G90 Z8.5000
G1 G90 Z8.4000 F0.300
G1 G91 G42 X0.4212 Y0.0000 F0.010
G1 G91 G2 X0.0000 Y0.0000 Z-0.1111 I-0.4212 J0.0000 
G1 G91 G2 X0.0000 Y0.0000 Z-0.1111 I-0.4212 J0.0000 
G1 G91 G2 X0.0000 Y0.0000 Z-0.1111 I-0.4212 J0.0000 
G1 G91 G2 X0.0000 Y0.0000 Z-0.1111 I-0.4212 J0.0000 
G1 G91 G2 X0.0000 Y0.0000 Z-0.1111 I-0.4212 J0.0000 
G1 G91 G2 X0.0000 Y0.0000 Z-0.1111 I-0.4212 J0.0000
G1 G91 G2 X0.0000 Y0.0000 Z-0.1111 I-0.4212 J0.0000 
G1 G91 G2 X0.0000 Y0.0000 Z-0.1111 I-0.4212 J0.0000 
G1 G91 G2 X0.0000 Y0.0000 Z-0.1111 I-0.4212 J0.0000   
G1 G91 G40 X-0.4212 Y0.0000
G1 G90 Z7.6000 F0.300
G0 G90 Z12.0000

(******** THREAD 6 ********)
(* ROUGH 3 D22MM/D0.8661" *)
G0 G90 X16.5026 Y-1.2437
G0 G90 Z8.5000
G1 G90 Z8.4000 F0.300
G1 G91 G42 X0.4331 Y0.0000 F0.010
G1 G91 G2 X0.0000 Y0.0000 Z-0.1111 I-0.4331 J0.0000 
G1 G91 G2 X0.0000 Y0.0000 Z-0.1111 I-0.4331 J0.0000 
G1 G91 G2 X0.0000 Y0.0000 Z-0.1111 I-0.4331 J0.0000 
G1 G91 G2 X0.0000 Y0.0000 Z-0.1111 I-0.4331 J0.0000 
G1 G91 G2 X0.0000 Y0.0000 Z-0.1111 I-0.4331 J0.0000 
G1 G91 G2 X0.0000 Y0.0000 Z-0.1111 I-0.4331 J0.0000 
G1 G91 G2 X0.0000 Y0.0000 Z-0.1111 I-0.4331 J0.0000 
G1 G91 G2 X0.0000 Y0.0000 Z-0.1111 I-0.4331 J0.0000 
G1 G91 G2 X0.0000 Y0.0000 Z-0.1111 I-0.4331 J0.0000 
G1 G91 G40 X-0.4331 Y0.0000
G1 G90 Z7.6000 F0.300
G0 G90 Z12.0000

(********** THREAD 6 ********)
(* ROUGH 4 D22.225MM/D0.875" *)
G0 G90 X16.5026 Y-1.2437
G0 G90 Z8.5000
G1 G90 Z8.4000 F0.300
G1 G91 G42 X0.4375 Y0.0000 F0.010
G1 G91 G2 X0.0000 Y0.0000 Z-0.1111 I-0.4375 J0.0000 
G1 G91 G2 X0.0000 Y0.0000 Z-0.1111 I-0.4375 J0.0000 
G1 G91 G2 X0.0000 Y0.0000 Z-0.1111 I-0.4375 J0.0000 
G1 G91 G2 X0.0000 Y0.0000 Z-0.1111 I-0.4375 J0.0000 
G1 G91 G2 X0.0000 Y0.0000 Z-0.1111 I-0.4375 J0.0000 
G1 G91 G2 X0.0000 Y0.0000 Z-0.1111 I-0.4375 J0.0000 
G1 G91 G2 X0.0000 Y0.0000 Z-0.1111 I-0.4375 J0.0000 
G1 G91 G2 X0.0000 Y0.0000 Z-0.1111 I-0.4375 J0.0000 
G1 G91 G2 X0.0000 Y0.0000 Z-0.1111 I-0.4375 J0.0000   
G1 G91 G40 X-0.4375 Y0.0000
G1 G90 Z7.6000 F0.300
G0 G90 Z12.0000

(*************************************************)

(********** THREAD 7 ********)
(* ROUGH 1 D20.5MM/D0.8071" *)
G0 G90 X16.5026 Y1.2437
G0 G90 Z8.5000
M01
G1 G90 Z8.4000 F0.300
G1 G91 G42 X0.4035 Y0.0000 F0.010
G1 G91 G2 X0.0000 Y0.0000 Z-0.1111 I-0.4035 J0.0000 
G1 G91 G2 X0.0000 Y0.0000 Z-0.1111 I-0.4035 J0.0000 
G1 G91 G2 X0.0000 Y0.0000 Z-0.1111 I-0.4035 J0.0000 
G1 G91 G2 X0.0000 Y0.0000 Z-0.1111 I-0.4035 J0.0000 
G1 G91 G2 X0.0000 Y0.0000 Z-0.1111 I-0.4035 J0.0000 
G1 G91 G2 X0.0000 Y0.0000 Z-0.1111 I-0.4035 J0.0000 
G1 G91 G2 X0.0000 Y0.0000 Z-0.1111 I-0.4035 J0.0000 
G1 G91 G2 X0.0000 Y0.0000 Z-0.1111 I-0.4035 J0.0000 
G1 G91 G2 X0.0000 Y0.0000 Z-0.1111 I-0.4035 J0.0000  
G1 G91 G40 X-0.4035 Y0.0000
G1 G90 Z7.6000 F0.300
G0 G90 Z12.0000

(********** THREAD 7 ********)
(* ROUGH 2 D21.4MM/D0.8425" *)
G0 G90 X16.5026 Y1.2437
G0 G90 Z8.5000
G1 G90 Z8.4000 F0.300
G1 G91 G42 X0.4212 Y0.0000 F0.010
G1 G91 G2 X0.0000 Y0.0000 Z-0.1111 I-0.4212 J0.0000 
G1 G91 G2 X0.0000 Y0.0000 Z-0.1111 I-0.4212 J0.0000 
G1 G91 G2 X0.0000 Y0.0000 Z-0.1111 I-0.4212 J0.0000 
G1 G91 G2 X0.0000 Y0.0000 Z-0.1111 I-0.4212 J0.0000 
G1 G91 G2 X0.0000 Y0.0000 Z-0.1111 I-0.4212 J0.0000 
G1 G91 G2 X0.0000 Y0.0000 Z-0.1111 I-0.4212 J0.0000
G1 G91 G2 X0.0000 Y0.0000 Z-0.1111 I-0.4212 J0.0000 
G1 G91 G2 X0.0000 Y0.0000 Z-0.1111 I-0.4212 J0.0000 
G1 G91 G2 X0.0000 Y0.0000 Z-0.1111 I-0.4212 J0.0000   
G1 G91 G40 X-0.4212 Y0.0000
G1 G90 Z7.6000 F0.300
G0 G90 Z12.0000

(******** THREAD 7 ********)
(* ROUGH 3 D22MM/D0.8661" *)
G0 G90 X16.5026 Y1.2437
G0 G90 Z8.5000
G1 G90 Z8.4000 F0.300
G1 G91 G42 X0.4331 Y0.0000 F0.010
G1 G91 G2 X0.0000 Y0.0000 Z-0.1111 I-0.4331 J0.0000 
G1 G91 G2 X0.0000 Y0.0000 Z-0.1111 I-0.4331 J0.0000 
G1 G91 G2 X0.0000 Y0.0000 Z-0.1111 I-0.4331 J0.0000 
G1 G91 G2 X0.0000 Y0.0000 Z-0.1111 I-0.4331 J0.0000 
G1 G91 G2 X0.0000 Y0.0000 Z-0.1111 I-0.4331 J0.0000 
G1 G91 G2 X0.0000 Y0.0000 Z-0.1111 I-0.4331 J0.0000 
G1 G91 G2 X0.0000 Y0.0000 Z-0.1111 I-0.4331 J0.0000 
G1 G91 G2 X0.0000 Y0.0000 Z-0.1111 I-0.4331 J0.0000 
G1 G91 G2 X0.0000 Y0.0000 Z-0.1111 I-0.4331 J0.0000 
G1 G91 G40 X-0.4331 Y0.0000
G1 G90 Z7.6000 F0.300
G0 G90 Z12.0000

(********** THREAD 7 *********)
(* ROUGH 4 D22.225MM/D0.875" *)
G0 G90 X16.5026 Y1.2437
G0 G90 Z8.5000
G1 G90 Z8.4000 F0.300
G1 G91 G42 X0.4375 Y0.0000 F0.010
G1 G91 G2 X0.0000 Y0.0000 Z-0.1111 I-0.4375 J0.0000 
G1 G91 G2 X0.0000 Y0.0000 Z-0.1111 I-0.4375 J0.0000 
G1 G91 G2 X0.0000 Y0.0000 Z-0.1111 I-0.4375 J0.0000 
G1 G91 G2 X0.0000 Y0.0000 Z-0.1111 I-0.4375 J0.0000 
G1 G91 G2 X0.0000 Y0.0000 Z-0.1111 I-0.4375 J0.0000 
G1 G91 G2 X0.0000 Y0.0000 Z-0.1111 I-0.4375 J0.0000 
G1 G91 G2 X0.0000 Y0.0000 Z-0.1111 I-0.4375 J0.0000 
G1 G91 G2 X0.0000 Y0.0000 Z-0.1111 I-0.4375 J0.0000 
G1 G91 G2 X0.0000 Y0.0000 Z-0.1111 I-0.4375 J0.0000   
G1 G91 G40 X-0.4375 Y0.0000
G1 G90 Z7.6000 F0.300
G0 G90 Z12.0000

(*************************************************)

(********** THREAD 8 ********)
(* ROUGH 1 D20.5MM/D0.8071" *)
G0 G90 X14.7437 Y3.0026
G0 G90 Z8.5000
M01
G1 G90 Z8.4000 F0.300
G1 G91 G42 X0.4035 Y0.0000 F0.010
G1 G91 G2 X0.0000 Y0.0000 Z-0.1111 I-0.4035 J0.0000 
G1 G91 G2 X0.0000 Y0.0000 Z-0.1111 I-0.4035 J0.0000 
G1 G91 G2 X0.0000 Y0.0000 Z-0.1111 I-0.4035 J0.0000 
G1 G91 G2 X0.0000 Y0.0000 Z-0.1111 I-0.4035 J0.0000 
G1 G91 G2 X0.0000 Y0.0000 Z-0.1111 I-0.4035 J0.0000 
G1 G91 G2 X0.0000 Y0.0000 Z-0.1111 I-0.4035 J0.0000 
G1 G91 G2 X0.0000 Y0.0000 Z-0.1111 I-0.4035 J0.0000 
G1 G91 G2 X0.0000 Y0.0000 Z-0.1111 I-0.4035 J0.0000 
G1 G91 G2 X0.0000 Y0.0000 Z-0.1111 I-0.4035 J0.0000  
G1 G91 G40 X-0.4035 Y0.0000
G1 G90 Z7.6000 F0.300
G0 G90 Z12.0000

(********** THREAD 8 ********)
(* ROUGH 2 D21.4MM/D0.8425" *)
G0 G90 X14.7437 Y3.0026
G0 G90 Z8.5000
G1 G90 Z8.4000 F0.300
G1 G91 G42 X0.4212 Y0.0000 F0.010
G1 G91 G2 X0.0000 Y0.0000 Z-0.1111 I-0.4212 J0.0000 
G1 G91 G2 X0.0000 Y0.0000 Z-0.1111 I-0.4212 J0.0000 
G1 G91 G2 X0.0000 Y0.0000 Z-0.1111 I-0.4212 J0.0000 
G1 G91 G2 X0.0000 Y0.0000 Z-0.1111 I-0.4212 J0.0000 
G1 G91 G2 X0.0000 Y0.0000 Z-0.1111 I-0.4212 J0.0000 
G1 G91 G2 X0.0000 Y0.0000 Z-0.1111 I-0.4212 J0.0000
G1 G91 G2 X0.0000 Y0.0000 Z-0.1111 I-0.4212 J0.0000 
G1 G91 G2 X0.0000 Y0.0000 Z-0.1111 I-0.4212 J0.0000 
G1 G91 G2 X0.0000 Y0.0000 Z-0.1111 I-0.4212 J0.0000   
G1 G91 G40 X-0.4212 Y0.0000
G1 G90 Z7.6000 F0.300
G0 G90 Z12.0000

(******** THREAD 8 ********)
(* ROUGH 3 D22MM/D0.8661" *)
G0 G90 X14.7437 Y3.0026
G0 G90 Z8.5000
G1 G90 Z8.4000 F0.300
G1 G91 G42 X0.4331 Y0.0000 F0.010
G1 G91 G2 X0.0000 Y0.0000 Z-0.1111 I-0.4331 J0.0000 
G1 G91 G2 X0.0000 Y0.0000 Z-0.1111 I-0.4331 J0.0000 
G1 G91 G2 X0.0000 Y0.0000 Z-0.1111 I-0.4331 J0.0000 
G1 G91 G2 X0.0000 Y0.0000 Z-0.1111 I-0.4331 J0.0000 
G1 G91 G2 X0.0000 Y0.0000 Z-0.1111 I-0.4331 J0.0000 
G1 G91 G2 X0.0000 Y0.0000 Z-0.1111 I-0.4331 J0.0000 
G1 G91 G2 X0.0000 Y0.0000 Z-0.1111 I-0.4331 J0.0000 
G1 G91 G2 X0.0000 Y0.0000 Z-0.1111 I-0.4331 J0.0000 
G1 G91 G2 X0.0000 Y0.0000 Z-0.1111 I-0.4331 J0.0000 
G1 G91 G40 X-0.4331 Y0.0000
G1 G90 Z7.6000 F0.300
G0 G90 Z12.0000

(********** THREAD 8 *********)
(* ROUGH 4 D22.225MM/D0.875" *)
G0 G90 X14.7437 Y3.0026
G0 G90 Z8.5000
G1 G90 Z8.4000 F0.300
G1 G91 G42 X0.4375 Y0.0000 F0.010
G1 G91 G2 X0.0000 Y0.0000 Z-0.1111 I-0.4375 J0.0000 
G1 G91 G2 X0.0000 Y0.0000 Z-0.1111 I-0.4375 J0.0000 
G1 G91 G2 X0.0000 Y0.0000 Z-0.1111 I-0.4375 J0.0000 
G1 G91 G2 X0.0000 Y0.0000 Z-0.1111 I-0.4375 J0.0000 
G1 G91 G2 X0.0000 Y0.0000 Z-0.1111 I-0.4375 J0.0000 
G1 G91 G2 X0.0000 Y0.0000 Z-0.1111 I-0.4375 J0.0000 
G1 G91 G2 X0.0000 Y0.0000 Z-0.1111 I-0.4375 J0.0000 
G1 G91 G2 X0.0000 Y0.0000 Z-0.1111 I-0.4375 J0.0000 
G1 G91 G2 X0.0000 Y0.0000 Z-0.1111 I-0.4375 J0.0000   
G1 G91 G40 X-0.4375 Y0.0000
G1 G90 Z7.6000 F0.300
G0 G90 Z12.0000
G0 Z15.0000
G49 G69
M9
M5
G91 G28 Z0 (1 - HOME Z)
G91 G28 X0 (2 - HOME X)
G91 G28 Y0 (3 - HOME Y)
G90
M0
M00

N26
(OPERATION: FINISH -  THREAD D7/8"-9UNC-2B)
(COMMENT: THREADING - FINISH THREAD D7/8"-9UNC-2B VGS2.7.48)
(B AXIS ANGLE: 90.0 DEGREES)
(TOOL ID: TD10067 - TOOL DIAMETER: 16MM)
(TOOL COMMENT: THREAD MILL D16MM/D0.6299" TO 7/8"-9UNC-2B)
T032.01 M6
G91 G28 Z0 (Z TO SAFETY)
G90
G55 G64
(**************************)
(* G55 WORK-OFFSET ACTIVE *)
(**************************)
G17 M200 M212 (MILLING MODE)
G10.9 X0 (RADIUS MODE)
G97 S1700 M3
M108 (UNCLAMP B AXIS)
G0 B90.
M107 (CLAMP B AXIS)
M212 (UNCLAMP C AXIS)
G0 C0.
M210 (CLAMP C AXIS)
G68 X0. Y0. Z0. I0. J1. K0. R90.
G0 X12.2563 Y3.0026 Z15.0000
G0 Z12.0000
G95
M8     M51
(********* THREAD 1 *********)
(* FINISH D22.225MM/D0.875" *)
/G0 G90 X12.2563 Y3.0026
/G0 G90 Z8.5000 M51
/G1 G90 Z8.4000 F0.300
/G1 G91 G42 D1 X0.4375 Y0.0000 F0.010
/G1 G91 G2 X0.0000 Y0.0000 Z-0.1111 I-0.4375 J0.0000 
/G1 G91 G2 X0.0000 Y0.0000 Z-0.1111 I-0.4375 J0.0000 
/G1 G91 G2 X0.0000 Y0.0000 Z-0.1111 I-0.4375 J0.0000 
/G1 G91 G2 X0.0000 Y0.0000 Z-0.1111 I-0.4375 J0.0000 
/G1 G91 G2 X0.0000 Y0.0000 Z-0.1111 I-0.4375 J0.0000 
/G1 G91 G2 X0.0000 Y0.0000 Z-0.1111 I-0.4375 J0.0000 
/G1 G91 G2 X0.0000 Y0.0000 Z-0.1111 I-0.4375 J0.0000 
/G1 G91 G2 X0.0000 Y0.0000 Z-0.1111 I-0.4375 J0.0000 
/G1 G91 G2 X0.0000 Y0.0000 Z-0.1111 I-0.4375 J0.0000   
/G1 G91 G40 X-0.4375 Y0.0000
/G1 G90 Z7.6000 F0.300
/G0 G90 Z12.0000
(*************************************************)

(********* THREAD 2 *********)
(* FINISH D22.225MM/D0.875" *)
G0 G90 X10.4974 Y1.2437
G0 G90 Z8.5000
M01
G1 G90 Z8.4000 F0.300
G1 G91 G42 D1 X0.4375 Y0.0000 F0.010
G1 G91 G2 X0.0000 Y0.0000 Z-0.1111 I-0.4375 J0.0000 
G1 G91 G2 X0.0000 Y0.0000 Z-0.1111 I-0.4375 J0.0000 
G1 G91 G2 X0.0000 Y0.0000 Z-0.1111 I-0.4375 J0.0000 
G1 G91 G2 X0.0000 Y0.0000 Z-0.1111 I-0.4375 J0.0000 
G1 G91 G2 X0.0000 Y0.0000 Z-0.1111 I-0.4375 J0.0000 
G1 G91 G2 X0.0000 Y0.0000 Z-0.1111 I-0.4375 J0.0000 
G1 G91 G2 X0.0000 Y0.0000 Z-0.1111 I-0.4375 J0.0000 
G1 G91 G2 X0.0000 Y0.0000 Z-0.1111 I-0.4375 J0.0000 
G1 G91 G2 X0.0000 Y0.0000 Z-0.1111 I-0.4375 J0.0000   
G1 G91 G40 X-0.4375 Y0.0000
G1 G90 Z7.6000 F0.300
G0 G90 Z12.0000

(*************************************************)

(********* THREAD 3 *********)
(* FINISH D22.225MM/D0.875" *)
G0 G90 X10.4974 Y-1.2437
G0 G90 Z8.5000
M01
G1 G90 Z8.4000 F0.300
G1 G91 G42 D1 X0.4375 Y0.0000 F0.010
G1 G91 G2 X0.0000 Y0.0000 Z-0.1111 I-0.4375 J0.0000 
G1 G91 G2 X0.0000 Y0.0000 Z-0.1111 I-0.4375 J0.0000 
G1 G91 G2 X0.0000 Y0.0000 Z-0.1111 I-0.4375 J0.0000 
G1 G91 G2 X0.0000 Y0.0000 Z-0.1111 I-0.4375 J0.0000 
G1 G91 G2 X0.0000 Y0.0000 Z-0.1111 I-0.4375 J0.0000 
G1 G91 G2 X0.0000 Y0.0000 Z-0.1111 I-0.4375 J0.0000 
G1 G91 G2 X0.0000 Y0.0000 Z-0.1111 I-0.4375 J0.0000 
G1 G91 G2 X0.0000 Y0.0000 Z-0.1111 I-0.4375 J0.0000 
G1 G91 G2 X0.0000 Y0.0000 Z-0.1111 I-0.4375 J0.0000   
G1 G91 G40 X-0.4375 Y0.0000
G1 G90 Z7.6000 F0.300
G0 G90 Z12.0000

(*************************************************)

(********* THREAD 4 *********)
(* FINISH D22.225MM/D0.875" *)
G0 G90 X12.2563 Y-3.0026
G0 G90 Z8.5000
M01
G1 G90 Z8.4000 F0.300
G1 G91 G42 D1 X0.4375 Y0.0000 F0.010
G1 G91 G2 X0.0000 Y0.0000 Z-0.1111 I-0.4375 J0.0000 
G1 G91 G2 X0.0000 Y0.0000 Z-0.1111 I-0.4375 J0.0000 
G1 G91 G2 X0.0000 Y0.0000 Z-0.1111 I-0.4375 J0.0000 
G1 G91 G2 X0.0000 Y0.0000 Z-0.1111 I-0.4375 J0.0000 
G1 G91 G2 X0.0000 Y0.0000 Z-0.1111 I-0.4375 J0.0000 
G1 G91 G2 X0.0000 Y0.0000 Z-0.1111 I-0.4375 J0.0000 
G1 G91 G2 X0.0000 Y0.0000 Z-0.1111 I-0.4375 J0.0000 
G1 G91 G2 X0.0000 Y0.0000 Z-0.1111 I-0.4375 J0.0000 
G1 G91 G2 X0.0000 Y0.0000 Z-0.1111 I-0.4375 J0.0000   
G1 G91 G40 X-0.4375 Y0.0000
G1 G90 Z7.6000 F0.300
G0 G90 Z12.0000

(*************************************************)

(********* THREAD 5 *********)
(* FINISH D22.225MM/D0.875" *)
G0 G90 X14.7437 Y-3.0026
G0 G90 Z8.5000
M01
G1 G90 Z8.4000 F0.300
G1 G91 G42 D1 X0.4375 Y0.0000 F0.010
G1 G91 G2 X0.0000 Y0.0000 Z-0.1111 I-0.4375 J0.0000 
G1 G91 G2 X0.0000 Y0.0000 Z-0.1111 I-0.4375 J0.0000 
G1 G91 G2 X0.0000 Y0.0000 Z-0.1111 I-0.4375 J0.0000 
G1 G91 G2 X0.0000 Y0.0000 Z-0.1111 I-0.4375 J0.0000 
G1 G91 G2 X0.0000 Y0.0000 Z-0.1111 I-0.4375 J0.0000 
G1 G91 G2 X0.0000 Y0.0000 Z-0.1111 I-0.4375 J0.0000 
G1 G91 G2 X0.0000 Y0.0000 Z-0.1111 I-0.4375 J0.0000 
G1 G91 G2 X0.0000 Y0.0000 Z-0.1111 I-0.4375 J0.0000 
G1 G91 G2 X0.0000 Y0.0000 Z-0.1111 I-0.4375 J0.0000   
G1 G91 G40 X-0.4375 Y0.0000
G1 G90 Z7.6000 F0.300
G0 G90 Z12.0000

(*************************************************)

(********* THREAD 6 *********)
(* FINISH D22.225MM/D0.875" *)
G0 G90 X16.5026 Y-1.2437
G0 G90 Z8.5000
M01
G1 G90 Z8.4000 F0.300
G1 G91 G42 D1 X0.4375 Y0.0000 F0.010
G1 G91 G2 X0.0000 Y0.0000 Z-0.1111 I-0.4375 J0.0000 
G1 G91 G2 X0.0000 Y0.0000 Z-0.1111 I-0.4375 J0.0000 
G1 G91 G2 X0.0000 Y0.0000 Z-0.1111 I-0.4375 J0.0000 
G1 G91 G2 X0.0000 Y0.0000 Z-0.1111 I-0.4375 J0.0000 
G1 G91 G2 X0.0000 Y0.0000 Z-0.1111 I-0.4375 J0.0000 
G1 G91 G2 X0.0000 Y0.0000 Z-0.1111 I-0.4375 J0.0000 
G1 G91 G2 X0.0000 Y0.0000 Z-0.1111 I-0.4375 J0.0000 
G1 G91 G2 X0.0000 Y0.0000 Z-0.1111 I-0.4375 J0.0000 
G1 G91 G2 X0.0000 Y0.0000 Z-0.1111 I-0.4375 J0.0000   
G1 G91 G40 X-0.4375 Y0.0000
G1 G90 Z7.6000 F0.300
G0 G90 Z12.0000

(*************************************************)

(********* THREAD 7 *********)
(* FINISH D22.225MM/D0.875" *)
G0 G90 X16.5026 Y1.2437
G0 G90 Z8.5000
M01
G1 G90 Z8.4000 F0.300
G1 G91 G42 D1 X0.4375 Y0.0000 F0.010
G1 G91 G2 X0.0000 Y0.0000 Z-0.1111 I-0.4375 J0.0000 
G1 G91 G2 X0.0000 Y0.0000 Z-0.1111 I-0.4375 J0.0000 
G1 G91 G2 X0.0000 Y0.0000 Z-0.1111 I-0.4375 J0.0000 
G1 G91 G2 X0.0000 Y0.0000 Z-0.1111 I-0.4375 J0.0000 
G1 G91 G2 X0.0000 Y0.0000 Z-0.1111 I-0.4375 J0.0000 
G1 G91 G2 X0.0000 Y0.0000 Z-0.1111 I-0.4375 J0.0000 
G1 G91 G2 X0.0000 Y0.0000 Z-0.1111 I-0.4375 J0.0000 
G1 G91 G2 X0.0000 Y0.0000 Z-0.1111 I-0.4375 J0.0000 
G1 G91 G2 X0.0000 Y0.0000 Z-0.1111 I-0.4375 J0.0000   
G1 G91 G40 X-0.4375 Y0.0000
G1 G90 Z7.6000 F0.300
G0 G90 Z12.0000

(*************************************************)

(********* THREAD 8 *********)
(* FINISH D22.225MM/D0.875" *)
G0 G90 X14.7437 Y3.0026
G0 G90 Z8.5000
M01
G1 G90 Z8.4000 F0.300
G1 G91 G42 D1 X0.4375 Y0.0000 F0.010
G1 G91 G2 X0.0000 Y0.0000 Z-0.1111 I-0.4375 J0.0000 
G1 G91 G2 X0.0000 Y0.0000 Z-0.1111 I-0.4375 J0.0000 
G1 G91 G2 X0.0000 Y0.0000 Z-0.1111 I-0.4375 J0.0000 
G1 G91 G2 X0.0000 Y0.0000 Z-0.1111 I-0.4375 J0.0000 
G1 G91 G2 X0.0000 Y0.0000 Z-0.1111 I-0.4375 J0.0000 
G1 G91 G2 X0.0000 Y0.0000 Z-0.1111 I-0.4375 J0.0000 
G1 G91 G2 X0.0000 Y0.0000 Z-0.1111 I-0.4375 J0.0000 
G1 G91 G2 X0.0000 Y0.0000 Z-0.1111 I-0.4375 J0.0000 
G1 G91 G2 X0.0000 Y0.0000 Z-0.1111 I-0.4375 J0.0000   
G1 G91 G40 X-0.4375 Y0.0000
G1 G90 Z7.6000 F0.300
G0 G90 Z12.0000
G0 Z15.0000
G49 G69
M9
M5
G91 G28 Z0 (1 - HOME Z)
G91 G28 X0 (2 - HOME X)
G91 G28 Y0 (3 - HOME Y)
G90
M0 

N27
(OPERATION: FINISH -  THREAD D7/8"-9UNC-2B)
(COMMENT: THREADING - FINISH THREAD D7/8"-9UNC-2B VGS2.7.48)
(B AXIS ANGLE: 90.0 DEGREES)
(TOOL ID: TD10067 - TOOL DIAMETER: 16MM)
(TOOL COMMENT: THREAD MILL D16MM/D0.6299" TO 7/8"-9UNC-2B)
T032.01 M6
G91 G28 Z0 (Z TO SAFETY)
G90
G55 G64
(**************************)
(* G55 WORK-OFFSET ACTIVE *)
(**************************)
G17 M200 M212 (MILLING MODE)
G10.9 X0 (RADIUS MODE)
G97 S1700 M3
M108 (UNCLAMP B AXIS)
G0 B90.
M107 (CLAMP B AXIS)
M212 (UNCLAMP C AXIS)
G0 C180.
M210 (CLAMP C AXIS)
G68 X0. Y0. Z0. I0. J1. K0. R90.
G0 X12.2563 Y3.0026 Z15.0000
G0 Z12.0000
G95
M8     M51
(********* THREAD 1 *********)
(* FINISH D22.225MM/D0.875" *)
G0 G90 X12.2563 Y3.0026
G0 G90 Z8.5000 M51
G1 G90 Z8.4000 F0.300
G1 G91 G42 D1 X0.4375 Y0.0000 F0.010
G1 G91 G2 X0.0000 Y0.0000 Z-0.1111 I-0.4375 J0.0000 
G1 G91 G2 X0.0000 Y0.0000 Z-0.1111 I-0.4375 J0.0000 
G1 G91 G2 X0.0000 Y0.0000 Z-0.1111 I-0.4375 J0.0000 
G1 G91 G2 X0.0000 Y0.0000 Z-0.1111 I-0.4375 J0.0000 
G1 G91 G2 X0.0000 Y0.0000 Z-0.1111 I-0.4375 J0.0000 
G1 G91 G2 X0.0000 Y0.0000 Z-0.1111 I-0.4375 J0.0000 
G1 G91 G2 X0.0000 Y0.0000 Z-0.1111 I-0.4375 J0.0000 
G1 G91 G2 X0.0000 Y0.0000 Z-0.1111 I-0.4375 J0.0000 
G1 G91 G2 X0.0000 Y0.0000 Z-0.1111 I-0.4375 J0.0000   
G1 G91 G40 X-0.4375 Y0.0000
G1 G90 Z7.6000 F0.300
G0 G90 Z12.0000
(*************************************************)

(********* THREAD 2 *********)
(* FINISH D22.225MM/D0.875" *)
G0 G90 X10.4974 Y1.2437
G0 G90 Z8.5000
M01
G1 G90 Z8.4000 F0.300
G1 G91 G42 D1 X0.4375 Y0.0000 F0.010
G1 G91 G2 X0.0000 Y0.0000 Z-0.1111 I-0.4375 J0.0000 
G1 G91 G2 X0.0000 Y0.0000 Z-0.1111 I-0.4375 J0.0000 
G1 G91 G2 X0.0000 Y0.0000 Z-0.1111 I-0.4375 J0.0000 
G1 G91 G2 X0.0000 Y0.0000 Z-0.1111 I-0.4375 J0.0000 
G1 G91 G2 X0.0000 Y0.0000 Z-0.1111 I-0.4375 J0.0000 
G1 G91 G2 X0.0000 Y0.0000 Z-0.1111 I-0.4375 J0.0000 
G1 G91 G2 X0.0000 Y0.0000 Z-0.1111 I-0.4375 J0.0000 
G1 G91 G2 X0.0000 Y0.0000 Z-0.1111 I-0.4375 J0.0000 
G1 G91 G2 X0.0000 Y0.0000 Z-0.1111 I-0.4375 J0.0000   
G1 G91 G40 X-0.4375 Y0.0000
G1 G90 Z7.6000 F0.300
G0 G90 Z12.0000

(*************************************************)

(********* THREAD 3 *********)
(* FINISH D22.225MM/D0.875" *)
G0 G90 X10.4974 Y-1.2437
G0 G90 Z8.5000
M01
G1 G90 Z8.4000 F0.300
G1 G91 G42 D1 X0.4375 Y0.0000 F0.010
G1 G91 G2 X0.0000 Y0.0000 Z-0.1111 I-0.4375 J0.0000 
G1 G91 G2 X0.0000 Y0.0000 Z-0.1111 I-0.4375 J0.0000 
G1 G91 G2 X0.0000 Y0.0000 Z-0.1111 I-0.4375 J0.0000 
G1 G91 G2 X0.0000 Y0.0000 Z-0.1111 I-0.4375 J0.0000 
G1 G91 G2 X0.0000 Y0.0000 Z-0.1111 I-0.4375 J0.0000 
G1 G91 G2 X0.0000 Y0.0000 Z-0.1111 I-0.4375 J0.0000 
G1 G91 G2 X0.0000 Y0.0000 Z-0.1111 I-0.4375 J0.0000 
G1 G91 G2 X0.0000 Y0.0000 Z-0.1111 I-0.4375 J0.0000 
G1 G91 G2 X0.0000 Y0.0000 Z-0.1111 I-0.4375 J0.0000   
G1 G91 G40 X-0.4375 Y0.0000
G1 G90 Z7.6000 F0.300
G0 G90 Z12.0000

(*************************************************)

(********* THREAD 4 *********)
(* FINISH D22.225MM/D0.875" *)
G0 G90 X12.2563 Y-3.0026
G0 G90 Z8.5000
M01
G1 G90 Z8.4000 F0.300
G1 G91 G42 D1 X0.4375 Y0.0000 F0.010
G1 G91 G2 X0.0000 Y0.0000 Z-0.1111 I-0.4375 J0.0000 
G1 G91 G2 X0.0000 Y0.0000 Z-0.1111 I-0.4375 J0.0000 
G1 G91 G2 X0.0000 Y0.0000 Z-0.1111 I-0.4375 J0.0000 
G1 G91 G2 X0.0000 Y0.0000 Z-0.1111 I-0.4375 J0.0000 
G1 G91 G2 X0.0000 Y0.0000 Z-0.1111 I-0.4375 J0.0000 
G1 G91 G2 X0.0000 Y0.0000 Z-0.1111 I-0.4375 J0.0000 
G1 G91 G2 X0.0000 Y0.0000 Z-0.1111 I-0.4375 J0.0000 
G1 G91 G2 X0.0000 Y0.0000 Z-0.1111 I-0.4375 J0.0000 
G1 G91 G2 X0.0000 Y0.0000 Z-0.1111 I-0.4375 J0.0000   
G1 G91 G40 X-0.4375 Y0.0000
G1 G90 Z7.6000 F0.300
G0 G90 Z12.0000

(*************************************************)

(********* THREAD 5 *********)
(* FINISH D22.225MM/D0.875" *)
G0 G90 X14.7437 Y-3.0026
G0 G90 Z8.5000
M01
G1 G90 Z8.4000 F0.300
G1 G91 G42 D1 X0.4375 Y0.0000 F0.010
G1 G91 G2 X0.0000 Y0.0000 Z-0.1111 I-0.4375 J0.0000 
G1 G91 G2 X0.0000 Y0.0000 Z-0.1111 I-0.4375 J0.0000 
G1 G91 G2 X0.0000 Y0.0000 Z-0.1111 I-0.4375 J0.0000 
G1 G91 G2 X0.0000 Y0.0000 Z-0.1111 I-0.4375 J0.0000 
G1 G91 G2 X0.0000 Y0.0000 Z-0.1111 I-0.4375 J0.0000 
G1 G91 G2 X0.0000 Y0.0000 Z-0.1111 I-0.4375 J0.0000 
G1 G91 G2 X0.0000 Y0.0000 Z-0.1111 I-0.4375 J0.0000 
G1 G91 G2 X0.0000 Y0.0000 Z-0.1111 I-0.4375 J0.0000 
G1 G91 G2 X0.0000 Y0.0000 Z-0.1111 I-0.4375 J0.0000   
G1 G91 G40 X-0.4375 Y0.0000
G1 G90 Z7.6000 F0.300
G0 G90 Z12.0000

(*************************************************)

(********* THREAD 6 *********)
(* FINISH D22.225MM/D0.875" *)
G0 G90 X16.5026 Y-1.2437
G0 G90 Z8.5000
M01
G1 G90 Z8.4000 F0.300
G1 G91 G42 D1 X0.4375 Y0.0000 F0.010
G1 G91 G2 X0.0000 Y0.0000 Z-0.1111 I-0.4375 J0.0000 
G1 G91 G2 X0.0000 Y0.0000 Z-0.1111 I-0.4375 J0.0000 
G1 G91 G2 X0.0000 Y0.0000 Z-0.1111 I-0.4375 J0.0000 
G1 G91 G2 X0.0000 Y0.0000 Z-0.1111 I-0.4375 J0.0000 
G1 G91 G2 X0.0000 Y0.0000 Z-0.1111 I-0.4375 J0.0000 
G1 G91 G2 X0.0000 Y0.0000 Z-0.1111 I-0.4375 J0.0000 
G1 G91 G2 X0.0000 Y0.0000 Z-0.1111 I-0.4375 J0.0000 
G1 G91 G2 X0.0000 Y0.0000 Z-0.1111 I-0.4375 J0.0000 
G1 G91 G2 X0.0000 Y0.0000 Z-0.1111 I-0.4375 J0.0000   
G1 G91 G40 X-0.4375 Y0.0000
G1 G90 Z7.6000 F0.300
G0 G90 Z12.0000

(*************************************************)

(********* THREAD 7 *********)
(* FINISH D22.225MM/D0.875" *)
G0 G90 X16.5026 Y1.2437
G0 G90 Z8.5000
M01
G1 G90 Z8.4000 F0.300
G1 G91 G42 D1 X0.4375 Y0.0000 F0.010
G1 G91 G2 X0.0000 Y0.0000 Z-0.1111 I-0.4375 J0.0000 
G1 G91 G2 X0.0000 Y0.0000 Z-0.1111 I-0.4375 J0.0000 
G1 G91 G2 X0.0000 Y0.0000 Z-0.1111 I-0.4375 J0.0000 
G1 G91 G2 X0.0000 Y0.0000 Z-0.1111 I-0.4375 J0.0000 
G1 G91 G2 X0.0000 Y0.0000 Z-0.1111 I-0.4375 J0.0000 
G1 G91 G2 X0.0000 Y0.0000 Z-0.1111 I-0.4375 J0.0000 
G1 G91 G2 X0.0000 Y0.0000 Z-0.1111 I-0.4375 J0.0000 
G1 G91 G2 X0.0000 Y0.0000 Z-0.1111 I-0.4375 J0.0000 
G1 G91 G2 X0.0000 Y0.0000 Z-0.1111 I-0.4375 J0.0000   
G1 G91 G40 X-0.4375 Y0.0000
G1 G90 Z7.6000 F0.300
G0 G90 Z12.0000

(*************************************************)

(********* THREAD 8 *********)
(* FINISH D22.225MM/D0.875" *)
G0 G90 X14.7437 Y3.0026
G0 G90 Z8.5000
M01
G1 G90 Z8.4000 F0.300
G1 G91 G42 D1 X0.4375 Y0.0000 F0.010
G1 G91 G2 X0.0000 Y0.0000 Z-0.1111 I-0.4375 J0.0000 
G1 G91 G2 X0.0000 Y0.0000 Z-0.1111 I-0.4375 J0.0000 
G1 G91 G2 X0.0000 Y0.0000 Z-0.1111 I-0.4375 J0.0000 
G1 G91 G2 X0.0000 Y0.0000 Z-0.1111 I-0.4375 J0.0000 
G1 G91 G2 X0.0000 Y0.0000 Z-0.1111 I-0.4375 J0.0000 
G1 G91 G2 X0.0000 Y0.0000 Z-0.1111 I-0.4375 J0.0000 
G1 G91 G2 X0.0000 Y0.0000 Z-0.1111 I-0.4375 J0.0000 
G1 G91 G2 X0.0000 Y0.0000 Z-0.1111 I-0.4375 J0.0000 
G1 G91 G2 X0.0000 Y0.0000 Z-0.1111 I-0.4375 J0.0000   
G1 G91 G40 X-0.4375 Y0.0000
G1 G90 Z7.6000 F0.300
G0 G90 Z12.0000
G0 Z15.0000
G49 G69
M9
M5
G91 G28 Z0 (1 - HOME Z)
G91 G28 X0 (2 - HOME X)
G91 G28 Y0 (3 - HOME Y)
G90
M0 

        ( DRILL SIDE OUTLET D1.625 *2* )
N28
(OPERATION: ROUGH HOLE D1.662" DRILL D1.625" VGS2.7.29)
(COMMENT: DRILLING - ROUGH HOLE D1.662" API VR DRILL D1.625")
(B AXIS ANGLE: 90.0 DEGREES)
(TOOL ID: T10008 TD10053 - TOOL DIAMETER: 41.275MM)
(TOOL COMMENT: U DRILL D41.275MM X 4XD)
T021.01 M6
G91 G28 Z0 (Z TO SAFETY)
G90
G55 G64
(**************************)
(* G55 WORK-OFFSET ACTIVE *)
(**************************)
G17 M200 M212 (MILLING MODE)
G10.9 X0 (RADIUS MODE)
G97 S780 M3
M108 (UNCLAMP B AXIS)
G0 B90.
M107 (CLAMP B AXIS)
M212 (UNCLAMP C AXIS)
G0 C0.
M210 (CLAMP C AXIS)
G68 X0. Y0. Z0. I0. J1. K0. R90.
G0 Y0.0000
G0 X13.5000 Y0.0000 Z16.0000
G95
M8   M51
G0 Z12.0000
G99 G83 X13.5000 Y0.0000 Z4.8000(Z4.9000) R8.6181 D0.200 Q1.00 F0.005
G80
G0 Z16.0000
G49 G69
M9
M5
G91 G28 Z0 (1 - HOME Z)
G91 G28 X0 (2 - HOME X)
G91 G28 Y0 (3 - HOME Y)
G90
M0

N29
(OPERATION: ROUGH HOLE D1.662" DRILL D1.625" VGS2.7.29)
(COMMENT: DRILLING - ROUGH HOLE D1.662" API VR DRILL D1.625")
(B AXIS ANGLE: 90.0 DEGREES)
(TOOL ID: T10008 TD10053 - TOOL DIAMETER: 41.275MM)
(TOOL COMMENT: U DRILL D41.275MM X 4XD)
T021.01 M6
G91 G28 Z0 (Z TO SAFETY)
G90
G55 G64
(**************************)
(* G55 WORK-OFFSET ACTIVE *)
(**************************)
G17 M200 M212 (MILLING MODE)
G10.9 X0 (RADIUS MODE)
G97 S780 M3
M108 (UNCLAMP B AXIS)
G0 B90.
M107 (CLAMP B AXIS)
M212 (UNCLAMP C AXIS)
G0 C180.
M210 (CLAMP C AXIS)
G68 X0. Y0. Z0. I0. J1. K0. R90.
G0 Y0.0000
G0 X13.5000 Y0.0000 Z16.0000
G95
M8   M51
G0 Z12.0000
G99 G83 X13.5000 Y0.0000 Z4.8000(Z4.9000) R8.6181 D0.200 Q1.00 F0.005
G80
G0 Z16.0000
G49 G69
M9
M5
G91 G28 Z0 (1 - HOME Z)
G91 G28 X0 (2 - HOME X)
G91 G28 Y0 (3 - HOME Y)
G90
M0

N30
(OPERATION: ROUGH - 2-1/16" API VR THREAD VGS2.7.29)
(COMMENT: MILLING - ROUGH - 2-1/16" API VR THREAD VGS2.7.29)
(B AXIS ANGLE: 90.0 DEGREES)
(TOOL ID: TD10029 - TOOL DIAMETER: 25MM)
(TOOL COMMENT: SQUARE SHOUDER MILL D25MM)
T022.01 M6
(T040.01) (TOOL ON HOLD)
G91 G28 Z0 (Z TO SAFETY)
G90
G55 G64
(**************************)
(* G55 WORK-OFFSET ACTIVE *)
(**************************)
G17 M200 M212 (MILLING MODE)
G10.9 X0 (RADIUS MODE)
G97 S1320 M3
M108 (UNCLAMP B AXIS)
G0 B90.
M107 (CLAMP B AXIS)
M212 (UNCLAMP C AXIS)
G0 C0.
M210 (CLAMP C AXIS)
G68 X0. Y0. Z0. I0. J1. K0. R90.
G0 Y0.0000
G0 X13.5000 Y0.0000 Z16.0000
G0 Z12.0000
M8   M51
G95 
G0 Z8.6000
G01 Z8.450 F0.025
G01 G42 X13.500 Y0.9000 F0.026
G02.1 X13.500 Y0.820 Z5.890 J-0.900 P128 F0.026
G01 G40 X13.5000 Y0.0000 
G1 Z8.600 F0.300
G0 Z16.0000 M9
G49 G69
M5
G91 G28 Z0 (1 - HOME Z)
G91 G28 X0 (2 - HOME X)
G91 G28 Y0 (3 - HOME Y)
G90
M01

N31
(OPERATION: ROUGH - 2-1/16" API VR THREAD VGS2.7.29)
(COMMENT: MILLING - ROUGH - 2-1/16" API VR THREAD VGS2.7.29)
(B AXIS ANGLE: 90.0 DEGREES)
(TOOL ID: TD10029 - TOOL DIAMETER: 25MM)
(TOOL COMMENT: SQUARE SHOUDER MILL D25MM)
T022.01 M6
(T040.01) (TOOL ON HOLD)
G91 G28 Z0 (Z TO SAFETY)
G90
G55 G64
(**************************)
(* G55 WORK-OFFSET ACTIVE *)
(**************************)
G17 M200 M212 (MILLING MODE)
G10.9 X0 (RADIUS MODE)
G97 S1320 M3
M108 (UNCLAMP B AXIS)
G0 B90.
M107 (CLAMP B AXIS)
M212 (UNCLAMP C AXIS)
G0 C180.
M210 (CLAMP C AXIS)
G68 X0. Y0. Z0. I0. J1. K0. R90.
G0 Y0.0000
G0 X13.5000 Y0.0000 Z16.0000
G0 Z12.0000
M8   M51
G95 
G0 Z8.6000
G01 Z8.450 F0.025
G01 G42 X13.500 Y0.9000 F0.026
G02.1 X13.500 Y0.820 Z5.890 J-0.900 P128 F0.026
G01 G40 X13.5000 Y0.0000 
G1 Z8.600 F0.300
G0 Z16.0000 M9
G49 G69
M5
G91 G28 Z0 (1 - HOME Z)
G91 G28 X0 (2 - HOME X)
G91 G28 Y0 (3 - HOME Y)
G90
M01

N32
(OPERATION: ROUGH - 2-1/16" API VR THREAD VGS2.7.29)
(COMMENT: MILLING - ROUGH TAPER PROFILE 2-1/16" API VR THREAD VGS2.7.29)
(B AXIS ANGLE: 90.0 DEGREES)
(TOOL ID: TD10029 - TOOL DIAMETER: 25MM)
(TOOL COMMENT: SQUARE SHOUDER MILL D25MM)
T022.01 M6
G91 G28 Z0 (Z TO SAFETY)
G90
G55 G64
(**************************)
(* G55 WORK-OFFSET ACTIVE *)
(**************************)
G17 M200 M212 (MILLING MODE)
G10.9 X0 (RADIUS MODE)
G97 S1320 M3
M108 (UNCLAMP B AXIS)
G0 B90.
M107 (CLAMP B AXIS)
M212 (UNCLAMP C AXIS)
G0 C0.
M210 (CLAMP C AXIS)
G68 X0. Y0. Z0. I0. J1. K0. R90.
G0 Y0.0000
G0 X13.5000 Y0.0000 Z16.0000
G0 Z12.0000
M8 M51
G95 
G0 Z8.6000
G01 Z8.440 F0.300
 
G01 G41 X13.500 Y1.0970 F0.026
G03.1 X13.500 Y1.0970 Z8.00 J-1.0970 P44 F0.015
G01 G40 X13.500 Y0.0000
 
G01 G41 X13.500 Y1.0970 F0.015
G03 X13.500 Y1.0970 J-1.0970 F0.015 
G01 G40 X13.500 Y0.0000 
 
G01 G41 X13.500 Y1.0970 F0.026
G03.1 X13.500 Y0.8070 Z7.7100 J-1.0970 P48 F0.015 
G01 G40 X13.500 Y0.0000 

G0 Z16.0000
G49 G69
M9
M5
G91 G28 Z0 (1 - HOME Z)
G91 G28 X0 (2 - HOME X)
G91 G28 Y0 (3 - HOME Y)
G90
M01

N33
(OPERATION: ROUGH - 2-1/16" API VR THREAD VGS2.7.29)
(COMMENT: MILLING - ROUGH TAPER PROFILE 2-1/16" API VR THREAD VGS2.7.29)
(B AXIS ANGLE: 90.0 DEGREES)
(TOOL ID: TD10029 - TOOL DIAMETER: 25MM)
(TOOL COMMENT: SQUARE SHOUDER MILL D25MM)
T022.01 M6
G91 G28 Z0 (Z TO SAFETY)
G90
G55 G64
(**************************)
(* G55 WORK-OFFSET ACTIVE *)
(**************************)
G17 M200 M212 (MILLING MODE)
G10.9 X0 (RADIUS MODE)
G97 S1320 M3
M108 (UNCLAMP B AXIS)
G0 B90.
M107 (CLAMP B AXIS)
M212 (UNCLAMP C AXIS)
G0 C180.
M210 (CLAMP C AXIS)
G68 X0. Y0. Z0. I0. J1. K0. R90.
G0 Y0.0000
G0 X13.5000 Y0.0000 Z16.0000
G0 Z12.0000
M8 M51
G95 
G0 Z8.6000
G01 Z8.440 F0.300
 
G01 G41 X13.500 Y1.0970 F0.026
G03.1 X13.500 Y1.0970 Z8.00 J-1.0970 P44 F0.015
G01 G40 X13.500 Y0.0000
 
G01 G41 X13.500 Y1.0970 F0.015
G03 X13.500 Y1.0970 J-1.0970 F0.015 
G01 G40 X13.500 Y0.0000 
 
G01 G41 X13.500 Y1.0970 F0.026
G03.1 X13.500 Y0.8070 Z7.7100 J-1.0970 P48 F0.015 
G01 G40 X13.500 Y0.0000 

G0 Z16.0000
G49 G69
M9
M5
G91 G28 Z0 (1 - HOME Z)
G91 G28 X0 (2 - HOME X)
G91 G28 Y0 (3 - HOME Y)
G90
M01
M00
M00


N34
(OPERATION: 2-1/16" API VR THREAD 11.5TPI VGS2.7.29)
(COMMENT: THREADING - 2-1/16" API VR THREAD 11.5TPI VGS2.7.29)
(B AXIS ANGLE: 90.0 DEGREES)
(TOOL ID: TD10024 - TOOL DIAMETER: 51.9MM)
(TOOL COMMENT: BORING BAR THREAD E3416 584 40120 + 266RKF-40-16 + 266RL-16NT01C115M 1135)
T040.01 M6
(T031.01) (TOOL ON HOLD)
G91 G28 Z0 (Z TO SAFETY)
G90
G55 G64
(**************************)
(* G55 WORK-OFFSET ACTIVE *)
(**************************)
G17 M200 M212 (MILLING MODE)
G10.9 X0 (RADIUS MODE)
G97 S1240 M3
M108 (UNCLAMP B AXIS)
G0 B90.
M107 (CLAMP B AXIS)
M212 (UNCLAMP C AXIS)
G0 C0.
M210 (CLAMP C AXIS)
G68 X0. Y0. Z0. I0. J1. K0. R90.
G0 Y0.0000 Z20.0
G0 X13.5000 Y0.0000 Z16.0000
G0 Z12.0000
G95
M8  M51
G0 Z8.6000
G01 Z8.4869 F0.300 
G01 G42 X13.500 Y0.955 F0.0035
G02.1 X13.500 Y0.8842 Z6.2275 J-0.955 P26 
G1 G40 X13.5000 Y0.0000
G0 Z8.6000 M9
G0 Z16.0000 M5
G49 G69
M9
M5
G91 G28 Z0 (1 - HOME Z)
G91 G28 X0 (2 - HOME X)
G91 G28 Y0 (3 - HOME Y)
G90
M0

N35
(OPERATION: 2-1/16" API VR THREAD 11.5TPI VGS2.7.29)
(COMMENT: THREADING - 2-1/16" API VR THREAD 11.5TPI VGS2.7.29)
(B AXIS ANGLE: 90.0 DEGREES)
(TOOL ID: TD10024 - TOOL DIAMETER: 51.9MM)
(TOOL COMMENT: BORING BAR THREAD E3416 584 40120 + 266RKF-40-16 + 266RL-16NT01C115M 1135)
T040.01 M6
(T031.01) (TOOL ON HOLD)
G91 G28 Z0 (Z TO SAFETY)
G90
G55 G64
(**************************)
(* G55 WORK-OFFSET ACTIVE *)
(**************************)
G17 M200 M212 (MILLING MODE)
G10.9 X0 (RADIUS MODE)
G97 S1240 M3
M108 (UNCLAMP B AXIS)
G0 B90.
M107 (CLAMP B AXIS)
M212 (UNCLAMP C AXIS)
G0 C180.
M210 (CLAMP C AXIS)
G68 X0. Y0. Z0. I0. J1. K0. R90.
G0 Y0.0000 Z20.0
G0 X13.5000 Y0.0000 Z16.0000
G0 Z12.0000
G95
M8  M51
G0 Z8.6000
G01 Z8.4869 F0.300 
G01 G42 X13.500 Y0.955 F0.0035
G02.1 X13.500 Y0.8842 Z6.2275 J-0.955 P26 
G1 G40 X13.5000 Y0.0000
G0 Z8.6000 M9
G0 Z16.0000 M5
G49 G69
M9
M5
G91 G28 Z0 (1 - HOME Z)
G91 G28 X0 (2 - HOME X)
G91 G28 Y0 (3 - HOME Y)
G90
M01
M0
M00

(USE TOOL KYOCERA R24)
(CHANGE TOOL MANUALY )
N36
(OPERATION: R-24 RING GROOVE VGS2.8.6)
(COMMENT: MILLING - R-24 RING GROOVE VGS2.8.6)
(B AXIS ANGLE: 90.0 DEGREES)
(TOOL ID: TD1XXXX - TOOL DIAMETER: KYOCERA R24)
(TOOL COMMENT: SPIRO GROVING SET KYOCERA R24)
T031.01 M6
(T024.01) (TOOL ON HOLD)
G91 G28 Z0 (Z TO SAFETY)
G90
G55 G64
(**************************)
(* G55 WORK-OFFSET ACTIVE *)
(**************************)
G17 M200 M212 (MILLING MODE)
G10.9 X0 (RADIUS MODE)
G97 S400 M3
M108 (UNCLAMP B AXIS)
G0 B90.
M107 (CLAMP B AXIS)
M212 (UNCLAMP C AXIS)
G0 C0.
M210 (CLAMP C AXIS)
G68 X0. Y0. Z0. I0. J1. K0. R90.
G0 Y0.0000 Z20.
G0 X13.5000 Y0.0000 Z16.0000
G0 Z12.0000
G95
M8 
G0 Z8.6000
G01 Z8.4100 F0.025
G01 G91 Y0.0420 F0.005
G03 J-0.0420 Z-0.0200 
G03 J-0.0420 Z-0.0200 
G03 J-0.0420 Z-0.0200 
G03 J-0.0420 Z-0.0200 
G03 J-0.0420 Z-0.0200 
G03 J-0.0420 Z-0.0200 
G03 J-0.0420 Z-0.0200 
G03 J-0.0420 Z-0.0200 
G03 J-0.0420 Z-0.0200 
G03 J-0.0420 Z-0.0200 
G03 J-0.0420 Z-0.0200 
G03 J-0.0420 Z-0.0200 F0.004 
G03 J-0.0420 Z-0.0200 
G03 J-0.0420 Z-0.0200 
G03 J-0.0420 Z-0.0200 
G03 J-0.0420 Z-0.0100 F0.002 
G03 J-0.0420 Z-0.0100 
(G04 X2.) 
M3 S485 
G03 J-0.0420 Z-0.0050 F0.0005
G03 J-0.0420 Z-0.0050 F0.0004
G03 J-0.0420  
G03 J-0.0420  
G01 G90 Z8.400 F0.250
G0 Z8.6000 M9
G0 Z16.0000
G49 G69
M9
M5
G91 G28 Z0 (1 - HOME Z)
G91 G28 X0 (2 - HOME X)
G91 G28 Y0 (3 - HOME Y)
G90
M0
M00

(-----------------------------------------)
(R-24   2ND  C180.0)
N37
(OPERATION: R-24 RING GROOVE VGS2.8.6)
(COMMENT: MILLING - R-24 RING GROOVE VGS2.8.6)
(B AXIS ANGLE: 90.0 DEGREES)
(TOOL ID: TD1XXXX - TOOL DIAMETER: KYOCERA R24)
(TOOL COMMENT: SPIRO GROVING SET KYOCERA R24)
T031.01 M6
(T024.01) (TOOL ON HOLD)
G91 G28 Z0 (Z TO SAFETY)
G90
G55 G64
(**************************)
(* G55 WORK-OFFSET ACTIVE *)
(**************************)
G17 M200 M212 (MILLING MODE)
G10.9 X0 (RADIUS MODE)
G97 S400 M3
M108 (UNCLAMP B AXIS)
G0 B90.
M107 (CLAMP B AXIS)
M212 (UNCLAMP C AXIS)
G0 C180.
M210 (CLAMP C AXIS)
G68 X0. Y0. Z0. I0. J1. K0. R90.
G0 Y0.0000 Z20.
G0 X13.5000 Y0.0000 Z16.0000
G0 Z12.0000
G95
M8 
G0 Z8.6000
G01 Z8.4100 F0.025
G01 G91 Y0.0420 F0.005
G03 J-0.0420 Z-0.0200 
G03 J-0.0420 Z-0.0200 
G03 J-0.0420 Z-0.0200 
G03 J-0.0420 Z-0.0200 
G03 J-0.0420 Z-0.0200 
G03 J-0.0420 Z-0.0200 
G03 J-0.0420 Z-0.0200 
G03 J-0.0420 Z-0.0200 
G03 J-0.0420 Z-0.0200 
G03 J-0.0420 Z-0.0200 
G03 J-0.0420 Z-0.0200 
G03 J-0.0420 Z-0.0200 F0.004 
G03 J-0.0420 Z-0.0200 
G03 J-0.0420 Z-0.0200 
G03 J-0.0420 Z-0.0200 
G03 J-0.0420 Z-0.0100 F0.002 
G03 J-0.0420 Z-0.0100 
(G04 X2.) 
M3 S485 
G03 J-0.0420 Z-0.0050 F0.0005
G03 J-0.0420 Z-0.0050 F0.0004
G03 J-0.0420  
G03 J-0.0420  
G01 G90 Z8.400 F0.250
G0 Z8.6000 M9
G0 Z16.0000
G49 G69
M9
M5
G91 G28 Z0 (1 - HOME Z)
G91 G28 X0 (2 - HOME X)
G91 G28 Y0 (3 - HOME Y)
G90
M0
M0 (MANUAL TOOL LOADING)
G91 G28 Z0 (1 - HOME Z)
G91 G28 X0 (2 - HOME X)
G91 G28 Y0 (3 - HOME Y)
G90
M108 (UNCLAMP B AXIS)
G0 B90.
M107 (CLAMP B AXIS)
G0 G91 Y-41.5
Z-27.
M19
M00 (MANUAL TOOL UNLOAD)


N38
(OPERATION: ROUGH SCREW SOCKET D1.648" VGS2.7.12/VGS2.7.36-16)
(COMMENT: DRILLING - ROUGH D1-1/2" SCREW SOCKET HOLE D41.275MM/D1.625")
(B AXIS ANGLE: 90.0 DEGREES)
(TOOL ID: TD10008 - TOOL DIAMETER: 41.275MM)
(TOOL COMMENT: U DRILL D41.275MM/D1.625" X 3D)
T013.01 M6
(T012.01) (TOOL ON HOLD)
G91 G28 Z0 (Z TO SAFETY)
G90
G55 G64
(**************************)
(* G55 WORK-OFFSET ACTIVE *)
(**************************)
G17 M200 M212 (MILLING MODE)
G10.9 X0 (RADIUS MODE)
G97 S780 M3
M108 (UNCLAMP B AXIS)
G0 B90.
M107 (CLAMP B AXIS)
M212 (UNCLAMP C AXIS)
G0 C30.
M210 (CLAMP C AXIS)
G68 X0. Y0. Z0. I0. J1. K0. R90.
G0 Y0.0000
G0 X1.6250 Y0.0000 Z16.0000
G95
M51
G0 Z13.0000
G98 G83 X1.6250 Y0.0000 Z7.270 R11.6181 D0.2 Q1.000 F0.0034
X1.6250 Y0.0000 C60.
X1.6250 Y0.0000 C90.
X1.6250 Y0.0000 C120.
X1.6250 Y0.0000 C150.
X1.6250 Y0.0000 C180.
X1.6250 Y0.0000 C210.
X1.6250 Y0.0000 C240.
X1.6250 Y0.0000 C270.
X1.6250 Y0.0000 C300.
X1.6250 Y0.0000 C330.
G80
G0 Z16.0000
G49 G69
M9
M5
G91 G28 Z0 (1 - HOME Z)
G91 G28 X0 (2 - HOME X)
G91 G28 Y0 (3 - HOME Y)
G90
M0

N39
(OPERATION: ROUGH SCREW SOCKET D1.335" VGS2.7.12/VGS2.7.36-16)
(COMMENT: DRILLING - ROUGH 1-1/2" SCREW SOCKET HOLE THRU )
(B AXIS ANGLE: 90.0 DEGREES)
(TOOL ID: TD10069 - TOOL DIAMETER: 32MM)
(TOOL COMMENT: U DRILL D32 X 5D)
T012.01 M6
(T014.01) (TOOL ON HOLD)
G91 G28 Z0 (Z TO SAFETY)
G90
G55 G64
(**************************)
(* G55 WORK-OFFSET ACTIVE *)
(**************************)
G17 M200 M212 (MILLING MODE)
G10.9 X0 (RADIUS MODE)
G97 S1000 M3
M108 (UNCLAMP B AXIS)
G0 B90.
M107 (CLAMP B AXIS)
M212 (UNCLAMP C AXIS)
G0 C30.
M210 (CLAMP C AXIS)
G68 X0. Y0. Z0. I0. J1. K0. R90.
G0 Y0.0000
G0 X1.6250 Y0.0000 Z16.0000
G95
M51
G0 Z13.0000
G98 G83 X1.6250 Y0.0000 Z5.250 R7.5 D0.2 Q1.000 F0.0035
X1.6250 Y0.0000 C60.
X1.6250 Y0.0000 C90.
X1.6250 Y0.0000 C120.
X1.6250 Y0.0000 C150.
X1.6250 Y0.0000 C180.
X1.6250 Y0.0000 C210.
X1.6250 Y0.0000 C240.
X1.6250 Y0.0000 C270.
X1.6250 Y0.0000 C300.
X1.6250 Y0.0000 C330.
G80
G0 Z16.0000
G49 G69
M9
M5
G91 G28 Z0 (1 - HOME Z)
G91 G28 X0 (2 - HOME X)
G91 G28 Y0 (3 - HOME Y)
G90
M0


N40
(OPERATION: BORING - 1-1/2" SCREW SOCKET D33.9MM/D1.335" VGS2.7.12/VGS2.7.36-16)
(COMMENT: TRY OUT BORING - 1-1/2" SCREW SOCKET D33.9MM/D1.335")
(B AXIS ANGLE: 90.0 DEGREES)
(TOOL ID: TD10063 - TOOL DIAMETER: 33.9MM)
(TOOL COMMENT: SILENT TOOL BORING BAR D33.9MM/D1.335" X 6")
T014.01 M6
(T038.01) (TOOL HOLD ON)
G91 G28 Z0 (Z TO SAFETY)
G90
G55 G64
(**************************)
(* G55 WORK-OFFSET ACTIVE *)
(**************************)
G17 M200 M212 (MILLING MODE)
G10.9 X0 (RADIUS MODE)
G97 S940 M3
M108 (UNCLAMP B AXIS)
G0 B90.
M107 (CLAMP B AXIS)
M212 (UNCLAMP C AXIS)
G0 C30.
M210 (CLAMP C AXIS)
G68 X0. Y0. Z0. I0. J1. K0. R90.
G0 Y0.0000
G0 X1.6250 Y0.0000 Z16.0000
G95
G0 Z13.0000
M8
G98 G76 X1.6250 Y0.0000 Z6.800 R7.450 (D0.1181) Q0.005 F0.005
G80
M9 (* CHECK DIAMETER D33.9MM/D1.335" *)
G0 Z16.0000
G49 G69
M9
M5
G91 G28 Z0 (1 - HOME Z)
G91 G28 X0 (2 - HOME X)
G91 G28 Y0 (3 - HOME Y)
G90
M0


N41
(OPERATION: 1-1/2" SCREW SOCKET BORING D33.9MM/D1.335" VGS2.7.12/VGS2.7.36-16)
(COMMENT: BORING - 1-1/2" SCREW SOCKET D33.9MM/D1.335")
(B AXIS ANGLE: 90.0 DEGREES)
(TOOL ID: TD10063 - TOOL DIAMETER: 33.9MM)
(TOOL COMMENT: SILENT TOOL BORING BAR D33.9MM/D1.335" X 6")
T014.01 M6
G91 G28 Z0 (Z TO SAFETY)
G90
G55 G64
(**************************)
(* G55 WORK-OFFSET ACTIVE *)
